/* XPM */
static char *_f330a34a93e4117882e4c645c65d546cemOISMRxXGSOvdo[] = {
/* columns rows colors chars-per-pixel */
"200 200 4 1 ",
"  c #464646",
". c gray46",
"X c #B4B4B4",
"o c white",
/* pixels */
"                                                                                                                                                                                                        ",
" ...................................................................................................................................................................................................... ",
" ...................................................................................................................................................................................................... ",
" ...................................................................................................................................................................................................... ",
" ...................................................................................................................................................................................................... ",
" ...................................................................................................................................................................................................... ",
" ...................................................................................................................................................................................................... ",
" ...................................................................................................................................................................................................... ",
" ...................................................................................................................................................................................................... ",
" ...................................................................................................................................................................................................... ",
" .........                                                                                                                                                                                    ......... ",
" ......... oooooooooooooooooooooooooooooooooooooooooooooooooooooooooooooooooooooooooooooooooooooooX Xoooooooooooooooooooooooooooooooooooooooooooooooooooooooooooooooooooooooooooooooooooooooo ......... ",
" ......... oooooooooooooooooooooooooooooooooooooooooooooooooooooooooooooooooooooooooooooooooooooooX Xoooooooooooooooooooooooooooooooooooooooooooooooooooooooooooooooooooooooooooooooooooooooo ......... ",
" ......... oooooooooooooooooooooooooooooooooooooooooooooooooooooooooooooooooooooooooooooooooooooooX Xoooooooooooooooooooooooooooooooooooooooooooooooooooooooooooooooooooooooooooooooooooooooo ......... ",
" ......... oooooooooooooooooooooooooooooooooooooooooooooooooooooooooooooooooooooooooooooooooooooooX Xoooooooooooooooooooooooooooooooooooooooooooooooooooooooooooooooooooooooooooooooooooooooo ......... ",
" ......... oooooooooooooooooooooooooooooooooooooooooooooooooooooooooooooooooooooooooooooooooooooooX Xoooooooooooooooooooooooooooooooooooooooooooooooooooooooooooooooooooooooooooooooooooooooo ......... ",
" ......... oooooooooooooooooooooooooooooooooooooooooooooooooooooooooooooooooooooooooooooooooooooooX Xoooooooooooooooooooooooooooooooooooooooooooooooooooooooooooooooooooooooooooooooooooooooo ......... ",
" ......... oooooooooooooooooooooooooooooooooooooooooooooooooooooooooooooooooooooooooooooooooooooooX Xoooooooooooooooooooooooooooooooooooooooooooooooooooooooooooooooooooooooooooooooooooooooo ......... ",
" ......... oooooooooooooooooooooooooooooooooooooooooooooooooooooooooooooooooooooooooooooooooooooooX Xoooooooooooooooooooooooooooooooooooooooooooooooooooooooooooooooooooooooooooooooooooooooo ......... ",
" ......... oooooooooooooooooooooooooooooooooooooooooooooooooooooooooooooooooooooooooooooooooooooooX Xoooooooooooooooooooooooooooooooooooooooooooooooooooooooooooooooooooooooooooooooooooooooo ......... ",
" ......... oooooooooooooooooooooooooooooooooooooooooooooooooooooooooooooooooooooooooooooooooooooooX Xoooooooooooooooooooooooooooooooooooooooooooooooooooooooooooooooooooooooooooooooooooooooo ......... ",
" ......... oooooooooooooooooooooooooooooooooooooooooooooooooooooooooooooooooooooooooooooooooooooooX Xoooooooooooooooooooooooooooooooooooooooooooooooooooooooooooooooooooooooooooooooooooooooo ......... ",
" ......... oooooooooooooooooooooooooooooooooooooooooooooooooooooooooooooooooooooooooooooooooooooooX Xoooooooooooooooooooooooooooooooooooooooooooooooooooooooooooooooooooooooooooooooooooooooo ......... ",
" ......... oooooooooooooooooooooooooooooooooooooooooooooooooooooooooooooooooooooooooooooooooooooooX Xoooooooooooooooooooooooooooooooooooooooooooooooooooooooooooooooooooooooooooooooooooooooo ......... ",
" ......... oooooooooooooooooooooooooooooooooooooooooooooooooooooooooooooooooooooooooooooooooooooooX Xoooooooooooooooooooooooooooooooooooooooooooooooooooooooooooooooooooooooooooooooooooooooo ......... ",
" ......... oooooooooooooooooooooooooooooooooooooooooooooooooooooooooooooooooooooooooooooooooooooooX Xoooooooooooooooooooooooooooooooooooooooooooooooooooooooooooooooooooooooooooooooooooooooo ......... ",
" ......... oooooooooooooooooooooooooooooooooooooooooooooooooooooooooooooooooooooooooooooooooooooooX Xoooooooooooooooooooooooooooooooooooooooooooooooooooooooooooooooooooooooooooooooooooooooo ......... ",
" ......... oooooooooooooooooooooooooooooooooooooooooooooooooooooooooooooooooooooooooooooooooooooooX Xoooooooooooooooooooooooooooooooooooooooooooooooooooooooooooooooooooooooooooooooooooooooo ......... ",
" ......... oooooooooooooooooooooooooooooooooooooooooooooooooooooooooooooooooooooooooooooooooooooooX Xoooooooooooooooooooooooooooooooooooooooooooooooooooooooooooooooooooooooooooooooooooooooo ......... ",
" ......... oooooooooooooooooooooooooooooooooooooooooooooooooooooooooooooooooooooooooooooooooooooooX Xoooooooooooooooooooooooooooooooooooooooooooooooooooooooooooooooooooooooooooooooooooooooo ......... ",
" ......... oooooooooooooooooooooooooooooooooooooooooooooooooooooooooooooooooooooooooooooooooooooooX Xoooooooooooooooooooooooooooooooooooooooooooooooooooooooooooooooooooooooooooooooooooooooo ......... ",
" ......... oooooooooooooooooooooooooooooooooooooooooooooooooooooooooooooooooooooooooooooooooooooooX Xoooooooooooooooooooooooooooooooooooooooooooooooooooooooooooooooooooooooooooooooooooooooo ......... ",
" ......... oooooooooooooooooooooooooooooooooooooooooooooooooooooooooooooooooooooooooooooooooooooooX Xoooooooooooooooooooooooooooooooooooooooooooooooooooooooooooooooooooooooooooooooooooooooo ......... ",
" ......... oooooooooooooooooooooooooooooooooooooooooooooooooooooooooooooooooooooooooooooooooooooooX Xoooooooooooooooooooooooooooooooooooooooooooooooooooooooooooooooooooooooooooooooooooooooo ......... ",
" ......... oooooooooooooooooooooooooooooooooooooooooooooooooooooooooooooooooooooooooooooooooooooooX Xoooooooooooooooooooooooooooooooooooooooooooooooooooooooooooooooooooooooooooooooooooooooo ......... ",
" ......... oooooooooooooooooooooooooooooooooooooooooooooooooooooooooooooooooooooooooooooooooooooooX Xoooooooooooooooooooooooooooooooooooooooooooooooooooooooooooooooooooooooooooooooooooooooo ......... ",
" ......... oooooooooooooooooooooooooooooooooooooooooooooooooooooooooooooooooooooooooooooooooooooooX Xoooooooooooooooooooooooooooooooooooooooooooooooooooooooooooooooooooooooooooooooooooooooo ......... ",
" ......... oooooooooooooooooooooooooooooooooooooooooooooooooooooooooooooooooooooooooooooooooooooooX Xoooooooooooooooooooooooooooooooooooooooooooooooooooooooooooooooooooooooooooooooooooooooo ......... ",
" ......... oooooooooooooooooooooooooooooooooooooooooooooooooooooooooooooooooooooooooooooooooooooooX Xoooooooooooooooooooooooooooooooooooooooooooooooooooooooooooooooooooooooooooooooooooooooo ......... ",
" ......... oooooooooooooooooooooooooooooooooooooooooooooooooooooooooooooooooooooooooooooooooooooooX Xoooooooooooooooooooooooooooooooooooooooooooooooooooooooooooooooooooooooooooooooooooooooo ......... ",
" ......... oooooooooooooooooooooooooooooooooooooooooooooooooooooooooooooooooooooooooooooooooooooooX Xoooooooooooooooooooooooooooooooooooooooooooooooooooooooooooooooooooooooooooooooooooooooo ......... ",
" ......... oooooooooooooooooooooooooooooooooooooooooooooooooooooooooooooooooooooooooooooooooooooooX Xoooooooooooooooooooooooooooooooooooooooooooooooooooooooooooooooooooooooooooooooooooooooo ......... ",
" ......... oooooooooooooooooooooooooooooooooooooooooooooooooooooooooooooooooooooooooooooooooooooooX Xoooooooooooooooooooooooooooooooooooooooooooooooooooooooooooooooooooooooooooooooooooooooo ......... ",
" ......... oooooooooooooooooooooooooooooooooooooooooooooooooooooooooooooooooooooooooooooooooooooooX Xoooooooooooooooooooooooooooooooooooooooooooooooooooooooooooooooooooooooooooooooooooooooo ......... ",
" ......... oooooooooooooooooooooooooooooooooooooooooooooooooooooooooooooooooooooooooooooooooooooooX Xoooooooooooooooooooooooooooooooooooooooooooooooooooooooooooooooooooooooooooooooooooooooo ......... ",
" ......... oooooooooooooooooooooooooooooooooooooooooooooooooooooooooooooooooooooooooooooooooooooooX Xoooooooooooooooooooooooooooooooooooooooooooooooooooooooooooooooooooooooooooooooooooooooo ......... ",
" ......... oooooooooooooooooooooooooooooooooooooooooooooooooooooooooooooooooooooooooooooooooooooooX Xoooooooooooooooooooooooooooooooooooooooooooooooooooooooooooooooooooooooooooooooooooooooo ......... ",
" ......... oooooooooooooooooooooooooooooooooooooooooooooooooooooooooooooooooooooooooooooooooooooooX Xoooooooooooooooooooooooooooooooooooooooooooooooooooooooooooooooooooooooooooooooooooooooo ......... ",
" ......... oooooooooooooooooooooooooooooooooooooooooooooooooooooooooooooooooooooooooooooooooooooooX Xoooooooooooooooooooooooooooooooooooooooooooooooooooooooooooooooooooooooooooooooooooooooo ......... ",
" ......... oooooooooooooooooooooooooooooooooooooooooooooooooooooooooooooooooooooooooooooooooooooooX Xoooooooooooooooooooooooooooooooooooooooooooooooooooooooooooooooooooooooooooooooooooooooo ......... ",
" ......... oooooooooooooooooooooooooooooooooooooooooooooooooooooooooooooooooooooooooooooooooooooooX Xoooooooooooooooooooooooooooooooooooooooooooooooooooooooooooooooooooooooooooooooooooooooo ......... ",
" ......... oooooooooooooooooooooooooooooooooooooooooooooooooooooooooooooooooooooooooooooooooooooooX Xoooooooooooooooooooooooooooooooooooooooooooooooooooooooooooooooooooooooooooooooooooooooo ......... ",
" ......... oooooooooooooooooooooooooooooooooooooooooooooooooooooooooooooooooooooooooooooooooooooooX Xoooooooooooooooooooooooooooooooooooooooooooooooooooooooooooooooooooooooooooooooooooooooo ......... ",
" ......... oooooooooooooooooooooooooooooooooooooooooooooooooooooooooooooooooooooooooooooooooooooooX Xoooooooooooooooooooooooooooooooooooooooooooooooooooooooooooooooooooooooooooooooooooooooo ......... ",
" ......... oooooooooooooooooooooooooooooooooooooooooooooooooooooooooooooooooooooooooooooooooooooooX Xoooooooooooooooooooooooooooooooooooooooooooooooooooooooooooooooooooooooooooooooooooooooo ......... ",
" ......... oooooooooooooooooooooooooooooooooooooooooooooooooooooooooooooooooooooooooooooooooooooooX Xoooooooooooooooooooooooooooooooooooooooooooooooooooooooooooooooooooooooooooooooooooooooo ......... ",
" ......... oooooooooooooooooooooooooooooooooooooooooooooooooooooooooooooooooooooooooooooooooooooooX Xoooooooooooooooooooooooooooooooooooooooooooooooooooooooooooooooooooooooooooooooooooooooo ......... ",
" ......... oooooooooooooooooooooooooooooooooooooooooooooooooooooooooooooooooooooooooooooooooooooooX Xoooooooooooooooooooooooooooooooooooooooooooooooooooooooooooooooooooooooooooooooooooooooo ......... ",
" ......... oooooooooooooooooooooooooooooooooooooooooooooooooooooooooooooooooooooooooooooooooooooooX Xoooooooooooooooooooooooooooooooooooooooooooooooooooooooooooooooooooooooooooooooooooooooo ......... ",
" ......... oooooooooooooooooooooooooooooooooooooooooooooooooooooooooooooooooooooooooooooooooooooooX Xoooooooooooooooooooooooooooooooooooooooooooooooooooooooooooooooooooooooooooooooooooooooo ......... ",
" ......... oooooooooooooooooooooooooooooooooooooooooooooooooooooooooooooooooooooooooooooooooooooooX Xoooooooooooooooooooooooooooooooooooooooooooooooooooooooooooooooooooooooooooooooooooooooo ......... ",
" ......... oooooooooooooooooooooooooooooooooooooooooooooooooooooooooooooooooooooooooooooooooooooooX Xoooooooooooooooooooooooooooooooooooooooooooooooooooooooooooooooooooooooooooooooooooooooo ......... ",
" ......... oooooooooooooooooooooooooooooooooooooooooooooooooooooooooooooooooooooooooooooooooooooooX Xoooooooooooooooooooooooooooooooooooooooooooooooooooooooooooooooooooooooooooooooooooooooo ......... ",
" ......... oooooooooooooooooooooooooooooooooooooooooooooooooooooooooooooooooooooooooooooooooooooooX Xoooooooooooooooooooooooooooooooooooooooooooooooooooooooooooooooooooooooooooooooooooooooo ......... ",
" ......... oooooooooooooooooooooooooooooooooooooooooooooooooooooooooooooooooooooooooooooooooooooooX Xoooooooooooooooooooooooooooooooooooooooooooooooooooooooooooooooooooooooooooooooooooooooo ......... ",
" ......... oooooooooooooooooooooooooooooooooooooooooooooooooooooooooooooooooooooooooooooooooooooooX Xoooooooooooooooooooooooooooooooooooooooooooooooooooooooooooooooooooooooooooooooooooooooo ......... ",
" ......... oooooooooooooooooooooooooooooooooooooooooooooooooooooooooooooooooooooooooooooooooooooooX Xoooooooooooooooooooooooooooooooooooooooooooooooooooooooooooooooooooooooooooooooooooooooo ......... ",
" ......... oooooooooooooooooooooooooooooooooooooooooooooooooooooooooooooooooooooooooooooooooooooooX Xoooooooooooooooooooooooooooooooooooooooooooooooooooooooooooooooooooooooooooooooooooooooo ......... ",
" ......... oooooooooooooooooooooooooooooooooooooooooooooooooooooooooooooooooooooooooooooooooooooooX Xoooooooooooooooooooooooooooooooooooooooooooooooooooooooooooooooooooooooooooooooooooooooo ......... ",
" ......... oooooooooooooooooooooooooooooooooooooooooooooooooooooooooooooooooooooooooooooooooooooooX Xoooooooooooooooooooooooooooooooooooooooooooooooooooooooooooooooooooooooooooooooooooooooo ......... ",
" ......... oooooooooooooooooooooooooooooooooooooooooooooooooooooooooooooooooooooooooooooooooooooooX Xoooooooooooooooooooooooooooooooooooooooooooooooooooooooooooooooooooooooooooooooooooooooo ......... ",
" ......... oooooooooooooooooooooooooooooooooooooooooooooooooooooooooooooooooooooooooooooooooooooooX Xoooooooooooooooooooooooooooooooooooooooooooooooooooooooooooooooooooooooooooooooooooooooo ......... ",
" ......... oooooooooooooooooooooooooooooooooooooooooooooooooooooooooooooooooooooooooooooooooooooooX Xoooooooooooooooooooooooooooooooooooooooooooooooooooooooooooooooooooooooooooooooooooooooo ......... ",
" ......... oooooooooooooooooooooooooooooooooooooooooooooooooooooooooooooooooooooooooooooooooooooooX Xoooooooooooooooooooooooooooooooooooooooooooooooooooooooooooooooooooooooooooooooooooooooo ......... ",
" ......... oooooooooooooooooooooooooooooooooooooooooooooooooooooooooooooooooooooooooooooooooooooooX Xoooooooooooooooooooooooooooooooooooooooooooooooooooooooooooooooooooooooooooooooooooooooo ......... ",
" ......... oooooooooooooooooooooooooooooooooooooooooooooooooooooooooooooooooooooooooooooooooooooooX Xoooooooooooooooooooooooooooooooooooooooooooooooooooooooooooooooooooooooooooooooooooooooo ......... ",
" ......... oooooooooooooooooooooooooooooooooooooooooooooooooooooooooooooooooooooooooooooooooooooooX Xoooooooooooooooooooooooooooooooooooooooooooooooooooooooooooooooooooooooooooooooooooooooo ......... ",
" ......... oooooooooooooooooooooooooooooooooooooooooooooooooooooooooooooooooooooooooooooooooooooooX Xoooooooooooooooooooooooooooooooooooooooooooooooooooooooooooooooooooooooooooooooooooooooo ......... ",
" ......... oooooooooooooooooooooooooooooooooooooooooooooooooooooooooooooooooooooooooooooooooooooooX Xoooooooooooooooooooooooooooooooooooooooooooooooooooooooooooooooooooooooooooooooooooooooo ......... ",
" ......... oooooooooooooooooooooooooooooooooooooooooooooooooooooooooooooooooooooooooooooooooooooooX Xoooooooooooooooooooooooooooooooooooooooooooooooooooooooooooooooooooooooooooooooooooooooo ......... ",
" ......... oooooooooooooooooooooooooooooooooooooooooooooooooooooooooooooooooooooooooooooooooooooooX Xoooooooooooooooooooooooooooooooooooooooooooooooooooooooooooooooooooooooooooooooooooooooo ......... ",
" ......... oooooooooooooooooooooooooooooooooooooooooooooooooooooooooooooooooooooooooooooooooooooooX Xoooooooooooooooooooooooooooooooooooooooooooooooooooooooooooooooooooooooooooooooooooooooo ......... ",
" ......... oooooooooooooooooooooooooooooooooooooooooooooooooooooooooooooooooooooooooooooooooooooooX Xoooooooooooooooooooooooooooooooooooooooooooooooooooooooooooooooooooooooooooooooooooooooo ......... ",
" ......... oooooooooooooooooooooooooooooooooooooooooooooooooooooooooooooooooooooooooooooooooooooooX Xoooooooooooooooooooooooooooooooooooooooooooooooooooooooooooooooooooooooooooooooooooooooo ......... ",
" ......... oooooooooooooooooooooooooooooooooooooooooooooooooooooooooooooooooooooooooooooooooooooooX Xoooooooooooooooooooooooooooooooooooooooooooooooooooooooooooooooooooooooooooooooooooooooo ......... ",
" ......... oooooooooooooooooooooooooooooooooooooooooooooooooooooooooooooooooooooooooooooooooooooooX Xoooooooooooooooooooooooooooooooooooooooooooooooooooooooooooooooooooooooooooooooooooooooo ......... ",
" ......... oooooooooooooooooooooooooooooooooooooooooooooooooooooooooooooooooooooooooooooooooooooooX Xoooooooooooooooooooooooooooooooooooooooooooooooooooooooooooooooooooooooooooooooooooooooo ......... ",
" ......... oooooooooooooooooooooooooooooooooooooooooooooooooooooooooooooooooooooooooooooooooooooooX Xoooooooooooooooooooooooooooooooooooooooooooooooooooooooooooooooooooooooooooooooooooooooo ......... ",
" ......... oooooooooooooooooooooooooooooooooooooooooooooooooooooooooooooooooooooooooooooooooooooooX Xoooooooooooooooooooooooooooooooooooooooooooooooooooooooooooooooooooooooooooooooooooooooo ......... ",
" ......... oooooooooooooooooooooooooooooooooooooooooooooooooooooooooooooooooooooooooooooooooooooooX Xoooooooooooooooooooooooooooooooooooooooooooooooooooooooooooooooooooooooooooooooooooooooo ......... ",
" ......... oooooooooooooooooooooooooooooooooooooooooooooooooooooooooooooooooooooooooooooooooooooooX Xoooooooooooooooooooooooooooooooooooooooooooooooooooooooooooooooooooooooooooooooooooooooo ......... ",
" ......... oooooooooooooooooooooooooooooooooooooooooooooooooooooooooooooooooooooooooooooooooooooooX Xoooooooooooooooooooooooooooooooooooooooooooooooooooooooooooooooooooooooooooooooooooooooo ......... ",
" ......... oooooooooooooooooooooooooooooooooooooooooooooooooooooooooooooooooooooooooooooooooooooooX Xoooooooooooooooooooooooooooooooooooooooooooooooooooooooooooooooooooooooooooooooooooooooo ......... ",
" ......... oooooooooooooooooooooooooooooooooooooooooooooooooooooooooooooooooooooooooooooooooooooooX Xoooooooooooooooooooooooooooooooooooooooooooooooooooooooooooooooooooooooooooooooooooooooo ......... ",
" ......... oooooooooooooooooooooooooooooooooooooooooooooooooooooooooooooooooooooooooooooooooooooooX Xoooooooooooooooooooooooooooooooooooooooooooooooooooooooooooooooooooooooooooooooooooooooo ......... ",
" ......... oooooooooooooooooooooooooooooooooooooooooooooooooooooooooooooooooooooooooooooooooooooooX Xoooooooooooooooooooooooooooooooooooooooooooooooooooooooooooooooooooooooooooooooooooooooo ......... ",
" ......... oooooooooooooooooooooooooooooooooooooooooooooooooooooooooooooooooooooooooooooooooooooooX Xoooooooooooooooooooooooooooooooooooooooooooooooooooooooooooooooooooooooooooooooooooooooo ......... ",
" ......... oooooooooooooooooooooooooooooooooooooooooooooooooooooooooooooooooooooooooooooooooooooooX Xoooooooooooooooooooooooooooooooooooooooooooooooooooooooooooooooooooooooooooooooooooooooo ......... ",
" ......... oooooooooooooooooooooooooooooooooooooooooooooooooooooooooooooooooooooooooooooooooooooooX Xoooooooooooooooooooooooooooooooooooooooooooooooooooooooooooooooooooooooooooooooooooooooo ......... ",
" ......... oooooooooooooooooooooooooooooooooooooooooooooooooooooooooooooooooooooooooooooooooooooooX Xoooooooooooooooooooooooooooooooooooooooooooooooooooooooooooooooooooooooooooooooooooooooo ......... ",
" ......... oooooooooooooooooooooooooooooooooooooooooooooooooooooooooooooooooooooooooooooooooooooooX Xoooooooooooooooooooooooooooooooooooooooooooooooooooooooooooooooooooooooooooooooooooooooo ......... ",
" ......... oooooooooooooooooooooooooooooooooooooooooooooooooooooooooooooooooooooooooooooooooooooooX Xoooooooooooooooooooooooooooooooooooooooooooooooooooooooooooooooooooooooooooooooooooooooo ......... ",
" ......... oooooooooooooooooooooooooooooooooooooooooooooooooooooooooooooooooooooooooooooooooooooooX Xoooooooooooooooooooooooooooooooooooooooooooooooooooooooooooooooooooooooooooooooooooooooo ......... ",
" ......... oooooooooooooooooooooooooooooooooooooooooooooooooooooooooooooooooooooooooooooooooooooooX Xoooooooooooooooooooooooooooooooooooooooooooooooooooooooooooooooooooooooooooooooooooooooo ......... ",
" ......... oooooooooooooooooooooooooooooooooooooooooooooooooooooooooooooooooooooooooooooooooooooooX Xoooooooooooooooooooooooooooooooooooooooooooooooooooooooooooooooooooooooooooooooooooooooo ......... ",
" ......... oooooooooooooooooooooooooooooooooooooooooooooooooooooooooooooooooooooooooooooooooooooooX Xoooooooooooooooooooooooooooooooooooooooooooooooooooooooooooooooooooooooooooooooooooooooo ......... ",
" ......... oooooooooooooooooooooooooooooooooooooooooooooooooooooooooooooooooooooooooooooooooooooooX Xoooooooooooooooooooooooooooooooooooooooooooooooooooooooooooooooooooooooooooooooooooooooo ......... ",
" ......... oooooooooooooooooooooooooooooooooooooooooooooooooooooooooooooooooooooooooooooooooooooooX Xoooooooooooooooooooooooooooooooooooooooooooooooooooooooooooooooooooooooooooooooooooooooo ......... ",
" ......... oooooooooooooooooooooooooooooooooooooooooooooooooooooooooooooooooooooooooooooooooooooooX Xoooooooooooooooooooooooooooooooooooooooooooooooooooooooooooooooooooooooooooooooooooooooo ......... ",
" ......... oooooooooooooooooooooooooooooooooooooooooooooooooooooooooooooooooooooooooooooooooooooooX Xoooooooooooooooooooooooooooooooooooooooooooooooooooooooooooooooooooooooooooooooooooooooo ......... ",
" ......... oooooooooooooooooooooooooooooooooooooooooooooooooooooooooooooooooooooooooooooooooooooooX Xoooooooooooooooooooooooooooooooooooooooooooooooooooooooooooooooooooooooooooooooooooooooo ......... ",
" ......... oooooooooooooooooooooooooooooooooooooooooooooooooooooooooooooooooooooooooooooooooooooooX Xoooooooooooooooooooooooooooooooooooooooooooooooooooooooooooooooooooooooooooooooooooooooo ......... ",
" ......... oooooooooooooooooooooooooooooooooooooooooooooooooooooooooooooooooooooooooooooooooooooooX Xoooooooooooooooooooooooooooooooooooooooooooooooooooooooooooooooooooooooooooooooooooooooo ......... ",
" ......... oooooooooooooooooooooooooooooooooooooooooooooooooooooooooooooooooooooooooooooooooooooooX Xoooooooooooooooooooooooooooooooooooooooooooooooooooooooooooooooooooooooooooooooooooooooo ......... ",
" ......... oooooooooooooooooooooooooooooooooooooooooooooooooooooooooooooooooooooooooooooooooooooooX Xoooooooooooooooooooooooooooooooooooooooooooooooooooooooooooooooooooooooooooooooooooooooo ......... ",
" ......... oooooooooooooooooooooooooooooooooooooooooooooooooooooooooooooooooooooooooooooooooooooooX Xoooooooooooooooooooooooooooooooooooooooooooooooooooooooooooooooooooooooooooooooooooooooo ......... ",
" ......... oooooooooooooooooooooooooooooooooooooooooooooooooooooooooooooooooooooooooooooooooooooooX Xoooooooooooooooooooooooooooooooooooooooooooooooooooooooooooooooooooooooooooooooooooooooo ......... ",
" ......... oooooooooooooooooooooooooooooooooooooooooooooooooooooooooooooooooooooooooooooooooooooooX Xoooooooooooooooooooooooooooooooooooooooooooooooooooooooooooooooooooooooooooooooooooooooo ......... ",
" ......... oooooooooooooooooooooooooooooooooooooooooooooooooooooooooooooooooooooooooooooooooooooooX Xoooooooooooooooooooooooooooooooooooooooooooooooooooooooooooooooooooooooooooooooooooooooo ......... ",
" ......... oooooooooooooooooooooooooooooooooooooooooooooooooooooooooooooooooooooooooooooooooooooooX Xoooooooooooooooooooooooooooooooooooooooooooooooooooooooooooooooooooooooooooooooooooooooo ......... ",
" ......... oooooooooooooooooooooooooooooooooooooooooooooooooooooooooooooooooooooooooooooooooooooooX Xoooooooooooooooooooooooooooooooooooooooooooooooooooooooooooooooooooooooooooooooooooooooo ......... ",
" ......... oooooooooooooooooooooooooooooooooooooooooooooooooooooooooooooooooooooooooooooooooooooooX Xoooooooooooooooooooooooooooooooooooooooooooooooooooooooooooooooooooooooooooooooooooooooo ......... ",
" ......... oooooooooooooooooooooooooooooooooooooooooooooooooooooooooooooooooooooooooooooooooooooooX Xoooooooooooooooooooooooooooooooooooooooooooooooooooooooooooooooooooooooooooooooooooooooo ......... ",
" ......... oooooooooooooooooooooooooooooooooooooooooooooooooooooooooooooooooooooooooooooooooooooooX Xoooooooooooooooooooooooooooooooooooooooooooooooooooooooooooooooooooooooooooooooooooooooo ......... ",
" ......... oooooooooooooooooooooooooooooooooooooooooooooooooooooooooooooooooooooooooooooooooooooooX Xoooooooooooooooooooooooooooooooooooooooooooooooooooooooooooooooooooooooooooooooooooooooo ......... ",
" ......... oooooooooooooooooooooooooooooooooooooooooooooooooooooooooooooooooooooooooooooooooooooooX Xoooooooooooooooooooooooooooooooooooooooooooooooooooooooooooooooooooooooooooooooooooooooo ......... ",
" ......... oooooooooooooooooooooooooooooooooooooooooooooooooooooooooooooooooooooooooooooooooooooooX Xoooooooooooooooooooooooooooooooooooooooooooooooooooooooooooooooooooooooooooooooooooooooo ......... ",
" ......... oooooooooooooooooooooooooooooooooooooooooooooooooooooooooooooooooooooooooooooooooooooooX Xoooooooooooooooooooooooooooooooooooooooooooooooooooooooooooooooooooooooooooooooooooooooo ......... ",
" ......... oooooooooooooooooooooooooooooooooooooooooooooooooooooooooooooooooooooooooooooooooooooooX Xoooooooooooooooooooooooooooooooooooooooooooooooooooooooooooooooooooooooooooooooooooooooo ......... ",
" ......... oooooooooooooooooooooooooooooooooooooooooooooooooooooooooooooooooooooooooooooooooooooooX Xoooooooooooooooooooooooooooooooooooooooooooooooooooooooooooooooooooooooooooooooooooooooo ......... ",
" ......... oooooooooooooooooooooooooooooooooooooooooooooooooooooooooooooooooooooooooooooooooooooooX Xoooooooooooooooooooooooooooooooooooooooooooooooooooooooooooooooooooooooooooooooooooooooo ......... ",
" ......... oooooooooooooooooooooooooooooooooooooooooooooooooooooooooooooooooooooooooooooooooooooooX Xoooooooooooooooooooooooooooooooooooooooooooooooooooooooooooooooooooooooooooooooooooooooo ......... ",
" ......... oooooooooooooooooooooooooooooooooooooooooooooooooooooooooooooooooooooooooooooooooooooooX Xoooooooooooooooooooooooooooooooooooooooooooooooooooooooooooooooooooooooooooooooooooooooo ......... ",
" ......... oooooooooooooooooooooooooooooooooooooooooooooooooooooooooooooooooooooooooooooooooooooooX Xoooooooooooooooooooooooooooooooooooooooooooooooooooooooooooooooooooooooooooooooooooooooo ......... ",
" ......... oooooooooooooooooooooooooooooooooooooooooooooooooooooooooooooooooooooooooooooooooooooooX Xoooooooooooooooooooooooooooooooooooooooooooooooooooooooooooooooooooooooooooooooooooooooo ......... ",
" ......... oooooooooooooooooooooooooooooooooooooooooooooooooooooooooooooooooooooooooooooooooooooooX Xoooooooooooooooooooooooooooooooooooooooooooooooooooooooooooooooooooooooooooooooooooooooo ......... ",
" ......... oooooooooooooooooooooooooooooooooooooooooooooooooooooooooooooooooooooooooooooooooooooooX Xoooooooooooooooooooooooooooooooooooooooooooooooooooooooooooooooooooooooooooooooooooooooo ......... ",
" ......... oooooooooooooooooooooooooooooooooooooooooooooooooooooooooooooooooooooooooooooooooooooooX Xoooooooooooooooooooooooooooooooooooooooooooooooooooooooooooooooooooooooooooooooooooooooo ......... ",
" ......... oooooooooooooooooooooooooooooooooooooooooooooooooooooooooooooooooooooooooooooooooooooooX Xoooooooooooooooooooooooooooooooooooooooooooooooooooooooooooooooooooooooooooooooooooooooo ......... ",
" ......... oooooooooooooooooooooooooooooooooooooooooooooooooooooooooooooooooooooooooooooooooooooooX Xoooooooooooooooooooooooooooooooooooooooooooooooooooooooooooooooooooooooooooooooooooooooo ......... ",
" ......... oooooooooooooooooooooooooooooooooooooooooooooooooooooooooooooooooooooooooooooooooooooooX Xoooooooooooooooooooooooooooooooooooooooooooooooooooooooooooooooooooooooooooooooooooooooo ......... ",
" ......... oooooooooooooooooooooooooooooooooooooooooooooooooooooooooooooooooooooooooooooooooooooooX Xoooooooooooooooooooooooooooooooooooooooooooooooooooooooooooooooooooooooooooooooooooooooo ......... ",
" ......... oooooooooooooooooooooooooooooooooooooooooooooooooooooooooooooooooooooooooooooooooooooooX Xoooooooooooooooooooooooooooooooooooooooooooooooooooooooooooooooooooooooooooooooooooooooo ......... ",
" ......... oooooooooooooooooooooooooooooooooooooooooooooooooooooooooooooooooooooooooooooooooooooooX Xoooooooooooooooooooooooooooooooooooooooooooooooooooooooooooooooooooooooooooooooooooooooo ......... ",
" ......... oooooooooooooooooooooooooooooooooooooooooooooooooooooooooooooooooooooooooooooooooooooooX Xoooooooooooooooooooooooooooooooooooooooooooooooooooooooooooooooooooooooooooooooooooooooo ......... ",
" ......... oooooooooooooooooooooooooooooooooooooooooooooooooooooooooooooooooooooooooooooooooooooooX Xoooooooooooooooooooooooooooooooooooooooooooooooooooooooooooooooooooooooooooooooooooooooo ......... ",
" ......... oooooooooooooooooooooooooooooooooooooooooooooooooooooooooooooooooooooooooooooooooooooooX Xoooooooooooooooooooooooooooooooooooooooooooooooooooooooooooooooooooooooooooooooooooooooo ......... ",
" ......... oooooooooooooooooooooooooooooooooooooooooooooooooooooooooooooooooooooooooooooooooooooooX Xoooooooooooooooooooooooooooooooooooooooooooooooooooooooooooooooooooooooooooooooooooooooo ......... ",
" ......... oooooooooooooooooooooooooooooooooooooooooooooooooooooooooooooooooooooooooooooooooooooooX Xoooooooooooooooooooooooooooooooooooooooooooooooooooooooooooooooooooooooooooooooooooooooo ......... ",
" ......... oooooooooooooooooooooooooooooooooooooooooooooooooooooooooooooooooooooooooooooooooooooooX Xoooooooooooooooooooooooooooooooooooooooooooooooooooooooooooooooooooooooooooooooooooooooo ......... ",
" ......... oooooooooooooooooooooooooooooooooooooooooooooooooooooooooooooooooooooooooooooooooooooooX Xoooooooooooooooooooooooooooooooooooooooooooooooooooooooooooooooooooooooooooooooooooooooo ......... ",
" ......... oooooooooooooooooooooooooooooooooooooooooooooooooooooooooooooooooooooooooooooooooooooooX Xoooooooooooooooooooooooooooooooooooooooooooooooooooooooooooooooooooooooooooooooooooooooo ......... ",
" ......... oooooooooooooooooooooooooooooooooooooooooooooooooooooooooooooooooooooooooooooooooooooooX Xoooooooooooooooooooooooooooooooooooooooooooooooooooooooooooooooooooooooooooooooooooooooo ......... ",
" ......... oooooooooooooooooooooooooooooooooooooooooooooooooooooooooooooooooooooooooooooooooooooooX Xoooooooooooooooooooooooooooooooooooooooooooooooooooooooooooooooooooooooooooooooooooooooo ......... ",
" ......... oooooooooooooooooooooooooooooooooooooooooooooooooooooooooooooooooooooooooooooooooooooooX Xoooooooooooooooooooooooooooooooooooooooooooooooooooooooooooooooooooooooooooooooooooooooo ......... ",
" ......... oooooooooooooooooooooooooooooooooooooooooooooooooooooooooooooooooooooooooooooooooooooooX Xoooooooooooooooooooooooooooooooooooooooooooooooooooooooooooooooooooooooooooooooooooooooo ......... ",
" ......... oooooooooooooooooooooooooooooooooooooooooooooooooooooooooooooooooooooooooooooooooooooooX Xoooooooooooooooooooooooooooooooooooooooooooooooooooooooooooooooooooooooooooooooooooooooo ......... ",
" ......... oooooooooooooooooooooooooooooooooooooooooooooooooooooooooooooooooooooooooooooooooooooooX Xoooooooooooooooooooooooooooooooooooooooooooooooooooooooooooooooooooooooooooooooooooooooo ......... ",
" ......... oooooooooooooooooooooooooooooooooooooooooooooooooooooooooooooooooooooooooooooooooooooooX Xoooooooooooooooooooooooooooooooooooooooooooooooooooooooooooooooooooooooooooooooooooooooo ......... ",
" ......... oooooooooooooooooooooooooooooooooooooooooooooooooooooooooooooooooooooooooooooooooooooooX Xoooooooooooooooooooooooooooooooooooooooooooooooooooooooooooooooooooooooooooooooooooooooo ......... ",
" ......... oooooooooooooooooooooooooooooooooooooooooooooooooooooooooooooooooooooooooooooooooooooooX Xoooooooooooooooooooooooooooooooooooooooooooooooooooooooooooooooooooooooooooooooooooooooo ......... ",
" ......... oooooooooooooooooooooooooooooooooooooooooooooooooooooooooooooooooooooooooooooooooooooooX Xoooooooooooooooooooooooooooooooooooooooooooooooooooooooooooooooooooooooooooooooooooooooo ......... ",
" ......... oooooooooooooooooooooooooooooooooooooooooooooooooooooooooooooooooooooooooooooooooooooooX Xoooooooooooooooooooooooooooooooooooooooooooooooooooooooooooooooooooooooooooooooooooooooo ......... ",
" ......... oooooooooooooooooooooooooooooooooooooooooooooooooooooooooooooooooooooooooooooooooooooooX Xoooooooooooooooooooooooooooooooooooooooooooooooooooooooooooooooooooooooooooooooooooooooo ......... ",
" ......... oooooooooooooooooooooooooooooooooooooooooooooooooooooooooooooooooooooooooooooooooooooooX Xoooooooooooooooooooooooooooooooooooooooooooooooooooooooooooooooooooooooooooooooooooooooo ......... ",
" ......... oooooooooooooooooooooooooooooooooooooooooooooooooooooooooooooooooooooooooooooooooooooooX Xoooooooooooooooooooooooooooooooooooooooooooooooooooooooooooooooooooooooooooooooooooooooo ......... ",
" ......... oooooooooooooooooooooooooooooooooooooooooooooooooooooooooooooooooooooooooooooooooooooooX Xoooooooooooooooooooooooooooooooooooooooooooooooooooooooooooooooooooooooooooooooooooooooo ......... ",
" ......... oooooooooooooooooooooooooooooooooooooooooooooooooooooooooooooooooooooooooooooooooooooooX Xoooooooooooooooooooooooooooooooooooooooooooooooooooooooooooooooooooooooooooooooooooooooo ......... ",
" ......... oooooooooooooooooooooooooooooooooooooooooooooooooooooooooooooooooooooooooooooooooooooooX Xoooooooooooooooooooooooooooooooooooooooooooooooooooooooooooooooooooooooooooooooooooooooo ......... ",
" ......... oooooooooooooooooooooooooooooooooooooooooooooooooooooooooooooooooooooooooooooooooooooooX Xoooooooooooooooooooooooooooooooooooooooooooooooooooooooooooooooooooooooooooooooooooooooo ......... ",
" ......... oooooooooooooooooooooooooooooooooooooooooooooooooooooooooooooooooooooooooooooooooooooooX Xoooooooooooooooooooooooooooooooooooooooooooooooooooooooooooooooooooooooooooooooooooooooo ......... ",
" ......... oooooooooooooooooooooooooooooooooooooooooooooooooooooooooooooooooooooooooooooooooooooooX Xoooooooooooooooooooooooooooooooooooooooooooooooooooooooooooooooooooooooooooooooooooooooo ......... ",
" ......... oooooooooooooooooooooooooooooooooooooooooooooooooooooooooooooooooooooooooooooooooooooooX Xoooooooooooooooooooooooooooooooooooooooooooooooooooooooooooooooooooooooooooooooooooooooo ......... ",
" ......... oooooooooooooooooooooooooooooooooooooooooooooooooooooooooooooooooooooooooooooooooooooooX Xoooooooooooooooooooooooooooooooooooooooooooooooooooooooooooooooooooooooooooooooooooooooo ......... ",
" ......... oooooooooooooooooooooooooooooooooooooooooooooooooooooooooooooooooooooooooooooooooooooooX Xoooooooooooooooooooooooooooooooooooooooooooooooooooooooooooooooooooooooooooooooooooooooo ......... ",
" ......... oooooooooooooooooooooooooooooooooooooooooooooooooooooooooooooooooooooooooooooooooooooooX Xoooooooooooooooooooooooooooooooooooooooooooooooooooooooooooooooooooooooooooooooooooooooo ......... ",
" ......... oooooooooooooooooooooooooooooooooooooooooooooooooooooooooooooooooooooooooooooooooooooooX Xoooooooooooooooooooooooooooooooooooooooooooooooooooooooooooooooooooooooooooooooooooooooo ......... ",
" ......... oooooooooooooooooooooooooooooooooooooooooooooooooooooooooooooooooooooooooooooooooooooooX Xoooooooooooooooooooooooooooooooooooooooooooooooooooooooooooooooooooooooooooooooooooooooo ......... ",
" ......... oooooooooooooooooooooooooooooooooooooooooooooooooooooooooooooooooooooooooooooooooooooooX Xoooooooooooooooooooooooooooooooooooooooooooooooooooooooooooooooooooooooooooooooooooooooo ......... ",
" ......... oooooooooooooooooooooooooooooooooooooooooooooooooooooooooooooooooooooooooooooooooooooooX Xoooooooooooooooooooooooooooooooooooooooooooooooooooooooooooooooooooooooooooooooooooooooo ......... ",
" ......... oooooooooooooooooooooooooooooooooooooooooooooooooooooooooooooooooooooooooooooooooooooooX Xoooooooooooooooooooooooooooooooooooooooooooooooooooooooooooooooooooooooooooooooooooooooo ......... ",
" ......... oooooooooooooooooooooooooooooooooooooooooooooooooooooooooooooooooooooooooooooooooooooooX Xoooooooooooooooooooooooooooooooooooooooooooooooooooooooooooooooooooooooooooooooooooooooo ......... ",
" ......... oooooooooooooooooooooooooooooooooooooooooooooooooooooooooooooooooooooooooooooooooooooooX Xoooooooooooooooooooooooooooooooooooooooooooooooooooooooooooooooooooooooooooooooooooooooo ......... ",
" ......... oooooooooooooooooooooooooooooooooooooooooooooooooooooooooooooooooooooooooooooooooooooooX Xoooooooooooooooooooooooooooooooooooooooooooooooooooooooooooooooooooooooooooooooooooooooo ......... ",
" ......... oooooooooooooooooooooooooooooooooooooooooooooooooooooooooooooooooooooooooooooooooooooooX Xoooooooooooooooooooooooooooooooooooooooooooooooooooooooooooooooooooooooooooooooooooooooo ......... ",
" ......... oooooooooooooooooooooooooooooooooooooooooooooooooooooooooooooooooooooooooooooooooooooooX Xoooooooooooooooooooooooooooooooooooooooooooooooooooooooooooooooooooooooooooooooooooooooo ......... ",
" ......... oooooooooooooooooooooooooooooooooooooooooooooooooooooooooooooooooooooooooooooooooooooooX Xoooooooooooooooooooooooooooooooooooooooooooooooooooooooooooooooooooooooooooooooooooooooo ......... ",
" ......... oooooooooooooooooooooooooooooooooooooooooooooooooooooooooooooooooooooooooooooooooooooooX Xoooooooooooooooooooooooooooooooooooooooooooooooooooooooooooooooooooooooooooooooooooooooo ......... ",
" ......... oooooooooooooooooooooooooooooooooooooooooooooooooooooooooooooooooooooooooooooooooooooooX Xoooooooooooooooooooooooooooooooooooooooooooooooooooooooooooooooooooooooooooooooooooooooo ......... ",
" ......... oooooooooooooooooooooooooooooooooooooooooooooooooooooooooooooooooooooooooooooooooooooooX Xoooooooooooooooooooooooooooooooooooooooooooooooooooooooooooooooooooooooooooooooooooooooo ......... ",
" ......... oooooooooooooooooooooooooooooooooooooooooooooooooooooooooooooooooooooooooooooooooooooooX Xoooooooooooooooooooooooooooooooooooooooooooooooooooooooooooooooooooooooooooooooooooooooo ......... ",
" ......... oooooooooooooooooooooooooooooooooooooooooooooooooooooooooooooooooooooooooooooooooooooooX Xoooooooooooooooooooooooooooooooooooooooooooooooooooooooooooooooooooooooooooooooooooooooo ......... ",
" ......... oooooooooooooooooooooooooooooooooooooooooooooooooooooooooooooooooooooooooooooooooooooooX Xoooooooooooooooooooooooooooooooooooooooooooooooooooooooooooooooooooooooooooooooooooooooo ......... ",
" ......... oooooooooooooooooooooooooooooooooooooooooooooooooooooooooooooooooooooooooooooooooooooooX Xoooooooooooooooooooooooooooooooooooooooooooooooooooooooooooooooooooooooooooooooooooooooo ......... ",
" ......... oooooooooooooooooooooooooooooooooooooooooooooooooooooooooooooooooooooooooooooooooooooooX Xoooooooooooooooooooooooooooooooooooooooooooooooooooooooooooooooooooooooooooooooooooooooo ......... ",
" ......... oooooooooooooooooooooooooooooooooooooooooooooooooooooooooooooooooooooooooooooooooooooooX Xoooooooooooooooooooooooooooooooooooooooooooooooooooooooooooooooooooooooooooooooooooooooo ......... ",
" ......... oooooooooooooooooooooooooooooooooooooooooooooooooooooooooooooooooooooooooooooooooooooooX Xoooooooooooooooooooooooooooooooooooooooooooooooooooooooooooooooooooooooooooooooooooooooo ......... ",
" ......... oooooooooooooooooooooooooooooooooooooooooooooooooooooooooooooooooooooooooooooooooooooooX Xoooooooooooooooooooooooooooooooooooooooooooooooooooooooooooooooooooooooooooooooooooooooo ......... ",
" ......... oooooooooooooooooooooooooooooooooooooooooooooooooooooooooooooooooooooooooooooooooooooooX Xoooooooooooooooooooooooooooooooooooooooooooooooooooooooooooooooooooooooooooooooooooooooo ......... ",
" ......... oooooooooooooooooooooooooooooooooooooooooooooooooooooooooooooooooooooooooooooooooooooooX Xoooooooooooooooooooooooooooooooooooooooooooooooooooooooooooooooooooooooooooooooooooooooo ......... "
};
