/* XPM */
static char *dfc862bccf524c23bca6bace018b756fPRJAPxGnVxZohkgU[] = {
/* columns rows colors chars-per-pixel */
"200 200 2 1 ",
"  c None",
". c #FF7E00",
/* pixels */
"........................................................................................................................................................................................................",
"........................................................................................................................................................................................................",
"........................................................................................................................................................................................................",
"........................................................................................................................................................................................................",
"........................................................................................................................................................................................................",
"....                                                                                  ..................................................................................................................",
"....                                                                                  ............                                                                                                 .....",
"....                                                                                  ............                                                                                                 .....",
"....                                                                                  ............                                                                                                 .....",
"....                                                                                  ............                                                                                                 .....",
"....                                                                                  ............                                                                                                 .....",
"....                                                                                  ............                                                                                                 .....",
"....                                                                                  ............                                                                                                 .....",
"....                                                                                  ............                                                                                                 .....",
"....                                                                                  ............                                                                                                 .....",
"....                                                                                  ............                                                                                                 .....",
"....                                                                                  ............                                                                                                 .....",
"....                                                                                  ............                                                                                                 .....",
"....                                                                                  ............                                                                                                 .....",
"....                                                                                  ............                                                                                                 .....",
"....                                                                                  ............                                                                                                 .....",
"....                                                                                  ............                                                                                                 .....",
"....                                                                                  ............                                                                                                 .....",
"....                                                                                  ............                                                                                                 .....",
"....                                                                                  ............                                                                                                 .....",
"....                                                                                  ............                                                                                                 .....",
"....                                                                                  ............                                                                                                 .....",
"....                                                                                  ............                                                                                                 .....",
"....                                                                                  ............                                                                                                 .....",
"....                                                                                  ............                                                                                                 .....",
"....                                                                                  ............                                                                                                 .....",
"....                                                                                  ............                                                                                                 .....",
"....                                                                                  ............                                                                                                 .....",
"....                                                                                  ............                                                                                                 .....",
"....                                                                                  ............                                                                                                 .....",
"....                                                                                  ............                                                                                                 .....",
"....                                                                                  ............                                                                                                 .....",
"....                                                                                  ............                                                                                                 .....",
"....                                                                                  ............                                                                                                 .....",
"....                                                                                  ............                                                                                                 .....",
"....                                                                                  ............                                                                                                 .....",
"....                                                                                  ............                                                                                                 .....",
"....                                                                                  ............                                                                                                 .....",
"....                                                                                  ............                                                                                                 .....",
"....                                                                                  ............                                                                                                 .....",
"....                                                                                  ............                                                                                                 .....",
"....                                                                                  ............                                                                                                 .....",
"....                                                                                  ............                                                                                                 .....",
"....                                                                                  ............                                                                                                 .....",
"....                                                                                  ............                                                                                                 .....",
"....                                                                                  ............                                                                                                 .....",
"....                                                                                  ............                                                                                                 .....",
"....                                                                                  ............                                                                                                 .....",
"....                                                                                  ............                                                                                                 .....",
"....                                                                                  ............                                                                                                 .....",
"....                                                                                  ............                                                                                                 .....",
"....                                                                                  ............                                                                                                 .....",
"....                                                                                  ............                                                                                                 .....",
"....                                                                                  ............                                                                                                 .....",
"....                                                                                  ............                                                                                                 .....",
"....                                                                                  ............                                                                                                 .....",
"....                                                                                  ............                                                                                                 .....",
"....                                                                                  ............                                                                                                 .....",
"....                                                                                  ............                                                                                                 .....",
"....                                                                                  ............                                                                                                 .....",
"....                                                                                  ............                                                                                                 .....",
"....                                                                                  ............                                                                                                 .....",
"....                                                                                  ............                                                                                                 .....",
"....                                                                                  ............                                                                                                 .....",
"....                                                                                  ............                                                                                                 .....",
"....                                                                                  ............                                                                                                 .....",
"....                                                                                  ............                                                                                                 .....",
"....                                                                                  ............                                                                                                 .....",
"....                                                                                  ............                                                                                                 .....",
"....                                                                                  ............                                                                                                 .....",
"....                                                                                  ............                                                                                                 .....",
"....                                                                                  ............                                                                                                 .....",
"....                                                                                  ............                                                                                                 .....",
"....                                                                                  ............                                                                                                 .....",
"....                                                                                  ............                                                                                                 .....",
"....                                                                                  ............                                                                                                 .....",
"....                                                                                  ............                                                                                                 .....",
"....                                                                                  ............                                                                                                 .....",
"....                                                                                  ............                                                                                                 .....",
"....                                                                                  ............                                                                                                 .....",
"....                                                                                  ............                                                                                                 .....",
"....                                                                                  ............                                                                                                 .....",
"....                                                                                  ............                                                                                                 .....",
"....                                                                                  ............                                                                                                 .....",
"....                                                                                  ............                                                                                                 .....",
"....                                                                                  ............                                                                                                 .....",
"....                                                                                  ............                                                                                                 .....",
"....                                                                                  ............                                                                                                 .....",
"....                                                                                  ............                                                                                                 .....",
"....                                                                                  ............                                                                                                 .....",
"....                                                                                  ............                                                                                                 .....",
"....                                                                                  ............                                                                                                 .....",
"....                                                                                  ............                                                                                                 .....",
"....                                                                                  ............                                                                                                 .....",
"....                                                                                  ............                                                                                                 .....",
"....                                                                                  ............                                                                                                 .....",
"....                                                                                  ............                                                                                                 .....",
"....                                                                                  ............                                                                                                 .....",
"....                                                                                  ............                                                                                                 .....",
"....                                                                                  ............                                                                                                 .....",
"....                                                                                  ............                                                                                                 .....",
"....                                                                                  ............                                                                                                 .....",
"....                                                                                  ............                                                                                                 .....",
"....                                                                                  ............                                                                                                 .....",
"..................................................................................................                                                                                                 .....",
"........................................................................................................................................................................................................",
"........................................................................................................................................................................................................",
"........................................................................................................................................................................................................",
"........................................................................................................................................................................................................",
"........................................................................................................................................................................................................",
"........................................................................................................................................................................................................",
"........................................................................................................................................................................................................",
"........................................................................................................................................................................................................",
"........................................................................................................................................................................................................",
"........................................................................................................................................................................................................",
"........................................................................................................................................................................................................",
"........................................................................................................................................................................................................",
"........................................................................................................................................................................................................",
"........................................................................................................................................................................................................",
"........................................................................................................................................................................................................",
"........................................................................................................................................................................................................",
"........................................................................................................................................................................................................",
"........................................................................................................................................................................................................",
"........................................................................................................................................................................................................",
"........................................................................................................................................................................................................",
"........................................................................................................................................................................................................",
"........................................................................................................................................................................................................",
"........................................................................................................................................................................................................",
"........................................................................................................................................................................................................",
"........................................................................................................................................................................................................",
"........................................................................................................................................................................................................",
"........................................................................................................................................................................................................",
"........................................................................................................................................................................................................",
"........................................................................................................................................................................................................",
"........................................................................................................................................................................................................",
"........................................................................................................................................................................................................",
"........................................................................................................................................................................................................",
"........................................................................................................................................................................................................",
"........................................................................................................................................................................................................",
"........................................................................................................................................................................................................",
"........................................................................................................................................................................................................",
"........................................................................................................................................................................................................",
"........................................................................................................................................................................................................",
"........................................................................................................................................................................................................",
"........................................................................................................................................................................................................",
"........................................................................................................................................................................................................",
"........................................................................................................................................................................................................",
"........................................................................................................................................................................................................",
"........................................................................................................................................................................................................",
"........................................................................................................................................................................................................",
"........................................................................................................................................................................................................",
"........................................................................................................................................................................................................",
"........................................................................................................................................................................................................",
"........................................................................................................................................................................................................",
"........................................................................................................................................................................................................",
"........................................................................................................................................................................................................",
"........................................................................................................................................................................................................",
"........................................................................................................................................................................................................",
"........................................................................................................................................................................................................",
"........................................................................................................................................................................................................",
"........................................................................................................................................................................................................",
"........................................................................................................................................................................................................",
"........................................................................................................................................................................................................",
"........................................................................................................................................................................................................",
"........................................................................................................................................................................................................",
"........................................................................................................................................................................................................",
"........................................................................................................................................................................................................",
"........................................................................................................................................................................................................",
"........................................................................................................................................................................................................",
"........................................................................................................................................................................................................",
"........................................................................................................................................................................................................",
"........................................................................................................................................................................................................",
"........................................................................................................................................................................................................",
"........................................................................................................................................................................................................",
"........................................................................................................................................................................................................",
"........................................................................................................................................................................................................",
"........................................................................................................................................................................................................",
"........................................................................................................................................................................................................",
"........................................................................................................................................................................................................",
"........................................................................................................................................................................................................",
"........................................................................................................................................................................................................",
"........................................................................................................................................................................................................",
"........................................................................................................................................................................................................",
"........................................................................................................................................................................................................",
"........................................................................................................................................................................................................",
"........................................................................................................................................................................................................",
"........................................................................................................................................................................................................",
"........................................................................................................................................................................................................",
"........................................................................................................................................................................................................",
"........................................................................................................................................................................................................",
"........................................................................................................................................................................................................",
"........................................................................................................................................................................................................",
"........................................................................................................................................................................................................",
"........................................................................................................................................................................................................",
"........................................................................................................................................................................................................"
};
