/* XPM */
static char *_a63051cb249445ec86eb162597ffb9dhT6koeLQvCZ6Slxn[] = {
/* columns rows colors chars-per-pixel */
"550 550 250 2 ",
"   c #040E00",
".  c #061200",
"X  c #0C1500",
"o  c #0E1A00",
"O  c #0F170C",
"+  c #131D01",
"@  c #151D0A",
"#  c #181F0D",
"$  c #111707",
"%  c #161D12",
"&  c #162201",
"*  c #1A2503",
"=  c #1D2A03",
"-  c #17210A",
";  c #1B250B",
":  c #1E290A",
">  c #162902",
",  c #1D2512",
"<  c #1E2912",
"1  c #1D2519",
"2  c #1B2415",
"3  c #1F3002",
"4  c #212D05",
"5  c #222D0C",
"6  c #252A0D",
"7  c #243205",
"8  c #293506",
"9  c #2B3A06",
"0  c #26320C",
"q  c #29350D",
"w  c #2C390D",
"e  c #273807",
"r  c #313D0E",
"t  c #303D06",
"y  c #202716",
"u  c #232D13",
"i  c #252D1A",
"p  c #282F1E",
"a  c #242A16",
"s  c #263212",
"d  c #2A3513",
"f  c #2D3A14",
"g  c #26311A",
"h  c #2C351A",
"j  c #2E391A",
"k  c #233E15",
"l  c #313D15",
"z  c #323D1B",
"x  c #30371B",
"c  c #262E22",
"v  c #2D3521",
"b  c #2E3921",
"n  c #2B3326",
"m  c #343D22",
"M  c #353D29",
"N  c #323929",
"B  c #363C32",
"V  c #34420D",
"C  c #38460D",
"Z  c #2F4014",
"A  c #354215",
"S  c #394516",
"D  c #3B4916",
"F  c #35421B",
"G  c #39451D",
"H  c #3C4A1D",
"J  c #374819",
"K  c #3B4D18",
"L  c #364122",
"P  c #3A4523",
"I  c #3E4A23",
"U  c #364129",
"Y  c #3B452A",
"T  c #3E492A",
"R  c #374921",
"E  c #3E5024",
"W  c #3C4532",
"Q  c #3F4831",
"!  c #394138",
"~  c #2F4A23",
"^  c #414D1D",
"/  c #404D16",
"(  c #44521E",
")  c #47551B",
"_  c #414D24",
"`  c #424D2B",
"'  c #43492A",
"]  c #455225",
"[  c #495526",
"{  c #4C5A25",
"}  c #46522B",
"|  c #4A552D",
" . c #4C5A2C",
".. c #465827",
"X. c #515E2D",
"o. c #515E27",
"O. c #434D32",
"+. c #454D39",
"@. c #434936",
"#. c #465132",
"$. c #4A5533",
"%. c #4E5A33",
"&. c #475139",
"*. c #4C553A",
"=. c #4F5A3A",
"-. c #465A33",
";. c #525D34",
":. c #525D3B",
">. c #505739",
",. c #53622D",
"<. c #56652A",
"1. c #546234",
"2. c #596535",
"3. c #5C6A35",
"4. c #55623B",
"5. c #59653C",
"6. c #5C6A3C",
"7. c #576836",
"8. c #5F703A",
"9. c #4F602F",
"0. c #606E36",
"q. c #616D3D",
"w. c #627236",
"e. c #63723D",
"r. c #68763E",
"t. c #6A793E",
"y. c #687737",
"u. c #616B2C",
"i. c #4C5541",
"p. c #4F5941",
"a. c #4D5449",
"s. c #535D42",
"d. c #555E49",
"f. c #585F43",
"g. c #4C5449",
"h. c #566242",
"j. c #5A6543",
"k. c #5E6A43",
"l. c #566149",
"z. c #5B654A",
"x. c #5E6A4A",
"c. c #576941",
"v. c #5E6851",
"b. c #5F7041",
"n. c #616D44",
"m. c #626D4A",
"M. c #686F41",
"N. c #647244",
"B. c #697645",
"V. c #6C7A45",
"C. c #66724B",
"Z. c #69754C",
"A. c #6D7A4C",
"S. c #677846",
"D. c #707E45",
"F. c #717E4D",
"G. c #646D52",
"H. c #676F58",
"J. c #667152",
"K. c #6A7552",
"L. c #6D7A53",
"P. c #6C7659",
"I. c #6E7959",
"U. c #657059",
"Y. c #717D54",
"T. c #727D5B",
"R. c #787F5B",
"E. c #747E62",
"W. c #767D66",
"Q. c #6E7760",
"!. c #718145",
"~. c #74824D",
"^. c #7A894D",
"/. c #78854D",
"(. c #6F8052",
"). c #758254",
"_. c #798655",
"`. c #7C8A55",
"'. c #76825B",
"]. c #79855C",
"[. c #7D8A5C",
"{. c #778856",
"}. c #768852",
"|. c #768262",
" X c #7A8563",
".X c #7E8A62",
"XX c #7C8669",
"oX c #7E8969",
"OX c #758068",
"+X c #7F8A71",
"@X c #71813E",
"#X c #808E55",
"$X c #818E5D",
"%X c #84925D",
"&X c #87955A",
"*X c #808F4F",
"=X c #828D63",
"-X c #828D6A",
";X c #859264",
":X c #899665",
">X c #8B9A65",
",X c #86926A",
"<X c #8A956C",
"1X c #8C9A6C",
"2X c #919D6D",
"3X c #909D66",
"4X c #848E72",
"5X c #879171",
"6X c #8B9572",
"7X c #8D9A72",
"8X c #8E9A79",
"9X c #8C957A",
"0X c #919D73",
"qX c #929D7A",
"wX c #93A26D",
"eX c #96A469",
"rX c #95A274",
"tX c #99A575",
"yX c #9CAA75",
"uX c #96A27A",
"iX c #9AA57B",
"pX c #9DAA7C",
"aX c #8EA167",
"sX c #A1AD7D",
"dX c #A0AE74",
"fX c #A4B27D",
"gX c #A7B77B",
"hX c #939D81",
"jX c #96A281",
"kX c #9AA582",
"lX c #9EAA82",
"zX c #9FAA8A",
"xX c #A1AD83",
"cX c #A2AD8A",
"vX c #A4B284",
"bX c #A9B685",
"nX c #ABBA85",
"mX c #A6B28B",
"MX c #A9B58B",
"NX c #ADBA8C",
"BX c #A7B889",
"VX c #B1BE8D",
"CX c #ACB793",
"ZX c #B1BD93",
"AX c #B3BD9B",
"SX c #A4AD90",
"DX c #B3C28C",
"FX c #B7C496",
"GX c #BCC7A1",
"HX c #C6D3A4",
/* pixels */
"y i y i M m j G.m.Y x L *.j.J.|.K.T M +.p.O.} z d Y :.j.m x m i L ` I.$.= z x x ` ` q w F 5 Y N ; h v ; , 1 O y #.P M p # h ` } i # y ; M +.i 5 *. Xz q m O.d d n.C.F s h T u s &.h u m M T L J.P.:. Xj.$.L.] A.).] w F.;.G  .C.} : M y @.B 1 N L >.I s +.N W N N N T j s ' 5 I :.z =.P.:.h 5 C.[.6.$.*.*.s.s.m.z.u ' f 5 L Y p.M u 5 qXI.F 5 * u I *.j.:.L z $.:.P m L i h 5 :.m.` ` ` z P f I } d ; ; h z _ z 5 a Y N 6 G ,.r G m.#.d 5 T z x.z.*.i.c , X i h *.Q i + f ].| #.G.n i X y :.=.L 9Xz.M Y v v L ` =.m.` O.Q , i 1 n a #.oXI.f 5 P h N n 2 n p ; +.v i h h m + y < ; m d G 1.I + ; < ; *.I 4 5 u p ; h h : s 5 d j.a.d.+ x Z.;.%.P m 5 L T.K.x 5 P *.: m =.j z h s *.5 * ` Y ; : P u ; g v 2 n c 1 % v a y m z m.m.f * 5 : + v Q u h h W 1 < i < y i 5 L W.z.h h h < O.z.F .XT.- p B y @ ; h m P :._ l z v % % @ 2 i m.=.h m @ h J.J.L O.T v y y h M Q < < @.@.M Y x x =.L 5 s m : s h h b s.u g g 2 1 c , b T z.=. X5.f h * i i <   @ ; z :.s ; M Q i U Q.U b g h U f.h.P N g h h i.N c # , 1 O % 1 ! 1 @ i i.v.< @ + @ , 1 1 < : + - o < v a p *.x.P s s : : : } P f T 0 5 u s < s : P j < v s.=.` s s j l.i.b - v +.b h #.j ",
"M h m +.+.y i T Y L P h j.P.P ` *.T j y U j O.F j m x h m M 5 U T x z ` f z *.Y x L 6.;.x.=.M g g M g p N c n @.T h v , i.z.Z.=XG.y - 5 T E.:.s d m.5.m.m.O.:.0 l | z y m i h Y *.i h h h ; X u ` j m s 5.7X1.6.1Xn.k.%.k.%.f n.I f N y 1 n # U *.` z s h ; , p @ ; i 5 : L 4.0 d =.` I ` 5 : I _ =.I.*.Q n s.x v ` T.x.qXqXm m v h h m.O.5 s * h Y *.u & 5 L j s P m.m : h T d z =.P.j.5 f n.j.0 ` Y y - *.<XF ; < < X x  X$X8 5 5 5 5 L :.j 5 j M +.v i , h O.*.h - + z ].L.F T g ; s h d m.P z L h y + m 5 T P L * h i *.n p M h 5 G G = L z < y y p g , a y @ g U O.m.h ; y v O.*.Y..XP & 6 ; T Y.1X] l h X < i i h 5 z l P N v @ h *.*.L.:.I m 5 P ` m Y m s h L ' x m.z.=.d * z ` J.*.z I j ; i g ; X % y @ # Q O.L L T.,X'.j.$.P #.m - a Y L @ y 5 m y o - - z.m.T M T h i z.s.5 _ P.M p N N ; i y ` m.*.| w m h y @ X M P.Y d h h g j Y j h Y Y h < ; y h i i a N s.@.p ; : d o u L x.Y Y U u b z.m < i 2 1 % , L Y #.XXoX` m.*.u x O.+.a y s $.$.=.v v W < y +.< < g *.h Y j.f Y h h i i N , O # , O % 1 n 2 g Q.b s s Y &.u @ c y < * * h m L b < + h } =.L Y u u T j.z d $.P h j L L - s s u ; - < ` #.z x.p.a , 1 p v Q b m T m ",
"T T j *.:.u s m P d ` s.m z x x 5 h h a i *.J.h.#.O.I z *.Y + ` h P z :.T.oX*.; s z z j s T c 1 , ; y Q Q N Y *.u - y # g x z C.k.$.K.J.L :.I.Y 5 m.-X Xh.; F d A H z h h h *.=.f.m T +.+.s + < h @ + + *.$.F d d d I 5 * z + = q w P +., ; h x u T ` s h Q Q N v m h m 5 f f d I ` u 5 h z s + : O.W 1 1 % @ 1 h ` 4.' :.L & u h v M M M @.d.+.Q M < h s `  X:.J.h.XX` u G.s.s + T Y h P h u d T T.j.s s d F & u i # + L 0X`.] I L ` 5 X x x h z + i g N - i z.m + : : T |.XX:.5 s 5 ` P %.4 H ;.f 5 5 T L :.;.:.E.u x j s.O.z $.F w | C.5.m u i a < < X < M < y v Q i + h d 5 u h z.T.T & z u Y N G 1.;XC.- y i m y h z L 4.*.m , , n + u * 5 .X,XL 5 &.O.u i y d z z j E.-X5 P P 5 5 O.&.d 5 & h *.&.Y ; v @ ; g m j.#.j | .X-X5.4.G.E.Y X a #.z.h f %.Z.*.< s m.4X*.: u h i @ y | z u Y I.h i M < i h h :.=.k.` & 5 h h ` T *.#.*.z < N O.#.: Y Y L m O.u u h m h ; # a y h L : o O.` ; u b g ; #.*.h : u # M U < h Y P T P.m.+ Y P I m *.*.i z.x.=.x.XX*.< @ U Y < - + h I.l.j =.=.j.s O.5 X , < g < y @ % % , , , Y L =.T m m L h i u u 0 %.C.x.x.T i ; Y Y T j i < s P.J.; : u P z f #.z s Y U +.J.h + : f T x.E.m p W W - O ; < P s ",
"O.h T u h 5 z *.=.z O.x.s h z T h.+.i i h T j Y m.h.` z I d s =.:.Y 5 L J.I.` T m u 5 z ` v 2 1 n y g g y i - i L N , # g O.u P G Z.Y.T d + h h * z K.z & i L '.N.| I P y ; Y m.h ; s O.*.O.z.XXm @ i h P P 5 * s z * d s ` j.` G | ' *.u U =.m.` m.E.=.m @.T @.@.T s z * d f j.T & 5 h P ` d z m.y , N N 1 a.N i 5 & 5 5 : * : : < N y N d.Q , p ; a h + P _ q $.z ; 5 h U i u 5 - m - h M M P #.T.:.j m.T.: #.d.Q - 5 :.L.%X;X5 & I : m z s h 5 d ` y - ; i =.O.h P q + U I.P u m.I.=.T n.l [.0XI ` *.:.` | ;.m s.*.x + s P $.5.Z.Y.C.} J.j.; + i h y h - 6 v p N M 5 j j.=.` u < T O.5 #.I 4.s.i F Z. .f M v g @.u 5 h J.:.` m a y y y N i s.Z.'.j.; h h j ` $.d z L d : -X#.m I :.m.Y G.P X & h s.m.&.+.P.h m h * O.:.+ + d P d L x M ; M z.m * h m.0X.Xj.*.:.' :.z d :.:.x Q +.$.} h Y Y + ; h s + s u j.oXT f s ` s $.-XF X s z * - - g T T Y d l.O.5 u 5 :.E.*.5 : O.T s *.x m z j O.L b g o O.s T T g - , a u L Y T #.d i h h ` Y * d : + M Y P #.z < ; ; U *.&.l.d.h m =.d $.m.T.=.*.M < X < N i.&.n v N , < N =.: 5 s s : Y s.+ ; h F h.x.0 : z j 5 s s j h u g ; ; d - - Y O.l.$.#.l.$.M v Y T L + < :.P : u g a W v - - m &.T j ",
":.z s * T T 5 d j L d I z 5 h h h.*.s 5 m s h m j.T 0 & $.P d 5 F 5 : Y O.h 5 5 : * * :.E.@.2 1 N g M m i h h.O.g Y p p M &.h : P ` = 5 s s i y 5 + 4 d 5 h F T [ _ 5 M a i P T + y u s T Y d.W.s.< - P j.L s =.oX>.P } f $.j.$. .).j 5 ; h O.z.T ; h P u + ; ; h h h ; #.K.z I & 5 u P #.Y L d ` z - @ c @.W.i.O.' d u P z z #.m h i y i v N h - T E.$.q =Xe.Y.} * O.#.j @ T ` ; h O.Y + h +.v < a y ; m @.v p a.i.- : P I A.0X4.* : : =.P.j.x u * d ` =.z z h.T.=.Z.m.i @ : x z.*.L F 5 F _. .I G m P h P #.d + : s z d 0 I | %.C.-X#.x U h u u x h s P s h h X a Y T..X%. .oX+.; y ; h U s Y z u m.O.s 5 *.*.P.z.u h $.z.x.$.: m i @ p p g O.z 5 5 - + i h : d * 5 5 h 5 *.` s h x z P O.s : + 5 5 : Y ' j.m =.I * j s.T @ @ ; +.m h Y z J. X5.n.m * d m.4.q G 0 d z } Z.j.} T L u s.4.>.y < m.C.z 5 j * z T.$.0 * d P Y $.d 5 o f P ; v =.} n.l P x.x.j.G z ` >.z * d P j z u y O.x.#.j ; i M Q *.O.T T U < M h ; j Y Y h 5 u M h j d d : u T ; 5 z.x.s.u O < u ; Y Y T + ; g j m b j 5 x m < < X M d.i.l.&.W W v.O.h : P ` d =.l.s.< < ` #.5 ; z s : I | : ` P.z.U - @ g T m j T T u Q b Q i m Q b #.x.&.m T.J.+ - u W @ N W < m U $.h.",
"x.4.z z j.j.j.m.j.=.m.P.P 5 s j L s & z ` L =.T 5 f f I '.;.4 } *.z j h + L >.d m ' d d T m y 1 @ + U h T *.T.s.Y N X v N ; - : d 5 * P m.Y T x u 5 z J.x.x 5 H ;.] ` P i + + u + : ; Y m 5 - h +.h h h j.:.m.f I I F f } G d f 6.} ` m @ M +.M < i T &.M z P j ; x T : u L & 5 : d m m m j 5 & %.T.Y g i n N h #.I T M y s T j.x M h 2 # y +.O.Y z.J.$.H ;.[.).' Y G.G.+.h i s s *.Y u j m ; a v y i a m d.@ 1 N N M :.N.1.H l 5 u m T.:.I I z :.=.l n.k.:.z z z I Y.j.j.*.u M U 5 u I :.:.].| _  XY s M u j d : u j m T = G '.4.d x h < +.Y d m.G.m d s *.P x ; y 5 $.k.G %.x.: u s h y y h ; x h : + * s x.T.G.T 5 ` :.5 5 T T #.h < , @ , p - 5 O.O.M O.:.j 5 s T j & 5 *.J.z :.m : h U m + ; : : * 5 5 z z * d h *.O.+.T @.W g g h d * 5.k.L.j.h @ s | ' K.oXF 5.n.n.G k.x.: + + d =.P p y #.n.5.4.z 5 f d F l z h L ` *.T T ` #.=.u h 4X|.:.*.` F :. XP =.' 6 z z * 5 I P.J.5 + s s : : g s s.m i b - ; u M l.=.p.j M i + ; h *.U : P O.:.v.h h T L s.&.v h i &.M i < h u < - M u ; & ; u < + @ @ , U G.T - u Y s s 5 f = j s.=.P.Q u j j U *.*.s z 4.k.F :.s.g < < < Y m * - ; < < u < < g Y p.Q j 5 m j :.P L *.Q h p v h < h L Y z ",
":.L.n.`  XI.m.<XT.' L d * h *.#.$.P n.=X .n.C._ z Y.Y.;.Z.L.;.Y.XXz.@.a @ y z P.8XT.T } T P h i u L #.*.f.j s ; , 1 2 a v @ ; 5 X * _ } 4.4.Z.4.d z j.6XT.z z L.).| j.*.M M O.j.` L f.j.&.+ y h h T m.z.T.j.].4.* y 5 + L z h #.x.T +.y 2 y < < < p i h u ` z.$.y &.h ; * m j.x.T T J.Y s.m.u z .X;.Y m i # + u d h +.+.v ; x u : u 5 P ' ' ` x s =.O.* f d z * * x y x *.s h u L d * j z h i G.d.a < *.E.T , N B p P m.Y.5.f | *.5 * I s h Y I.-X=.0 A ).%.L d d P s 5 m O.h a @ N P.|.` L  X$.z I.T h ; y m d & d j.8Xm.f z ].m.5 i u s m.n.n.j.5 d d L 5 d ' v p y O.:.m i ; z 5._ _ l h g i &.P ' s.j z P h : j * j z j F 4.n.$.=.*.m a , , p ; M O.*.P.j.5 ` '. X` 5 ` -XoX:.cXj.o $.:.s 5 y * 5 T * = G $.} ` P.*.: * h M y ; h h h u 5 5 * h i M *.5 h x j.H G n.k.;.l z *.G.z 5 f s s s q 1.L.Y.` ' L #.Y.5.z.i - n - h T #.L s v b #.*.m h y j u * m J.J.m.` :.XXx.j.J.z.d : h d L P z L s - 2 < < : j U Y g i i ; y h M G.s.u ; s m i.+.u 5 d 5 #.v.p.g ; u < u #.U u T * ; d.XXm.#.T #.i < p - b J.T j L O.z.I.P.Y.F s - u Y 1 1 m u u v v U s.T d Y s u M W N @ U p.g @ < u N g g g h #.=.p.*.u =.E.x.s x.p.Q + ; h *.Y m T j u ",
"z d G d _ 5.0 F I * 5 d u 5 h s z F n.[.1.Z.].T 5.].T.;.F ` ` z z ` M N < h z #.Z.C.%.x.l d 5 s :.m.d P z.x i i y y , N U ; y Y T ` Z.;.;.=X).F 5 5 d z 5 5 z  .7 N.xXT.s.*.m y y +.J.E.z.F m.m ; T.J.j.| G _ m.O.h ; 5 x O.i h s 5 a < , i p y N N ; u L d ` j.m m x m ; m m.T Y z.G.` m L d d 4 4 *.v p + i Y j.:.N p a x 0 f ` z.=.n.m.m.h : : m.XX$.s m P 5 5 5 5 i h s h #.j.$.T 5 & 5 u U i + y &.T.5 < , # p j z ;.A.T -Xj.` * + : s *.z.` s F Z.;.l m.=.P d + ; 5 + *.s.; i T * o 5 ` I + o m f.; s L 5 f } | F ` ` G I _ F Y M T I.6.F..X+ = d z L d :.P.n ; v.*.i n ; T 5.).Z.;.j.m h s.j h J.*.$.x 5 i - + * :.T j.z z m. X5.G.j @ y , < + 5 #.z l q =.Z.$.d j I P l 0 $.d * * P ` Y U ; d 5.| ;.,X<X' :.J.m.G.x i g y *.&.- : : l d 5 i ; XX-Xs h M %. .= } x.K.4 d :.h.` ` s Y u d F ;.2.H G P ` ' 5.5.#.m n c c y ; s : s v h m Y y a i ; a h y 5 y >.#.j.jX|.z.z d d : z z s d T j - g u < < : L h - ; ; a i m y =.z.h + h N i i < a u Y s - i g ; i O.m : m.h.h h.T - u ` T s z Y h , - g - $.m Y l.x.j.:.h.z j b O h < X i &.Q < @ @ i.U o s O.s - - v M y : u Q i.u @ u < - u u h m.x.m u m L j * j u - o a P.oX*.u ; m *.",
"=. XT.*.m.6X:.z 5 z ` m.z.x 5 i ; u z f l z 5 5 | n.:.: - u O.5 d s y m y y d 5 G } K.| 0 d m.*.z z f f :.*.+.v g < X i v x d L T.I.T.$.n.n.j.j.L 5 & d z P n. .G | Z.j s h o < i h j C.;.$X2XY.h h : I 0 n.$.0 5 U P m G.*.- u h &.N , < p a p Q Y h 5 T |  .| m v h y m x U M s h y u 5 s =.j.;.` s P ` L u h *.x N W X d 3.B.` x O.P s h : : T *.j.j.5.j.;.T K.I * - *.h =.T.$.%.Y.l 5 =.z.Y ; - h s h j * s i u s 5 T.I.j *.z 5 Y x 5 5 : + @ i N N i m ` x d F i M h j $.n.} *.d * s h h T I P _ F T F F } H k.;.%.f f z 0 4 5 s - h h F  .| } 5 h Y m.:.P h v +.p ; h *.m.$.& ' I z :.d #.XXL =.z.d + & h Y u u d :.=.' f z j.*.u =.T x h i T *.z q ;.C.G F } d d 5 *.| n.5.G & & P #.} ` y u z 5.=X1.Z.F 5 z d z j.I.h a ; ; ; + u * G 4.F 5 s P.G.d L m. .D Y.$.: * s ` ` f >.#.P x h =._ o l $X4.z ; ; u j P Y g @ c 2 P f * h g b 5 i N ; a N +.i.; a O.+ 5 L j 5 * : j s h $.h.s : - < ; L P x x u u T Y m ; u i.g @ - u s < h m v @ , @ - v v - a - M *.G.L >.Y.4.1.P l.Y - : : : < h U a g < h J.h p v m P h h < @ , @ s s s : Y m < +.d.b < s s ` z F z I j.h.0 P I.b < v < < #.h j ` T.6XY j L 5 : s.m.Y i + m O.M - - - v s.",
"` z.m.j.' >.T.j.$.P T T O.s s s i s.E.:.= | *.` f T #.s h G.z.u j *.O.*.#.O.h L z P :.oXx.| -X|.z 0 4 | j.I y ; h M a @ y x =.C.d } *.L d z z 5 Y z h : =.'.| ;.N.l z T d u u h p N z %.e.e.2X4.5 y * $.>.f T T : 5 s L O.h y ; ; P h i @ N N h +.m 5 5 | %.F.L.L Q @ . ; m u h u < M T z.m.J.x.T.*.s.E.<X%.j 5 * Y N , - F #X$X4.5 ; ; 5 s.` + 5 *._ %.5.G f z ` Y M h P h d G d | _ q = } -XY P *.j.P s.G.:.*.P.#.* d #.5 z ` I T #.h d m : h i % # @ i i s d f z j h - z P ;.=X].*.u s u ; *.j.:.Z.Z.j._ _ 1XY.] | ].T z z f 4.G s < m #.4.Z. Xm.f : m m ` f 5 M +.@ ; i 5 4.C.z 5 * #.` 5 d j.:.#.m T j * d ` 5 s z * * + * i h a - F F G d u ` T z P Y.Y.G 5 * d I j.4.5.].m.` q u J.} 5 * ; &.J.P 0 q f * & j z m.z u y y Y x 5 5 5 0 I } T G z L ' ' d | N.1XoXy a a y :.C.} d j j.z.` F A G l k.4.P s - h s & :.x.: + U G %.s i i i ; 5 a y y i N y ; Y M u 5 d 6 +.J.O.5 : L m.:.$.O.P b M h.` L h 5 j E.j.Y T u ; - ; ; h s.Y o b U Q g g s < - - s T *.5 + z $.w H | d O.x.*.` L - U d.Y v Y m =.=.: i 1 x.z.u - n i N m z L T E.m X a s.O.+ < s s f _ C.5.= %.n.n.:.j u b N g i I.h.T ` h.C.` z s : s z x.m i h h g < - i M < , ",
"j & #.I.I.z d d O.s 5 * 5 d L u h &.z.$.5.:.m.#.u s h : f >.z 5 : } J.` z z d } G ` ].m.| $.T z z ` ;.5.P d i : h h a ; &.T ' *._ z J.m.L + : d m d s T J.|.5 K.uXP.5 m O.Y T +.y v h T H G k.T : x T T.T.f C.=X' z.j.J.z h M N y s P h + - : x } d | :.I * L 4.Y u M T : + - h y i m G.j.z + + ` s.M L =.H d F f x a i + 0 B.;X>.: m s.i x s s 5 5 I. Xz = x.` @ i h * f } f %.l ` z q 0 d I s ` P 5 x +.s.&.+ h T y ; u u * s L T T h Y z d h h s.s.Y z ' l Y.n.G * : h ; 5 5 z } | ` I *.v h P G ;.C.'.Z.q G 2.N.;.F : *.m.m.Z.I * + j j 5 T.z.- L >.$.| ` P d T M i a v + x K.].J.=.:.d = } z z m ` #.d z d d ` j.} I P =.d @ % # h 5 f | 4.5 u f 5 z z x h - X x m.>.& f T %.f T Y + * ` x m G.T.=.Z.C.f 5 $.j.h.J.j.s m d j.C.| _ _ l L L h L F ;.:._ d * m.P.v % N v @ m T x.x h E.9Xn.A ;.:.5 ; M < g g s : T [.N.S.G 6.).Y.} m m g h i @ y - u y - y u ; h z s < Q l.=.I : > L P P P z j s j ; v N ; z P T :.*.h a ; - Y |.j.L z T K.:.$.4.j.:.* F =.:.d ` *.' d z T : s s j < : b , h M , U h P $.d m , - j.4.; ; - N XXj.T d.j.z.u , 2 i b h p.U h s _ T F l G } } F - g M - # < i < h T T : T j.0 : s T p.- : h ; < p i c M M , ",
"j x P I.I.P * m ` h u *.j.|.T.h : * u m d ` m.z i i i I m.'.I 0 P F P z 5 ` *.z f j.` l | z 5 0 T F #.I d z 5 ` #.5 i a O.T 5 z z f m.>.*.#.j.P z C.#.I z.d 5 x m.I.M & m M ; h 2 - u l w q m.j.j Y u h T ' l Z.L u =.:.' M g , h T s m j 5 & l j.].n.} I =.$.z T d ` T ` s 5 y ; N s.*.i u : z x 5 @ : z 4 f ` ' T U + u | [ ;.m.h ` z.# i s I P T.'.L T j.=.G.+.2 h P.=X6.N.;.f + $.8X} j.m.F 4 z I.G.; v h a M y - y * : ; h 5 s s h J.*.d j.$.F K.C.K.I q  .Z.:.5 u - ; i #.$.P z 5.=.x a y d f z I m.n.} N.).1.5 * i M } n._ & + * d h ' j.y j ` $.;.;.'.n._ I.-XO.h i s z G x.:.z.' 0 z |.` s : : s j P I I m.T.$.`  XqX:.y v c N 5 } =X%.Y x f T I P i i u X + ' l f Z.` F z 5 L s.G.O.j s h #.F '.Y.| m.m.T T O.z #.=.s m.L.1.n.].` h h U j.z ;.k.G 5 5 - o a n 1 y y : + * Y M + 4.;.Z.).d X < y v g M d ` %.4.b.8.1.(.=.f j u h y h ; ; U z.XXJ.z.T U Y u #.x.h < s |.:.* : ` I s 5 4.C.} s u i a s 5 h P s + < b - g P.z.: ` =.} } 5 4.4.%.} F G 5.>.` Y $.z m XXj.5 s g < j ; < , O - i : = F } : u @ , : 0 + @ ; h T 0 : Y Y h i i % Q l.J.Y , P C.K.0 } h.:.T = P O.< M N 2 - , @ ; h h & = =.F & z l.m ; i - o < 1 1 % , < ; ",
"x Y s j ` P z P T 5 d Y L #.j.x z u h s.:.z.=.z i N O.I.` $.| 0 m.j.F z | m.K.} f :.qX$.T.m.$.T 5 : d s m d 5 f F z U u y i m m P d F T d d L 5 5 :.:.f L * o 5 m O.M i p.Y i ; 5 L ] ;.N.2.C.>.E.*.s d 5  XZ.d < i s u j.' 5 j $.f d :.z I L 5 G >.z 0 I k.I } T.P d =.oX' 5 y h i g @ x *.z d | 4.: P | d i h : h i P m.:.z P I x m L h *.` P x T z h d #.T +.B % i *..X%.| 4 & d m.j.I m.j.l * L T.I.: h h N T h u j Y s 5 h m ` h h *.m m.'.| ` C.;.G = = %.C.} d T h y M >.].n.P *.z.m O.P u : *.*.u d m F ;.;.#.5 - ; =.4.$.#.+ #.T.P.=.m :. X<XF 4 L m z N.^ 4._ j z.$.5 f m.4.d m.K.T z z & d * s i x Y x z + ; - i U h h O.Q *.h T %.G T d d I : m M g + 5 O.XX].j.-X5.5 * h T T U h h h u & h d $.%.5 :.' h O.m * h ` :.P $.} I s <   + *.P ;.G F d F F 5 * h M 5 f q l | '.*.; : T $.G z U y , y W u m m h s z P l f i + + j J.L + + d P T.|.T.J.m.Y O.*.'.j.b @ z.XXz s z d 5 ` :.` 5...q =.:.z z T.#.d 5 - i N ; a m m u j : j j - z ` =.4.z.& z I.J.m :.I.f.#.b < &.#., Y u < O , - Y =.=.} } ` j +.Y * f s + g j f G m.I < , 2 y @ < j Y - i #.j.m.` h.d P -.j.$.*., , i 1 < , ; u Y T 5 : I ` #.T X ; u u s ; - g 1 i , < < ",
"Y *.d 5 z T >.s.m.m :.z.*.j 5 : 5 s i h s s G d a ; m 4.' I Z.Z.Y.=._ ` } F 5 z d z j.z f ` <Xm.z u s m J.|.j.G =.P.*.U v U *.:.j.:.* z x.z 5 d L * + z.$.d ` *.+.i.m y m U O.O.* F B.2.r _ L.T.*.Y d d P j.Z.} N p + j T.` h =.K.T j. X0 0 F q 5 4 * = G d 5 z %.d F j.=.T.j.m a @ T m h d 5 j.,X].z :.x.' h + x L x T #.m #.P x z i L &.z.z.L h y + s : j + + , , - + } | H n.P j.T P $.L = d z : 5 s - X s T z ` d d z d m.m.5 L ' =.m.z >.=.%.=X7X_ q 4 z j.Z.G + h f.Y P J._ l T h y ; h O.U u s j 5 *.Y + 4 } P 5 y ; u 5 s O.$. X;.F ` h I.Z.j.m.z h M z } 6.} d ' Y.'.C.z d _ f I _ l d *.:.h O.M i ` j Y h h h u v y ; G T 4.m h i f = | ` 5 0 + y ; < - O.E.*.F j.n.$.z ; y M # - h < ; m x h L m.I f m.` u T i ; : *.#.z.>.d 5 + + h y ` T.Z.%.} 4 } =X| l 5 $.j.4.n.X.A.=.5 P L j.:.0 T Y 5 - N m < s i +.b ; T x.T y , ; L J.$.I d G ' d z z 5 s 6 5 P =.#.z.< O.z m =.Y } #.j.=.z '.4.P k.n.G F x.#.x s s.*.; - - O.&.T L *.XX$.o - u ; : h + : #.*.P s m Q < ; m h ; O l.U + ; g u : d C.N.H k.C.#.z.=.4.:.j ; - & | =XT - , 1 v 2 @ m x.v.*.z 5 F d 5 j 0 #.} d h g n - , g < < b &.j + L d 5 L h - m s.G.z.#.p.M 1 c Y d.j ",
"O.*.=.=.x.XX#.#.` F z.:.L j : 5 u j u y u f _ z h h ; 5 ' z G F q :.I s d z & * * 5 f 4.:.= T T *.h + m +.m >.m.4.j.U y i h s Y F z } m.9X:.s h s 5 O.s.j.` A.K.< i @ @ + - s m * z L.| l f P O.5 5 d z $.` f = m :.I z #.h u i :.'.-XY.Y.;.F 4  .1X] l ;.F j z z 4.*.5 f T.z.L h m i i d 5 P z $.P d : f J.J.+ X z P.' X 5 z Y ` s u * - s.Y y m i - j s * + & M s.N s.` d oX.X` z L F T _ z z y y u * u *.L >.Z.G :.P.6X=XZ.Z.z z :.L & X P =.` f F _ l & z T ' :.M - *.L d z _ G z L s ; + u m L I * z *.` f f | } :.P ; m * +.s.x.m.G l *.5 0 T 5 s 5 d :.P & L * : * m f 4.T d :.| 0 _ P z ` ` P O.h u : u j.J.` + T z.j.*.F _.=XI h *.C.1.` T _ N.H l * T Y v m 5 } n.I >.m h ; b M i @ v s h i X ` oX'.} ` * * + + - 5 5 P s.P.I.P L } ,XC.P *.h * d 0 6.V.3.D H j.z.F I 0 l   + h * 4.N.f C.%.d P 5 u Y F L u < v l.&.h , n : #.;.` I L d m.#.; j.*.d z d d P z.P - : d :.T L L z d T j F I j f q  .| ' m.h.M Y U - 5 T E.|.x.f :.J.z * $.T.h u + ; 5 : : h 5 h m < , v m h - b b , Q x.s.m o f m.C.4.F + Y =.;.:.- & d } L.J.h - h W , g g b p.s.&.j.L j z u *.h.d =.x.; < b i i.p.#.x.E.` s : j j - + ; : d =.O.Q l.+.< < < j j.L ",
"M + ` ` *.J.u 0 P 0 f z * 5 5 m h ` P h T P z f #.x.x j.z.q I n.$.:.T 5 : m d T | l 0 _ } d 5 P x 5 + *.f.* x.m.} 5 + h P j x L P = ` $.` L 5 5 + u h * ` G 2.:.y i ; y P 5 : z *.P 5.6.=X$.s M h *.O.* } K.'.F I T.'.} P y u ; - L '.C.7XY.A G A.F.1.q 5 L m d m.XX>.' z T & s.H.M h O.` q G f =.z * 5 f m.T.z ` >.I.} L *.*.*.+ - i Y L h ; < h a + y s u =.f z ' Y ` i * d q f d * 0 4 P x.U y ; 5 s s C.$.Y.<X5.T.m.z.Z.:.5._ f d I I P 5 $.=Xn.F & _ :.h + + ' j.P.j.` $.x.| d z J.m.T i u h *.z 5 I d l T P _ F P 5 : m a p h :._ %._ ;.L n.:.: ; i ' z | I.h.T J.y Y z * 5 d 4.Y.1.Z.P * + X u h u : s d I 4.'.j.f 5 h L A N.1.q s L Z.=Xd 5 _ Y.[.7X:.i M f.L ` 5.I 5.} 5 m i v Q g h h U ; u u Y K.n.l I :.L z m h I m.$.L +.M h d q  .5.' I 5 * s l | %X%XA.| j j.} q F *.u & x T $.4 _ Z.2.).).0 s $.5.5.F h - < g , @.N h 0 z h + I G f I 6 I d I f 5 5 _ j.s L m.4.*.#.O.Y j j P.j + d d : | '.d * h M u - s O.u m T T :.} : ` m.J.=.#.5 5 Y + : : ` L s u M < @ i i ; + : : u b z.-Xj.5 $.m.L.L.L.L & 0 4.XX* ` I..XT s h : g l.g Q Q @ < o h *.g - O.O.Y #.T P s.=.s.s.u < U L O.=.I L Y O.O.d u j m : Y u @ < < i i a j l.} ",
"P j h 5 h d f I F _ Z.K.j.m.#.P ` s s d $.#.f ` 5 s Y m.z f '.Y.:.z x 5 T P d F q.{ ] 1.$.T 5 m s - m #.m.s s.-XXX` 5 *.5X:.z l | } _ j.T 5 d E. X` u 5 d = } Y.:.s.s *.z : d $.T.j.0 5 5.4.* 5 y s.*.s 5 $.Z.4.].1X5.:.P h + a h s * 5 z l = 1.F.D l l P z T i y z j L d h P h m s P m l A 2.2.].C._ T * z *.#.P.-Xm.} I.j.*.h ; i ` z h h j M a i m h : =.m.d & f l l L d I $.P.` 5 P L.G 5 < - < s m f 5.4.4.;.Y.lXz.d d >._ z q z ` x.6X:.4.J.C.*.F ,XmXz.+ 5 0 ;..X} z.` 0 0 5 + - Y :.&.i G.h.5 T 6Xn.f %.$.4.l n.C.T , c v y x 0 4 | | _ G G d h i y 5 Y j.z.-Xj.5 - j x u } 4._.].l * 5 + + 5 P u s m Y z F C.5.4 z s s $.5.| * u s j d s 5 L m.T T >.5 m &.m f z f ` | } T h +.*.h z j.z.h h &.m I l * C.-X:.m.+.Y j.5.m i v # h m d 4 * I } I T T * 5 | I _ z } z.d 5 T E.m.u G.9XoXf P _ q H n.F 4 f H ;._ $.*.Q , , v T *.$.i u P j F %.d & d $.j.G l 0 z T.$.f m.z.T g ; x h G.J.O.s ` s.P #.$.u s - - + h z.E.L j s : q 5 + s m j s 5 5 : z 5 z j < 5 * T Y - + ; - *.h * : + s 5 L Y 0 d T :.'.| F z :.J.=.#.m.P.oXj 5 Y j h : u , @ m U m h + < g < ; + s m T x.x.T Y Q + ; : X : d : j x.h.s.l.O.Y P s ; @ < U Q b ; M T j ",
"O.O.*.P m z d q q Z.oXj.x.z.h m.T.' h h m s I z d f T 4.f Y..Xf :.J.` h s : m ` ,.e._ | =.L x u d d 5 x *.s s j.O.O.s u Y $.| 4.n.'.` ' ` h T T.8XT.L :.:.f P F = I P *.*.=.j z #.'.J.& 4 + + z O.+ 5 5 5 P C.Y.L.n.4.j.s m Y ; + 5 I L I _ l 1.n.N.G f 5 5 5 : * s : s h s L ` u : L f q  .F.).].P l f & u 5 z z >.} f x.z * + h j.:.* + * m *.i - h ; s ` f z F w r A d m.$.Z.T.u * ` ].qX|.U i h x m j *.T _ l f $.P : 5 5 5.Z.} k.z =.l ` z m ` G l 5.*.h i d f A.n.* z ;.K.m.m a a 5 s ; i h P.E.z f | 5.G m.:._ [.=XJ.M 1 , @ X s k.5.6.T.6.5 j u - - h * 5 f f + + m T T h j.j.6.6.5.z & * * :.#.: m O.P d q 0 f G f h O.j.T.%.4 u h + z Y +.: & T z F ` L + h K.].].} q d T m h + - 5 d h + i P Y j.=.5 * L m.*.h y #.5 : M y 1 - m C.z 5 j._.Z.:.*.: h d ` L f 5 h d h d u ; P s.T P z d z G I $.0 f $.;. .0 q x.O.2 X @ M ' h v *.Y 5 _ $.s + 5 n.Y.n.x.F T x.$.d 5 : - ; v h h Y j.j.+ d m ; 5 h : h h Q.z.j *.` I P m h T P - < #.$.5 P L L m.#.j j i s s ` P L < : d.P.&.h.$.+ Y z : 5 s h h i s P I $.I z * L XXP.O.: s } $.j s h g < h =.=.l.M v Y m : x z h O.O.s : *.O.j h ; O.x.#.s s ; T J.Y s $.x.T g g h g Y Y z.s u O.",
"i m *.z d z z 4 6.Y.j.q & L j.d *.*.m.m.T 5 z z z ' F | | C.5.L.5XT i ` *.h s 5 K.ZX=X5.n.Y.=X0 f ` $.:.` z f d + y s L T ` 5.1.;.%.d h U f.z ' zXm.I 4.j.T d d 5 #.z.s.` XX*.: j :.4.>.f I L h.*.s *.#.F T.0XC.= I :.} L f ` u y s P h j.5.%.N.5.l l %.f | $.z x : j.G.m j s z ' d z 4.F $.Y.n.` q w 4 ; m h 5 5 L P.:.5 d * + P T.].} 0 d 5 5 5 s j ` *.T z : q F 5.5.5 I $.F : d =.:._ n.h.h - ; h x } T I %.F & : h ; u ` Z.C.Z..XZ.4.l Z.:.s m.L.w q * u Y :.j.1.F : z F _ ` * , M j.I.M g p @ N 5 P #.' * o 5 ;.k.=X-Xz.< i O.y j.6X| ;.4.I & d $.f ` $._ } F * 5 m s * : x x | qXL.| z * h d d z 5 f C.:.:.P o 5.=Xz & j z ` n.q + s O.#.*.h 5 I.$.j :.$.+ ` qX6X` ,X].K.4.* < ; y : f _ O.- < h :.I s u z m L s a y Y O.: i y a X U s.s * z #.' T h m m s z.#.x L u Y G.#.h * j h : u d + L :.f ` P & P  .5.P T h < < < ; j z s g a : :.L.$.h u 0 P | j.z.h 5 5 L x j i s.Q ; y i y + : : u : * P x ; + X m *.; Y ` O.L m s j 0 s - Y $.F L 5 4.T.h h L m d d z 5 u L P.T.:.j.m.%.5.x.T h.T ` h + - #.z.` j T %.= f s s * z 4.1.Z.P & : + h $.5 + d G.x.L z : + - ; g d.l.L :.$.j.E.G.:.P.#.*.j u T s s P.T.m.s + a g u < M E.z z h.",
"m b h ; s $.j.%.%.5 P 4.=.$.T ` I f T >.` L d z.m.>.C.=.%.w k.C.:.h s h M h + ; j :.m.C.z m.4.%.m.C.n.T F T T #.P h * s d z I 1.A.n.j.h m Y : h 4._ z T ` 5 d f z L #.h s T 5 d d f J.6X5 :.m.:.h 5 Y z * ` j.` d 5 s =.` T T 5 d s : s #.K.m.} H q | T.:.k.T.j.h s *.M - h s d m.<X:.T 5 s d s #.| A $.m p x z P *.$.j.:.d ` I 5 =.uXpX.X} * 5 5 d j.m.P u 5 5 L n.=X$.5 T  XK.+ :.'. XI 4 & Q T u m u d P $.z & & x T Y m m 4.:.$.4.| ` :.:.z h I ]. .o z T *.G.P f P.O.h & =.T.O.@ @ `  Xd.n M @ i M P h z.#.h z  X;.] n.m.5 i u u 5 d | | 4 + 5 x.8X` :.} 5.$.$.5 d z + : u O.m T -XC.+ ' z P j.j.k.` L.'.J.=.L $.:.L.P d 5 5 } 7X5.j y P z *.` *.P.m T z } j.P ` z + q q F =.s + y y 5 z $.O.v i - u ' z.G.O.x P G.Q @ + u m Y M y a G.E.j 5 d z O.y + i *.j h ; 5 s : + u u j.s.M XX*.z.9X|.m.T s I T.>.* I n.=.O.g ; i u y O.#.s u ; m T.,XG + h F f d : u 5 : : u P s.M T N h i + y h u ; s.m.j.5 5 u u 5 - y 5 z.m.x *.O.P $.O.h s ; + z.'.j d s + * s u ; s T F : #.|.*.j F T z F P P *.L h.T < , u #.T =.C.H G = : j h h.K...=X-Xf X : j.m.d 5 d L j z :.z ; Y h s Y u L z.J.T L j.L 5 Y #.` z.G.` T.=.` P : g g i < u u o j =.4.",
"i i h M d =.j.x.Z.f P T.x.} ` m.j.l L 5 5 ' P.j.s d :.f G 4.l I I h * o - h h 5 O.z d d j ' * x. XP 5 * I 4.#.T.s.m 5 m x q f Y.Z.C.E.*.N a x x j j.K.G + o z $.I :.C.I = q f f ` m.j.=.5 ' ` d T P P u + z T d * x h L ` 4.;.+ u h P #.-Xn.6.n.6.).1.| j.L +.+.h T m - u h h d Z.<XC.J.s m ; M G.G n.T.h # h d 5 f ` T L d z :.z I | n.n.G F q ` L I.oXj.s G.|.T.I.h z d ` 6Xz.O.*.T.5.G P P z.&.+.s.m + L T.j.L P h.T.z.m u *.s M h y i Y ; o u : l q P s.5 T O.5 *.C.h + u m.T.J.G.a s u U N i a g m y + Y m.:.T d * $.G 0 s 5 x j.I _ $.l * ; < N N 5 u Y j.+ * L P I s m h u s d d d 5 : + d j.T.P P *.z s : z f f 4 f 5 j h f qXuXs.; z m.s * h P z d P  X:.d 5 s d & q l G P x T i + T m i i i i + * O.Y X u s +.v # ; j `  Xh.: ; M z * $.:.P.z.z z.h 5 d Y s P Y y h + x z.G.M M L &.E.z.&.i h s h.` L 5.I x ; @ @ h Y * 5 L u + @ s ' =.z *.Y %.$.*.h : u *.m * z O.M y h y ; g g g h ; :.I.L u u 5 h x.x ; + m.*.h m.T Y G.=.l.j ; : h I.C.h.P ` Y j j #.m.j.C.x.U Q O.u - h T s + &.z.h T + b M m u h :.f F | F 5 ; Q p.: s F :.O.; O.=.x.j.m s $.` u U L &.l.z x.j.: L z L u o ; h m L h z P s h.` : j + s J.O., i b Y : T '.4.",
"h U O.O.5 d T :.` 5 5 5 = I L.Y.:.>.P d * d z z d z 5 f } N._ 4.$.m * i u u : 5 h P =.m.m.*.m s z j.` d d d d P &.M s : ` s f 5.:.` s.i p v U - h $.I q d f :.I. XT.L.%._ ;.'.Y.C.$.F f = m.:.s Y z L I I.T.x.z x u u 5 d z l d d 5 s J.T.q q ;.B.6._ ;.z + + ; y h O.s h m x d :.T P s.m M g N 5 F _ q h i P j.d d 5 * d L L z.T d z | 5.z F j d x Y P Y P z L z s y h T s z h ; :..X%.l z s u h +.+.Y m d :.K.*.d >.*.j.L h h v @.M g M m v m T I G _ ` m h ; + ; j L i X P m.z s U U m m h +.d.a + M z z d $.f 5 = d ` T ' ' :.6XI.I #.P 5 L m N v ; i +.h : h 5 5 * J.` s u m y * 5 *.J.Y u x G.$.& I 5 L =.m + 4 q Z.L.z d d 5 | '.=.m T ` s u T =.' & 4.m.L * u x 5 q l ).;Xw L j.M + : +   T &.u s z x M M h P #.N - : = 4 } m.5 y x F q l z T M Y j.m.m.` u h *.s.x m h j M h h ; i - ; M i m m ; m * s z * * h M 5 s u * z P & ; y m j.E.O.Y j ] } 5 i : s m.#.5 : X ` E.P.g @ N m g p ; h z & *.j.h #.$.' j.J.*.T y h Y x O.; =.` ; : h m XXoXT.oXJ.Y j $.z.L j.:.j h - < ; + ; s m b s s $.z u g O.*.5 d f k.k.:.O.j U g T ` o : < T O.m O.O.< h s.s.T + < L s z =.L - s @.< g - u g : s + - u h h.=.f : j u P =.u < - j d P $.: ",
"v m h u P =.` j.j.s 5 z T | I G _ d * * d 5 5 0 *.4.z F 0 1._ q l =.z.5 u *._ 0 4 d z z 5 y a i U XXf.; y y y + Y s.T z T L '.m.& 5 u a i 1 g L h = & P I.=.$.#.F $.| f ` T.J.:.m.f & f } f z m * h #.C.Y.I.oX*.5 z 5 L } G f L x * m h.:.x.f l | 1.] l + d Y x s m m h 5 5 h I s + 5 m h m a y 5 Y.tXG 5 ; P m.C.' 5 =.:.T 5 O.s * ` m.` z :.x.h y P ; J.oXf d d : : - G F : h ; h G N.q d 5 o h h i *.x z P d 5 : d ` z.` x + ; M O.*.M h h P Y j ;.5.$.` m ; T @.s u g @ h h d * < g s : - Q M - u =.Y.Y.} } 5.;.l f * 5 ' T j ` *.' L 5 ` z.:.j.' 5 j +.h y 5 ; : h =.:._ & y @ s s.*.4XH.g i Y M u M m U Y N h d G n.qXT.5 5 5 G n.' 5 u d 5 - h h 5 T =.= 5 d s s : f 5.$X.XT.m M v #.x.:.u M j + $.G.I.=.z.J.:.J.j.u & f %.Y.:.F *.* + l 4 * @ # h j :.P i + +   + + ; ; P O.s y i + h *.O.h h m h h - y u h L :.` : u * * d f F T T z $.O.=.*.J.1.G + M =.j.=.j d $.*.5 ` G.h y y y y y i x m s G. X' 0 0 ` P.I.b < Y g G.z.X g XXK.; s T j I $.d L L h + + h.J.:.P : ; =.J.l.s : j O.h 5 P h.=.m m j.P z T $.=.I z P ` m d h.P 0 : * u p.U $ 2 1 y < &.$.: L z - : u < , 1 1 1 p , < < U *.h h #.L d m.` #.Y u h =.h g Q < g u : u ",
"T P P ' j.T T.=X:.z j.jX4.k.L.L.m.f j.T * d 5.j.m.P q q A 4 _ k.0 l z I m.-X4.0 L.Z.j.` s ; < ; g y + h Y h y M x O.Y j.z s F * _ Y.s y m ; h #.d 5 ` m.:.f : + + 5 5 s : u u * & T $.T.A.G G } :.s.z 5 & T } T d L L P F * 5 5 d u m h.oXqX:.P m.| _ | ;.4.` d h m.I C.I.P 5 x j.z * h j +.y u J.Y.;.P d + 5 * : I l _ z : - h * 5 m.XX` 5 d i i ; h i 5 :.x.H 5 h i u f } E.*.; m j.%.0 5 j s h y u L J.j.j.m.T ` ' j.} #.L Y Y P XX` u h * 5 5 + 5 F 5.'.M i G.M X : Y U y 5 5 : y m :.P.x ; ; d z q I n.n.L.N._.4.$.I m *.z T.:.P I I z z d q & + G z.L h +.; 5 5 ` I | ] + + u z x j m f.i M m v.N M Q m T G.O.I..Xn.Y.:.` L I k._ m 5 d h m h M j z.m.*.d d I E.O.o $.>XrXL.j.h h h T z T * + * h G.m.s 5 h ` T z =.' l n.[.<Xl T } ` T G T m a p G.XX:.m y X i s.h u u m O.+.; u s - v Q i h - ; a ; U i h h `  X;.l ` 5 d n.5.z Y s.m L L Y *.I L.5.- s.T.F q f L L I 5 ; i z.z.- 5 h b h u d * u #. XY.} f 0 : m M n +.s.j - u z : #.&.m $.=.x.m - & h h + x.#.z #.=.Y =.J.x.z = ` #.* z |.|.#.h j d s 4.5 5 5 5 : 5 I f f %.;.} h.K.L h g , v p ; m T h s Y #.Y s m g v Q Y g 2 @ - X Q z.b h j j z P F s m U #.T b m Y : ; ; *.$.",
"` | L.k.| %.} z f :.j.j.j.C.-X X>.J.T.` F 4.=.P.5._ ` | [.5.4.5.G l G J.-X>.d _ .X6Xn.z s s M u ; Q m h T @.T ; z P.:.u : f _ _ F ;.C.n.f & I _ z l P ' z.#.* * #.j.m.=.x ; i h - h Y.=X5.).V.A.].h.L : m.j._ z l I j.T *.:.G f L 5 5 h ' T.j.z ;.F z x.} x.-Xj.' z q 6.4.m.} h O.` #.m x M ` $.T.P.h :.' I :.` #.T q d C.T s j u d z z 5 d d m U < i h s h F _ 4.z.h h 5.` s.P.h s Y.L.I 5 d j y u ; P m.#.z :.Q h ` =.#.z j.-X X$.*.z.:.` } + _ T I =.` } u y *.; & 5 h x 5 $.$.I d P.-Xm.m ; ` L k.L.Z. .q _ _ G n.:.J.G.j.*.>.` j X d j.|.Y.4.` G %.Y.z T P G.T.>.C._ ;.Z.| | ;.%.| F h h * U T M < i i < h O.P *.%.] %.I *.j z ` T m d :.m.M i * M m.' 5 =.J.#.h.P.oX| D 5.} L 5 m y y y * Y ` : T |.$.+ I O.5 d 0 * 0 =.| 4 = q = n.L.' ` m m *.=.Y U Y m ; y G.XX*.O.x #.I.T.T h Y =.h L 5 + y i M @ < v < * f =X4.f L u :.'.Z._ d 5 * =.J.m * X 4 5 X h 5 G Z.j.z :.*.y + +.j.` P T.*.h i =.K.` * L f f =X4.f =.U g i v h m G.h s j L i h m Y T - 1 h h + < z 5 - =.=.m ; m d s I j : & 5 j.I.d h L I x.| j z #.Y z d 4.Z.L.4.} _ T $.=.+ u - - < u L z : $.m z #.x.P.< < #.C.d < g v a.P.*.u ; ; J.m.d d : g n O.L m u < i < j j.6X",
"6.;.l l 4.Y.;.l z z j & 5 ` z F ` T z z P P 5 f f l } 4.} G H n.5.4.m.P f 5 0 l 0 l f 5 P P.*.s j.9XG.x U j.O.T ` | z ` :._ Y.<XG = Y.[.] _ 5.4 q d d d L #.: + m *.:.` + h x *.f.i ` N. .| ^ q.P 5 I ` *.:.n.} q :.K.G } oX$.d * : u * d 5 G T _ f 4 + f | j.:.z G I G _ %.f z J.5XT.$.h h 5 T z u s Y %.Y.m.:.z.T :.T.-Xm.* 5 h h d x.x.C.I.*.s.m h g T O.m.K.Y.z.h O.-X*.5 T M h F P f d T x 5 + * m j.' * j h + z m.O.X j.C.` G G m.5.` l G n.6.%._ 5 h h < f.G.u O.s.` : z.-XT.d L 5 + z *.>.z f | =XA.F 5 l | T.` z P.z ` _ l 0 d F q C.iX].z q l Y.K.5 P oXm.I I f z F 5.C.l G 5 l x.*.} z j.M + i i s ` *.#.& $.Y.5.z u : u T 5 : h ` #.i i P u X & d 5 :.T z T..X%.G _ _ q s.f.h ; y Y XXL j J.j.5 f u * #.T.n.*.` z n.;.* I l w q d h i i =.T.v X U - i i u s z P * * z =.:.z O.j.L *.5 5 y ; * # m ; i ; :.| 0 *.m u C.;.B.;.z z j s u h =.K.I + & : j $.*.d 5 Q v y ; M T m ' -X:.$.h *.C.j.*.m f F | Z.} #.p.< O i m Y s.=.=.5 + + Y O.Y i 2 c O.T o u U h o u j ` z 5 : P L 0 ` =.d #.:.s h L P z F x.L 5 - & l %.'._.G I P = *.h.: j Y s #.x.L s j z j : ; I.l.; g : G 4.s - v d.v.&.m ; & Y #.=.=.h - - @ ; < j m h $.P F :.",
"=.*.` L P _ G j.} I m 5 s 5 5 : d 5 m j.j.j.j.z = =.K.K.T.$.0 I P #.z #.Z.k.} z 5 I d j.4.$.` G $.` m.>.' ` P F  .4.G G 4.;.n.$X).n.G %.;.L.4.G ` $.J.P 5 P h ; i y ; m Y 5 d 5 s d q I 1.| $.H 5.z s @.i : ` N.T :.4.P 5 0 z ' O.; u Y =.I 5.;.1.%.%.x.Z.l _ n.I =.$.A 1._ d T P #.4.T.J.; 5 G m.` : m C.1XL 5 5 d $.=.' ` 5 Y :.z z 6XY.Z.$.*.j.*.h @ N h s 5 d s a M h.d u v a h j.C._ j.,XY + ; s u * =.|.4XM ; + x s Y  Xn.F ;.%.L.5.0 _ n.;.5.G f * : u h i s.j *.5XJ.u i #.T h 5 * _ 4.T.I.5.z & 4 F } F l T.m.d s m X 5..XrXY._ F w  .G 4 d $.Y.5.I z x T m L C.#.f * z ; + z *.5.1.[._.N.| $.h d T $. Xj.` :.T 5.` d * u u U Y m u i y m *.P z ` _ $.T._ * d T I _ G A 0 d z.h h Y i N s.#.h.` = d ` q + * P z z ` I ;.| F N.k.%.F : ; ; i O.Q p y g y a M h m  Xj.P q 0 l x.K.l z P 5 5 L O.u * P J.M < < h G.#.u v : = F.N.5.:.Y x z z :.Z..X'.;.5 5 d s + m j m ; y , a h L _ f 5 z * d 5.T.P h f I 0 N.z.: j v - - m m h Y j.XX- - u : ; - 1 2 h P j z.G.u u + u z.` =.$.h : &.P.O.: : G P + u J.=.0 s P ` z L T _ 0  .Z.L.j.L l.L j T h.` ` T.5XP.#.z #.O.` z.j g d j .X8X=.- - , - h h u : s L j.x.h - W i.U m z z j F d P | ",
"n.d | f l G G F s z h P ` 5 u P #.L *.9XXXoXj.` I.#.j :.K.#.x.5Xm.j d #.I.Y.-XY.z L j J.$.j.'.=X.Xl z | =.=Xk.I 6.;.G 1.1.|  .A } n.q C.C.>.z G k. Xj.5 + h d.v v N i T j.: d f L s ` ;.L.C.z z <X| - a N i P Y._ d F m.T 5 d s U < y 5 d 4 G A n.L.$.C.'.n.T L L j.k.'.Z.l d L d + F Z.J.h 5 P m.j.m : } | $.L j.T 5 z j.T.s *.*.L | Y.q & = d z z y M M y 5 :.P.j.M a + 5 : - < +.' } | G L ` y ; x j *.h.XXJ.6 y + * * >.uXT.:.%.$.T.C.'.f f } n.'.f + h ; ; s +.j.Y Y h u i y i - u z L.,Xn.Z.m.Z.d * & ` P d P f 5 : * d $.L.=XC.n.:.n.>XZ.l d x.C.4.f d m :.T.*.` L G.XXu - - u u 0 l H 1.N.%.d ` 5 z ` m.l 4 >.z L 5 : + h T s y i : Y + +.&.u z T z =.=.:.z 5 d =XtX1.l F =.z.P M +., , ; h m.T.P 5.7X].` + o + = q ` q I ;.k.].Y.#.=.h a +.*.+ < i ; v U u 5 d *.` Z.| = :.C.` z x. X:.5 ` :.x d u G.h.- ; P s.m u u 5 :._.A.} d =.P 5 h h.x.C.].Z.I d 5 5 G.P.s.N a p , @ h *.n.L j.` 5 ' Z.j.z : o _ I 0 j L g < ; @ ; u s L m O.m =.j M n , - # - 4.XXk.*.b Q v T x.L T s.T m.m - - g #.N.5.g @.#.P } z } ` f I 5 = = q _ } K.#.z L l.O.5 : j h L Y L Y O.u ; s Q m : = 4.-Xh.u M < + &.U Y s.O.s s u ; < b Q s.P.d T I P ` ` %.",
"S D 6.r  .B.=XN.f & Y $.#.z L m.z.T s m T :.L :.j.*.* P x T h.K.Y.| _ 5 5 z ` x z 5 d T T z G G %.;.;.| 5.C.$.I j.C.1._.,X_ X f } #.d 5 z z.T.q P P m.F d h M 2 # @ u P s d Y m T d ` =X].I X L ;.4.h N n T n.1.4.| *.0X6XT ' P.h U U Y P _ } ).;Xl & & ` 4.+ s d 5 | k.$.P 5 Y m u T } P y d ` 5 =.` : q f = 5 ' L I $.m.Y ; x : j.k.F _ f F ` Y h - v T h L ;.-XuXP * | _ z z # + s | ;. X*.: * - - ; P I J.O.5 y + : 5 _ L #.x : O.M G.&.y m } H C.n.` s h + u :.XXT.d s 5 h s j P j T d ` *.I L O.h O.+ F z z f 5 L ` d F P K._ ` $.` L C.I.z.5 & + q ` 5 ` T.hXz.s x O.s.j ` *.O.Y h =.j.z F P ` Y u m = 5 4 = T d : j d d T.m.T I : 5 d s i , ; y M h j d ` d = z k._.N.l 0 5.$.h M v @ y a ; s z z ` 5.=Xn.P f ` d I J.f T l G ] l 5 u @ ; T *.` h + ; h m y X * z 5 _ 0 * h Y + h J.T.z.z s T u d T m.'.I z ` j s z.oX| T.'.C.z i i h - a + m m.#.: m 5 ' O.z.T.*.+.a 2 y y `  X-XF L j P L I _ : : 0 P } d : z m : h Q L g j j 5 j P.s.: U M c N i ; L L.] L z.N i &.x.j < - j 9Xs.- - ; z 1._ h U L I :.O.s d d 5 & = C.L.} f | I j $.#.s d z P.T T I.#.u m s s T *.T P L h.} } m < < h #.s L I.L 5 P.9Xs.M g ; h 5 d P l F '.c.=.",
"N.[  .^ 1.1.N.).` 5 h ` :.5 h ' $.j.L h s x ` d * h j u s u P s _ Y.| 4 s 5 u u 5 & d =XI.& G l P ` 5.L.m.` d * u *.} F C.oXP h *.$.d o * :.j.` m.j.|.9X:.j m h a v y x u m.|.P h y d ` #.5 : & F l m ; a s I N.K.F 5 } C.$.:.G.X ; +.=.T.7Xn.[.} l m.j.n.=.z C.m.P F d z ' h &.m d f f u h P j.d z U s.k.H 4 d * * = * L z * ; u #.| ;.Y.F 0 h.5X5XW.*.a N P z n.'.d 5 n.G f h ; 5 d 4.=X6Xm.#.v h z.O.h L 5 : : + ; i L P * * 5 - a h p a < u f * I m.:.Y i u * + ` d z O.I x - h m =. X=.l %.=.*.T O.+.h *.f d :.4.z j.z.z 5 P d z x u + P l F $.4.G q :.=.: y a m M M z.z.h M O.h h m f.z.h _ $.=.P x ` ` z & _ 5Xm.: #.z I j.} n.T =.T P m a y < a y f.T.d * :.I.5.l 6.A.G 4 T 5 5 < < @ # u : * + = q _ ].Y.F l f f F z.d *.Y.C.5.;.P z P =.h m &.h.I y y u *.*.z ` 0 f T =.s.*.5 Y s + * :.J.x d *. X:.f F | d L m.oXx.} ` | | f u i v y g @ h j.j.j.G.y s : s : + g a # p N m.*.P & : * 5 L _ G : * 5 f '.=.d s s & Y L U T m z j O.*.- 5 + # , v g s } 1.Z.G z p.M - X - O.#.u Y L h m : h 5.C.L h 5 o * : T P.` T 5 = N.N.F ` d T z =.|.s z &.&.Y :.:.m =.T T P.&.& h T T d * F j , Q v.m Y Y L s ; *.G.m < - ; u m x.| P F G =.=.",
"I } 5._ ;.q _ n.'.J.T z h * P *.z.>.d Y O.O.j.P P O.h m j ; m m j.j.* 5 5 d x.].j.' n.m.:.z I I 5 + 5 Y s.J.Y h +.N u F * #.Y ; h 5 5 5 s z z f = f L >.j.P j.M u s m y h +.M g i 2 ; z L T m.} P F z z.*.d P $.q F d z 5 L : s y s.m.` 0 z _ 4._ _ 4.C.` d z ` j.T XX XI h x j h P | f h m : 5 L h i Y F | =.z f 5 d T I d j.f.x L G _ =XF * d m.G.U N i M =.z.z 5 P 5 4 * : + + #.>.q ` m.m.=.U Y *.*.5 ` m.x.h.i y Y =.` z h T y @ i m y ; : F G F F >.z y s s L s s :.j.P i @ N v u ` C.] ).uX*.M m i T x j f j.:.j.:.L * q '.L.4 T z f z q * I 5.H I } z + h ; @.G.; h M ; - - ; h g ; ; u k.=Xq z =.L.Y.5.G l :.x : L ;.n.T z J.:.h m z.I x U y u *.T.I.*.L j.qX5.q ).Z.G x.C.h.m.s.j.* x d =.z 5 5 f P ` C.` 4 4 F d #.h m m.=.T.,XT.' x.W.< n y *.m.g i *.` *.XXG.j.=.f K.-X:.#.' s z :.:.m.4.d =.' F j.T z #.j.s.O.f = 5 ` =.d y y p ; M - P oX=.#.Y T =.h h O.O.T v a N v m.I.*.I j.j.$.` G z O.x P j s L L L ` 5 * : P T s : j b g ; d b 1 @ Q O.j d f A f A -X*., 1 W G.=.L s < h m T j.:.4.G.#.P h.s : L ` * : : f C.C.j.F 5 : : | :.f d s j } T #.: T h s O.#.=.` z :.*.s d *.W N Y m h b v g + ; ; - - ; ; L ` j.j.C.} d h h ",
"f $.n.:.T ` -XP.K.x.d d s x h d z ` #.P h x d j j h m s i h h u z s s z ' j.;.Y.I.4.].%.} $.T Y O.u i &.+.+.U M i @ ; h L m , @ y s L 0 ` I d $.` P z f =.` m 5 m O.O.T h - N i c 1 v s.T :.T.I.T ` I L >._ q f K.qX:.#.L I I z P m.z.} F = * = P K.` Y.| & 5 s : + = f L 5 * h Y d C.j.5 M * * P *.P u z d z 5 I z q 5 z Y I.z.*.5 } n.} l =.m P s ; i g h 5 + q z d z T F z O.s ; j.I & 5 P +.U ; ; y h :.z.T : ; < @.` l s u u 5 s 5 x u o f 5.;._ I L + : u h -Xx.u s h.s.T n c n y + 6.[.2.f 5 5 + @ M h I P l d P 5 5 P F } 5.+ 4 L.Y.G w = _ G q | 5.d T j.Y h h O.s.- + u s O.a v i @ u n.1X1.= '.0X=X;XxXw + d d :.Y.,Xz 5 j j y h u * $.:.d 5 F q _ $.f d F P & q l & z z #.` E.j.* I 4.4.K.m.L =.f 4 `  XG $.T.x - * - O.m.` = $.5 j.@.@ a i : * @ a - 5 h *.u P z.f & z *.=.` *.P.I.z 5 L z L *.$.J.I.:.m.j h m z q d u d 5 - i @.@.N s ` C.P z U i d.&.i T y h i ; i y 5 z f 5 z m T : d j.` J.4X} 5 =.$.d I.XXL $.: + : : s h ; : m #.- % Y z.T & P F ;.N.k.; y i &.Y l.` : s L u J.P.X * :.=.Y h.$.T O.s ` d : P '.oXm.L j 5 F T I } F f P 0 P P & X * u - - O.4XzXI.l.j h s , @ M U o ; o u < Y T Y : g Q T s 0 s 0 j h.Y j ",
"I I N.=X6.m.Y.,X].z + L :.m.5 _ ` z *.J.m u z *.#.5 ` Y u + ; ; * u P T d T d 5 T } %.| Z.$.Y Y +.h o P P.m h h M s j u s i < y +.m.C.G ].j.5 :.,XT.5.j.T Y =.h h I P s.m ; &.*.; m y * *.T d 5 d 5 G q 0 5 = %.C.T.z T T P I = h P ` ].=Xx.z m.j.T _ 5.:.P :.m.f G 1.| ` m y j.j.* #.=.x O.s : 5 x j s f & : L K.` f 5 j *.u ; x #.| _ l 5 5 m z.h i +.U m z 5 $.Y.-XY.Z.| _ K.:.z.I.L s u ; i h g h ; *.:.z 5 5 - h M P u 5 m z 5 5 h 5 * + j.L.5.4.I.` + 5 z =.:.h 5 d I O.*.v N v ; z _ l G 0 L L - h h ' $.| ` K.:.j d z l 4.4.H ;.5.Y.| H %.} 5 f l *.$.F ` } f F L Y s P ` j.+.a y M z 5 0 Z.N.G } [.;.A.;XC.C.-Xn.m.Z.n.5 &.O.h Y L *.P n.Z.T = G 6.n.G $.5 ` | _ 5 v y 5 * * m.m.d d d G q ` I.j.:.P 5 z z f *.z.z m h h `  X_ f z P h @ h } H ;.5.m x h h j i s o d F d : * 5 $.*.*.' 0 o 5 I I 5 5 s m L ` d ; s 0 :.' : * 5 + O.O.O.M u 5 z I h.h i ; + + y - h u h y * 5 f 5 5 $.J.h * * I 5 5 j d 5 J.jXT } x.F P 5 5 u : Y z.j . z =.u g h &.J.P P f } k.I.` < u a + - h s s.=.* L 4.x.=.P J.=.z =.*.T L *.x.h.s : =.b U #.j 5 I ;.0 q f x.K.& * s s d T T ; - g Y m Y &.L s < - < X X o i < < u * : s T Y : f f j b : g U O.",
"5.n.l q f | G 4.T.| ` z =.:.l =.m.>.P.s.m Y h I -XI * s P Y O.m.s.d #.m P z.T P P.n.l Y.k.` L =.j.h.#.=.:.s h m L s s s h T h m *.*.$.C.;.F d 5 d >.=.Y.m.s h ` j.j : Y *.m m U i u 5 i =.j 5 ' $.m.4.| l f 4 Z.} : : * * :.J.j.M O.K.z | %.G :.` q 0 $.` F >.j.L.L.Y.=Xm j P T Y z L P j.=.z h *.=.m m d P #.j.K.' L 5 F ` u 5 : z j.l f } *.s j 5 5 h m h d = 0 _ m.'.q | Y.} >.P O.h 5 ; ; + + m m j.I.P m x j.s.oX4X=.*.j.m.T 5 5 d d L l l 1.| | ]. XJ.& x #.` =.s #.:.Y s y h h 5 ` $.=.n.G I ` 5 * : P | I F m.*.s & $.'.5._ ;.Y.l C.L.4.:._ :.=.#.L * P $.%.Y.m.P d #.' I s + ; g + 5 5 & z ;.P d q o G 4.} j.oX4.l 4.$.z *.+.h X j z Z.<XG q H ;.A.$X;.q l 6.Y.n.L N g y h s Y j 5 L ` 4.$.5 F ' P.=.s f 5 5 d P 5 O.j.=.z $.4._ l z =.y d 1.V.C.Y.C.` m m j Y j.=.d d s 5 & ' J.T d d * 0 d & d $.m.T u F ` ` *.*.T L.z L I * 5 5 5 u : s z z P P.&.u i - - i h 5 O.I.#.h s m O.z.` =.I L P J.j.x 5 Y m : j.I.T.E.T & : u s h j g ; : G.x.: P &.#.T s s : d F x.O.; < p.*.; - z j.P.I.XXm.$.=.P z.j.5 s * & : m =.P : h h < ; h L | 1.Z.4.0 L.K.T m L =.I.=.L $.- g m + u m U < - &.d.m N g i + < g h d }  XXXj O.x.4.d *.U & L &.",
"q _ 5.G ` m.G z *.T P *.s d z = } j.|.+.u x s h *.$.s d m.;.F _ #.z P j.#.T $.=.m.mX,XN.| 4.G Z.,XqXlXn.d P Z.m.* 5 5 d :.E.h.L :.:.Y.Z.d z L *.$.m.z d f f m.T.d ' z x *.O.*.z.5 * h Y s s ` z.*.j.z z ` 4.;.| _ I h & j P.-XP.j.s d 4 F 5.F ` q f 0 P z I = $.n.| 6.5.z +.*.: d =.T ` ` d $.#.Z.'.x.P | P K.I.m P u z m.' T f ` G G z $.=Xm.#.P q 4 f = P j.P ' + 5 z 0 =XY.| z 5 #.i : ; + * * 5 ` s.h * M +.m h P.*.L x.m * P * 5 m m. Xx._ Y.).k.} J.m.:.z * s s 5 x.T.m.u ; h 5 ] 1.1.-X*.& d T I d z z & } P j & + u j.K.= l d j.z m.' z j : L m m y Y P.s.*.T O.I f L P $.5 s ; * s j ` $.} K.m.d f _ & 5 d T P z l I 0 x O.v v.z.s q G A w 5.6. .S ^ 1.n.k.8 l ;.C.|.z.y h h y z ` ' $.L z f z s z.:.x h z * u d X : 5 L m.J.k.;.} ] } j.F r ^ f T :.P d + z f z.x.d P #.z * T G + L } * | | F z C.-X$.5 ` Z.m.:.j.I.} %.L._ G L.n.k.l : ` 5.:.n.>.d u ; u h m ; s m.=.m i j ` &.*.u m *.O.P P J.m.` *.m : u G.G.G.s.- i y ; - j j u z m s : '.oXoXm o ; i ; s u o < @ g M < h : 0 P '..Xj.& z L x.=.s s h d : s : 5 & O.XX*.P.@.; P f =.} $.6X#.s L : #.x.:.P *.b - - < s u + o u l.*.g *.T < - g m L m #.h.$.j.|.j.x.j *.&.X I k.",
"* s P ` ' ` z $.z d z d f z 0 5 5 5 h y h *.T.=.d >.L 5 f | :.d 5 z d 5 x h 5 * 0 G 5.Y.%.$.F l 4.C.Z.n.m.l *.Y.z ` f 5 j I :.j.-Xj.T T P :.>.L ` ` P } ' J.|.z } m.z *.J.*.` ` f 5 z d : f ` j.T } } z q 5.| l ` #.z s j ` T P J.T.j z _ | 4.} | =.` C.oXG :.5.f k.6.= & u x h z >.f 5 q P >.C.K.q f G 5.5 P z.z P j z T.:.0 q _ P *.m.L ' d d z _ I 4 n..X;.} m.z 4.d f m.} z f P x h M U u h.:.d j.z 5 h.=.#.` m * Y *.x * #.j.x h T I d + 5.Y.^ _ z F P.5X` 5 5 5 z j.P.x z N &.L.q.).qX:.i m #.j L q :.k.0 5._ J.` *.#.d q _ Z.I G I T d z P U y m u m a i a h u u s * L P I j.I : 5 5 L ` I z L d T T.=.+ * ' | :.Y.$.` P & u < *.9X$.l ;.] w ^ ;.| B.5.n.G l q } P =.T.#.+ - : ; z j.j.5.} & =.z * T *.m y i 5 5 5 * h : d 4.5.<XN.;.A. .<X).N.] & 5 f d 5 5 I j ` L 5 ` z s.:.j 5 L } ` L =.m.$.P : 5 d F 0 =. XI :.x.& I I 5 =.L.n.].$.d I ' z j.j.` h u *.m.j.s.j.i * + + : h h x Y s s m *.u h *.h m M u h O.d.u i.d.v n N m s Y E.O.; m P P :.#.Y < < i : z z s i , % $ - h d | =.| G 4.j.L ` ` =.d j 5 & + + L d s z T U s.b l.m.F f 5 s s u < h j J.j.x.P s h O.L L L Y #.: M m + : Y u - - + : d } L * s P j F } j s s &.=.4.",
": 5 5 u $.j z I 5 d ' s d P T z _ L s m h :.6XC.G 5.I H l z d 5 z j.Y 5 h *.5 j d * d T :.T 4.z 5 z s : * *.>.j F d z q f ` T.=.` T s j Y |. Xd 5 ` I f :.T.G 5 m.*.` ' _ m.` z 0 *.I f ` _ $.;.I.].} 0 F 4.4.4.j.-Xm.Y h L d L m.m.#.I j.4.5.| } l * $.P 5 *.m.Z.H 4 f #.m & z 5 } C.k.I.Y.} l F 4 w } I x.m.' 5 P z.:.:.P f l T K.I.5 5 d & = q } %.;.G l _ Y.n.j.j.5 m m h h u + s 5 u s.s ` d : 5 K.T.4.T 4.#.z u *.h.h m m.T.L j J.:.f & | N.;._ G G 5XT.u d 5 x ` s *.*.h v M -XZ.5.T.Y n +.i : 5 ` G S w G q j u *.:.n.L.Y.=X^ ] xX;X| | j - ; *.T ; ; h M g u h * L J.P. Xm.F 4 4 4 L *.s & ; m *.s.h L h L *.6Xj.d z 5 : h h m =.*.].k.| q l f } P } =.` h y u + u m ` E.:.:.P F 5.Z.4._ 5 #.} : : O.h ; ; h h X 5 d x z.oXj.l %.I l l #.' q 4 L *.;._ * h y h y h U j ` z.O.* h T =.:.s O.*.i ; u + L x.z ' T.F q P z 5 & : ' ` O.d m s ; y @ N M i ` z L F F :.` u T =.:.#.$.z.z.J.* 5 ` P z P z 5 m s : i M y + < N , g u g g j ` Y * : g < M Y Y h : m.I.I ].x.T g 1 , X g J.:.:.C.I.:.I j P Y #.Y : s j : + s L $.x.h.< X i O.m s L u ; #.$.l.#.5 L j j ` L P K.T :.T.|.P h.E.Y ; * ; 5 - - s d s =.` } C.f K.| : & : I L.L j ",
"s s s s h 5 u G.T.L d f z ' *.P :.:.m U a h T _ G q.[ 1.n.l T T.m.Y z h 5 P T d F d 0 d I T.4.F F z =.x j d ' u I I.C.Z.%.f Z.n.5 j h T v O.*.m ` oXP.T | K.F z ` _ _ f } =X4.H F C.| z '.;.5 l C.I 4 f :.| } F _ :.m.J.O.I.I.m.m.u x : 5 4 7  .k.l 5 d q = 5 G F = | | T * x I f 4.=X6.N.| 4 5.].k.'.k.l :.Y.5 + Y T.T.C.} j.5.5 ` *.h * + 5 ;.'.4.F P = :.iXL.C.j.z : h h @ a g < M s + + 5 m P 5 z j.%.= I :.5 & u h * d h *.d 5 5 h j & + | C.[ Y.Y.$.} I h O.=.*.:.z L z.T < ; 5 d j M % O @ y x 5 5.A.] ^ ).7X-Xm.h * $.C.l 1.1.2.^ 6.N.<Xj.i i O.#.; i i + u u & m z } >.L & } n.6.;.:.T m h i i i h *.:.s + : m *.=.P z m &.z.h X 5 5.C.| G f & d * & d j O.g @ - Y T ` :.J.4.G Y.6.A } $.:.P.' 5 d m u : * m m & 5 z d J.K.` = = F N.5.* d n.n.| _ n.=.- y a +.m u y h j.:.5 I.J.I u z m y h y - ; u >.uXT 5 z f 4 G I.XXY u z s x : * y < N p @ + h j f l | :.d I d L C.Z.P ` I.].*.L j.j.:.P :.:.I m 5 s +.T - M h + < ; g l.*.s : $.#.; < M c p Y Q : j } f c.F O.O.i - W b L I.f l T.:.` h.h j T T h J.*.5 U $.=.P x.m.h - v u u m O.s u l.$.:.d z $.M + : d : = j.4.` j.L x.oX#.5 z m 5 s h j Y ` z } x.=.} '.$.f -.J.C.x.: x.",
"u j m L h h L j =.f d z z j z =.` x m # N T d I 5.C.4 4 _ | ] L.,Xz.z I I.:.j :.:.#.=.L j T 5 $. Xz =.T ` 5 ` F ` .XY.%.q 4 F 5 I h @ , , N T T 5 F >.f z I ` 4 4.Z.5.H ;.Y.} w | | %.I H w _ | l 5 ` F n._ q * F _ j.O.5 ` *.P d s i y L $.1.Y.'.T z z 4.$.f G * 4  .'.d 5 j *.G 4 } q 5.1X} j.6XI m.z x P $.* 5 $.P P x.` d d * F d + * X d 4.I.I.P $.I P L s + h s.h z.G.m g i < h y h d d l j.j.n.j._ } m.P : 5 * Y I.$.5 5 u u h * + z F P G q 6.5.} P z F P h =.O.m P m ` T = 5 = Y ` g a @ M G.z | n.;.| F } T.J.u m.:.%.;.` q 4 0 l q } L O.|.-Xj.5 5 F } l 4 q 4 5 & X d m.B.N.A.Z.L.L m m h ; i i f.f.&.m 5 L j.qXm.L =.m M h h P 6X=X;.^ G * q n.H G L u h O.*.m.6.| d u 5 = f F d } T ` j.>.d } L * I ' ' F 5 P.:.d J.|.C.L & & F =.s 5 V.$X5.T ' O.h - &.T.m s P m d q f $.-XP 5 *.m h : u : 5 z _ :.= & : I C.} #.|.$.` P P P.$.F P 5 m h ; ; L 5 | Y.4.:.P m.I & & u h h s ' h m.s.x *.' d ` z * s j P L s -XY - U M m p.i.a ; h g g U b g i v.p.@ i h :.z ; v g &.U Y j & z P F * Y T T : s Y L Y |.j : Y m s d x.$.: u u u h j o + #.K.| ] 1.=.m Y g h O.=.z P T f d d L m.x.j T s T j.T z *.l.f I.I.$.-.K.=.I =.m.$.U L Y ",
"; s Y *.O.P 5 5 f P } m.` 5 :.:.P M M a N G.P ` n.Z.& = A.[.1XL.0 z :.#.:. X*.d C. XO.m s.: : ].5.` Y.:.` d #.*.d z z ` q w n.G T =.Y y i N O.j.z + : L $.G _ 0 } '.;XL._ r w l Z.Z.;.l  .6.} 4 d z l d q f = & 0 z L * z d z z 5 x i *.Y P ;.4.:.=.` z T.z.I z 4 Y.rXY.>.I.j.d j.N.| n.;._.0XP x * h s h $.f 4 T..XT :.` d h d I I f z I F | ` z 5 0 l } 5 : M h y T + P L : s.l.N g - m $.;.q x.5._ 4.:.4.z * 5 z u P j.s s Y h ; Y *.*.6X XT l H n._.Z.| T z T 5 s s s d u =.F f l 5 *.Y s u h h s P P F Z.N.] + + j Y 4Xj.T.kX5XT & j j.#.P u G.6X9X*.5 4 A.Y. .S } F m.T.L m $.N.).N.H 5.:.h i < y h v i h U u d j 5 z d h.T.u X h h ` m.T w 1.H ;.Y.N.| } #.s O.O.z L.n.Y.*.h j.C.T _ ` ` d 5 f l 0 ` I :.9XT.P C.L } z j m.j.4.F + d Y #.h ` 2.V.;X-X*.z.Y s P.' Y J.#.F q F #.: * 5 h T ` m ` f *.I L..X4.G d 5 %.=X_ =.j.s Y $.' 5 | T.T + ; i h 5 :.4.F _ 5 + L *.m L m x u :.s 5 x W.T.T.L d ` C.$.* P x.P 5 5 ` : $.s.O.L p.Q @ < u g - < < < u @ , v h T *.Y g M d.*.u s ; s P s m : m s T h m #.Y : ` =.=.z T : O.} :.#.x.h u L Y O.=.:.6X'._  .k.; W O.T x.XXP F x.=.x.` T l.T.O.T L h j s #.P.#.z L P f F T $.=.= I L T x.Y ",
"j 5 :.m.-X'.*. X-XK.K.|.I h P s x m m v ; U z d #.I z f ;.A.<X'.F 0 f f G #.T 5 T z.#.h h u d } q n.0X$.| J.h h s.d q G F C.Z.n.=.P.+.y - s.m.I 5 s s x.0 l n.] 4 _ [._._ ^ _._ %.5.= F %.).;._ ` 5 d j.T.P.f G d T $.T.:.z oX XF d u P y x =.Y m 5 i ; u h U h & %.L.;.n.=.` z -X:.;.A._ w n.z 5 ; + ; s : 5 5 } n.4.k.>.I z F =.T Z.<XT.:.-X$.f F '.L.j.$.J.J.h a z z l | f T.G.a X u s *.P _ G + 5 4.d 5 I m + m P d 5 d *.Y L m ; U j.J.} T l w 4 A.;.L.K.* * z L x z T j.I *.T. X` =.I d ` U m j.m.* 4 _ '.0Xn.d #.` s u s =.:.s u + u O.h h =.T.I.0 q 0 G 1._.H A 4.K.T.s.M + L ' G I L.-Xm j y U O.T y : j : q z L.Z.d 5 d Y z + s T.=X` ` ;.H N.=X1.} m m L :.P $.:.P =.T *.K.j.C.$.5 5 s L | 5.} F ` j.oXk.} $.I 5 x C.'.Z._.;.* ; m Y l.O.L.A.^ H _ z u s s s z =.` ;.1.Z.*.*.T h x m I T d 4.6XY._ n.n.'.n.I G _ h Y m + I m 5 z | | 5 : Y O.s u j.G l 0 d P T #.L z Y j F L.T.i < @.*.Y *.P F F f z } T.` d : - ; m m g y i + g i u m u L s.< - - : g h h < < y < Q v h ; * P Y b < u g - g s s.T d s P w J 1.4.=.=.P x.x.` ; X s s.s.j.N.| =.j %.=.h v g g u u s 5 d Y z u : T Q ; - u j *.L x.&.j m T 5 5 f : L =.s T g z.z.T ",
"m.I I P :.:.=. Xm.$. XP.d O.s d j 5 5 : Y 5 d x Y *.: 5 I I l l q & z :.*.5 + d f d 5 5 5 5 5 z z d | %.T m 5 + *.#.0 5 Y.kXT..XJ.m 5 h * m x : s ; x z.z $.].m.Y.1XY.H l [.<XG ` q q q _ | w _ d z f *.G.5 d z = L } I T ` C.Y.#.d x *.M x O.y y h U U +.a v &.P f l ;.;.z j d d f | [.A.l l K.m * P.I.s.$.5 ` ` 4.j.j.d P 0 d F ` P.5.q x.x.=.z I j.` C.:.: M Q +.x.qX;X1.w $.Y T T h x P I m.` 4 f _ z 5 L ' 4.` s *.h.j.z s h i p ; 5 z 5 d l f f q l _ Z.C.I d & & P m.j.*.I j.$.d z ` z ` z ' m.T.' f 4 %.,XL.d J.s.h y + s j L U @.+ + T s u z z G L.N.H ;.1.q F I d ; i ; y s.L T Y.].` + m z.j.i - U O.P j.j.d k.,X:.m i i y : 5 z z %.4.5.N._._..XP * 5 s l 4.].4.z d h.$.I I ].].' & 5 d G ,Xj.z z 5 *.$.` z z m *.J.=.;._.].m + h O.m Y $.4.B.F.L.} * *.d 5 4 4 _ G ] _ d m h i s : l 5 4 F T P.` _ ` T s Y Y *.U Q h M i Y z.J.5.` 5 ` Y u h d P #.I : ` h.j * 5 d : &  .C.T i y a + u x ' '.*.P q s f s s : ; u o < < g m v W +.g f.x.s u ; u z T.P.m : j u m &.h - u Q Y m - - N O.v.l.s & : g T j =.I 1.1._ T f I | $.P s s s d z P.| 4 u O.'.x.m O.Y m T h h - u Y z.*.O.#.< + < ; - h z L < ; h =.L 5 L > ` |.P < : < L &.",
"C.F d T 4.T.z 5 d L :.' z P z G q G ` *.=.f m.:.5 T #.=.n.C.A %.I f m x s z P P q 0 d 5 f z = >. XC.:.f 5 h ; h >.'.L.%._ j.:.z L h ` #.x.m.*.P i * ; h h T P.P.j.` z * s z.*.z T L ;.l 0X0Xw ).[.=X} 5 : : s * 5 f ` 5 z ` d 5 P d * 5 s Y I.&.i h h N v ; y i U d f 1.C.z 5 h z F G 6.0X .z *.f ' '.P.=.I ;.Z.z x.qX` d F w ] d z f L L C.u ` L u j :.T u + i m j l 1.2.* P :.m h j 5 : T O.` F z Z.Y.%.$.5.x.C.T #. X-Xm.T h ; i Y h 5 F G F z F G = 5 5 5 :.J.:.l = =.T.& 5 5 0 $.P *.z 5 P z z L ' z d 5 } -X.XF =.*.5 m s h s L s.L ; j G.j *.j._ $.L.| n.I f 4.>.j f.f.h @ v h s s * L ` 5 s :.s 5 T u + x oXP.d z *.N y p i h j 5 ` _  ._ 4  .| H Y.I =X-XI & - s h & d d 5 l =X=X_ T s 5 5 F } F =.4.:.-XL + h + a a + - z f } ; @ i m m #.} _ q. .:.4.j.G.z 5 n.T & A ] 0 & s s s z.l 5.Y.H f *.P h z d + : 5 M i.N , Y G.x x x + * L f 5 z u L ` z m s 5 :.K.P z Y L T F 6.G u i v # y g ; u #.` s s : d j < - m i - g < , i < i U m |.P.` i *.s & x.x.d =.4.T 5XP.h ; @ b g g < - @ g T.h.s ` Y U z.h ` m.F * 5 - : j #.5 P m $.` L P =.0 : u j 4.5.L m U i - - u i i i h l.U.m v @ @ g u u m s - - u L h I T s h m j < g U b < ",
"} G f l 4.>.' T.O.: d z =.f F ;.4 l F j.5.4 $.I T j.m.j.Y.6.H F N.G u : ; x ' } F | 5.z 5 5 I :.'.oXI.z ` m i Y J.%.%.' s s + h y i z P n.>.s h :.j.d * m < h Y i : o x L u 5 z : 5 f q C.G l n.Z.%.F 5 5 + + z z 4..XF _ Z.4.>.` I & ' z h.9X*.Y x h =.m h m i : d F G '.:.} P h s F I 6._ 5 z + n.].` %.G $.| d #.P.$.z | 6.q.P u u x h 5 m u i U z Y s u ` #.: & w A = H P h h i h i h j.s.5 5 } 4.} = z G l >.| z _ j.#.L 5 - ; g h G 5.n.} ` T.j.#.4.d j L $.qXT.' P.6X} *.` m. XT.5.5 0 z :.J.T o u z.-Xj.q 0 }  X-Xh s : s Y s h u ` s.i u :.` ` ` G q G P ` P * + +.O.- @.P.P.J.s ; x.z.x *.P *.*.O.+ s i d m.C.4 * - @ $ 2 i h d I N.[.5.5.=XF } oXL.n.m.=.*.s y u ` 4.= 5 q $.l | C.0 + F G _ | z ' T *.` h + g n p @ v M +.m @ a y O.O.* f 1.1.l z I Y U O.: L } C.| ;.4.*.h 6 5 '.j.].| 4 G #.I d P d Y T - X Q n 2 N Y h P h h m.:.>.' L XX-XT : u - * T K.j.#.L *.j.6X] f h i m h < i i h y x M u & h L T O.&.W , i < , < - b g < s : h =.I.O.: & o s } | 0 h.z u s + < < + g h - #.T.x.s x.J.h Y u g Y : j h m m G.x.5 L XX*.T T.$.= : T *.P =.C.x.d.m - Y O.g b h b m < g ; U i ; ; s *.G.z.Q U T O.h Y m : 5 : < ; u Y U < ",
"F q } =XY.$.=.:.*.s m L j.` } 4.;.G q 5.Y.5 z z *.h.m.C.;.;.] k..X` + ; - : 5 z 4 I I.| 4 %.=.z ` z G m.j.h i h h s : X ; p y M m |.jXG.* 5 h l C.C.I $.:.d 5 & :.$.f } %.= 0 z } z d f 0 I 4.5.` z s 5 j d *.T P l l 4 q :.5.=. X'.j.` } $.` ` $.d d 5.P.J.I.T d f l f ;.N.' z + 5 G 4.A.k.4 T f ` 4._ H _ l z u : 5 n.Z.q G L.s.y m i * ; 5 ` h h u u h 5 m m T I _ 6.F.=X} ` |.J.*.: z.9Xj.j f %.| = T C.x.| 0 0 0 & I = 4 * d 5 y u L.[.5._ T :.j.G.|.` h Y s m h h h x x j.T.J.j.=.>.x.P G x.=.} d j j.oX5.` P x.C.I.P Y : O.I.=.d m *.I.&.:.=.I m.T n.%.l f d * : +.m + + +.m.O.j X i x U O.4X-Xm.|.G.+.u 5 P 6.;X). .} d y , @ ; 5 F | } I s.l.+.M T d + F $.Y u : s L d L ' z d G H _ | f ;.5.q = m.m.* s j.f.- X a n G.s.Q v ; M *.h Y :.$.5.Z.H q 5 h y j.z.d * 0 | } q T.G.x - T T z K.C.z I m.| f l z O.i i y i N N y h M Y m d x.x.:.T _ $.m.x.$.j : s ` | } L i - M P.O.P m u ` ` j O.h ; v v M d.; h l.*.g g b U N b v i.&.M +.i < s s P =.T j $.` |.m.d d f 0 T F z I 0 s j 5 ` I.$.} j 0 h.T h 2 p g u h h W i p.=.j T L * 5 m.|.` T 5.k.c.$.h U *.m u ; v < < b z.*.; Y p.+.u : j m U : *.|.h #.=.z z h + h O.g < - : } h.",
":._ =.-XY.j.` 5 & z I z '.:.4.} j.I.z m.=X` z F *.*.I K.Y.I f L.F 4 h x h P P I $.;.C.z ` j.T 5 ` & ' $.L L v M T z.z.m X y i m d n.G.h ; &.=.;.%.N.G G -XoX>.J.$.} C.` J.P d | m.m.` 5.].n.;.L.z.5 h I m.,X.XF :.F f d G f q ` =.F | = z } f ` | I } ;.T L.6X-X$.F }  .7 F 5Xz.z x.:.L.,Xk.I.qXx.} k.Z.| 7  ..X` s n.).G 0 f I P m h + y x u s.O.u f.z.h *.T * T %.;.Z.1.` d :.s.m 5 o M h * *.P.' 5 |  XK. X:.} l q T j.m.m.=.'.d ; j 6.rXY.l m * u u u h x f.P.P.; - y ; Y :.z * f * f 4.z z ` z I I m G.m.x.:.Y.k.5 5 j.J.I m $.=.f G >.*.P h L P.J.j.4.| k.k..XJ.` J.*.y T Y s 5 #.s.h h h y u 5 s 5 u m ; h ` 5 ] N.1.;.d y , u : : %.I & h a ; y y , y 5 ` z z #.z m F z j d s I z 4 1.;X;.n.Z.| K.'.L x s Y *.M v ; v +.T @.i - f z d j.m.| H S f f d ; h f.z f 5 G L.5.` j ; p i T z 0 z $.5 * %.4.%._ %.:.:.T h # @.M n v h u s & = 0 & d } I * n.$.d 5 ` ` P 4.-Xz.g p g T *.m L 6.B.z } P : i < , g g g g u s.l.u s Y &.g v Y i b g g m 5 z } F z $.T j.=.X s ` T f } f F j.#.:.m.x.j.T & s * * z s # @ b j ; h g < @.T j m * & & * L ` ` :.Z.'.#.b < Y j Q ; m i.U d.Y m g Y L j s z T l.oXO.g J.h.4.h.O.` s.L m O.< : s d $.Z ",
"=.4.=.;.6XT.$.F 0 j d : Y d m s s L T I #.` z #.m h L T.,X%.0 '.F & } C.:.J.n.z ].n.5 5 ' *.m Y Y z z ` x.z.h Y y j.T.m.:.` } :.z d * d ` O.Y ` P m m ; *.E.:.#.` z T *.&.u * z #.>.G C.j.%.].6Xd z I.z.P T.` } <XT.<X%.0 q G Z.I q f K.:.m.%._ =.d P :.5 I d :.-Xm.:.;.} %.>.` h.I.5.j.` f K.j.].5.A.Z.A. .S A.n.n..XI & j.m.F h d 5 d O.j 5 E.cXj j.G.U I.-XA G %. .'.).l + 5 & f ' z y u - v u * 5 #.d m T.'.' 5 F } G ` T z T d u 5 5.Y.C.C.=.M + x h M T E.:.U h h m Y |.*.I f d %.$.I G q F 5 5 5 + u z I z G d * j m h d P m.%.= & ` z : s I J.m.4.} A } 5.iXkXT s O.*.m u P m m.` h h h @.Y L h : * ; - i : = 4 _ f d X s z.s d *.z = d *.z.Q p , M #.: d =.` _ T s s d j z h m L G o.`.| s P k.m.*.L I d z m m.*.; y s T x y m ;.] q z } C.Z.6.I z h h h s 5 I P %.4.n.z 5 - h *.' G 1.H 5.4.5 l z _ %.5.;.x.:.T - N g g g i 5 5 = ` | %.k.Z.4.F 4.n.T T s & j P P.x.* m u - z h 5 ;.2XZ.k.k.l ' s U i &.i : P #.-.P s u M u < - < + g g u :.C.K.T 5 : u - < ; g O.=.#.` L =.T : s.8XoX=.: L j s 5 u < - @.f.T L g O.U g * m T.z.: h s & z j d ` C.:.O.u - s j s s b g < ; b m : + - s } ` #.E.v.h :.=.=.=.j *.*.m s L s : c.k.I G ",
"n.Z.| ` T.J.G _ *.5 ` m.z : ; ; ; : j 5 Y :.T Y x m 5 m.'._ I } $.: 5 l 0 z _ T 4.` & s : i y i ; x P J.T.: + + X h =.n.0XN.G } ` d d G.j.d u h M i M O.5 5 P.j.+ j y ; m - h h :.K.;.=.* P $.j.` P =.d + d d I :.T. X} _ f A A.%.} L.L.f =X'.].j.f | j.:.m h u m ` f P P $.Y - y s I d d ' x P 4.F | _ ] | 4 7 5._ F f 4 G d 5 5 j.P.' 5 x L *.j.=.s 5 s I ` q K.kX].Y.5.f f z 4 G | d y y ; i u h P : j ` ' T L 5 + z m.:.I $.C.>.s I '.0X;.I T * + u M h y i M h +.&.h s.h.T $.q 0 T. X` f d d I z.m.*.; ' z P T x.:.$.z d z & F :.l G F 0 4 5 d z d 5 = l L.n.| T.4.F ` d 5 5 d T u + *.+.a i h +.O.h l.L : - 5 *.$.*.5 5 - z.4Xd O.` s P :.j.*.; a O.W.9XY z x.f $.%.F F s h.Y u m * z _.e.} I _ F z ' ` 5 d =.x.P u : s Y #.m T O.1.] G ;.4.I N.%.I ` Y h z : L I.$.:.$.z * i y y i 5 f 5.=X6.].$.4 q f f l ;.4.z s h v ; @ < s z q _ | | C.n.k.] w P j.} $.z s & d $.#.#.: : u h h * l Z.5.H 5._ f z : u N < T -.0 L F d b g h , < u Y m < Y j.=.m.m s < - @ O g < + u I.K.L s : o : ` h.P j s s s Y +.< ; m j s.J.L h m m j #.E.T : d j =.P j ; = F x.h u j z z :.J.u - < g u g g h T h.-X8Xl.; h m l.:.f d L : - #.T 5 T =.j -.#.4.",
"T ` 5 0 ` =.} :.z * L m z x : ; u L XX4XI.s.x s h #.P :.Y.| } %.n.d F | P ` ].} | Y.%.z u m h ; 5 & + 5 s s & * 5 z *.f C.5.5 * 5 * L d : O.P i U a P 5XT.*.L L h O.M Q < u u Y  X=.l j.z d & L ` L + + h Y m h P *.5 z ;._ n.).Y.$.$.l ` I.>.P P z 5 P T d x.U i u l 0 4 I Y ; - s m 5 L f : =.m.` & d 5 5 '.m.= 4 _ 0 d d j.*.>.qXqX<X} z 5 5 : P.Y s j.j 5 $.F 5 $.T.:.` F P 4._ ` d * u ; ; < O.i - u T ` Y L L 4 P 6XC.*. X-X` z ` G } l = :.m s M i u - h U y u m u h h u ` G q } I l T *.j z 5 d &.i : + d $.m.` f 4 G m.>.:.k.k..X.X'.4.P n.n.d * d K.-X` * z 5 #.z u u m h Y ; y N h y ; ; 2 < s.j.M i i ; ` j.d T s h *.L x.j.s u P  X-XT @ y J.T.I.Y m z = F ;.x.z ' *.u h m u : I.4.s } P 0 :.C.j * m.z j z 5 j L * L j L 5 5 m.} 4 j.f & 0 P L j Y :.Y #.P.m.$.d d h m v i h : F | | f f z ` 4.l _ 5._ d 5 5 j v y y ; m :.=.Z.| A 6.w q ^ _ l z + d T >.*.m J.m.} P z d z s d f l 0 F  .H w I T : < L } G ..c.:.* + u - m ; : &.x.=.h m Y h : z O.< b m h g i b I.I.F * 5 I |.L.f s z j s u O.v.u - < #.Y L u s #.T h s T ; - : #.oX#.; o : s s s 5 z = P I.*.; i v < b U #.J.I.$.I.P.T i - P l.L : 5 z : : h s : *.&.h j < u ",
"$.:.z P G ` P 5 P P F 5 z d T :.:.m.#.` T m ' d d #.>.4.N._ F _ F f I 5.:.$.6.w 1.5.n.oXj.h + ; +.#.5 m m h h T L d I K. Xs h : m 5 d z.d d Y h h m h Y T $.P + 5 P y &.h * : O.` z 5 f 5 * 5 m z s x j.z.x O.M G.$.} ` k._ q l } %.k.I T ` f z d & * = & : u ; s 5 L :.I.P * - u : : 5 5 4 5 4 T z.z ` z.s *.-X].$.| G q l G 5 j s.T.Y.j.z : h L 5 U +.O.z z s & 5 L '  Xj.=.n.| 4 G z L s.M U M : O.+.h + z =.z.4.$.P ` I 5 & P G z ` G ` x.z.j.m - i * ; - T U u 5 5 u 5 m ' F j.:.0 ` T. X' ` h =.j y x T s d 5 * + d d T >.z ` L 4.} $.l 4 =.T.*.+ 5 5 $.:.L F z d x * 5 s.Y ; h - o u h ; ; g g i u h - ; M s - + + u ; U O.h s Y m.Y d =.*.d i O.Y.I u : P T f l =.$.d L z x #.#.+ z z d x h 5 z G ' j * m Y 5 h Y m 5 d ` } L 5 5 x.*.5 z s 5 5 z j $.j.i s s * 5 h z z Y O.h + z P _ _ f 0 j.5.$.>.` K.K.z L 5 h h g m Y d L m.} =XZ.[ | 4 9 N.Y.Z.5 d * : d Y 5 Y d 5 >.*.} z h O.I.` L C.k.N.;X,Xx.P =.$.5.n.n..X,Xx.T =.Y #.d s s d d s u < M + 5 L s.T T O.z.T & d F 7 6.n.Z.C.'.T P d 5 j d u ; : u s x - j m : m *.s.m z : s u z 0 j.=.- s u x $.I.XXF d P : ; @ @ ; &.O.O.Y z P z * Y h 5 d F P :.} T L P d s o s b u u i h ",
"` ` G z P I %.].j.0 l z $.| $.j.Z.Y.>.:.z * d 5 5 m j.].;.1.4.m.F 5 5 5 f I 1.;.Y.l I qXm.X - h +.M h s P 5 m x - - h O.O.- T XXm.T P ].Y.x.:.* M f.` * =.m.F d x ` M f.j.y u ` z 0 = =.d *.s 5 T < h +.; y N M h :.:.$.;.G 4.k.l C.<Xm.*.T l I } P I _ G | $.$.x u h *.T L h u z P F I q 4.].5.+ 0 ^ ]  .^ ;.[.2.H A.A.5.n.k.z + ; h.-X| f : 5 s T +.m ' >.G d h z z * : } I.` } I G z z ` Y J. X'.*.h h u M J.#.$.} l d I J.$.} q 0 f L z ` +.5 u u *.j.u s G.m.5 s * : z h m.T.4.:.F P x. X X:.*.z.XXh < O.=.z I d & u z j u h : m * & 5 - : u 5 5 $.N.H u u x z d j.m 5 O.P : s O.O.h y ; y h *.s.Y h @ ; 5 s h h h a g , N M T Y h m.|.m.$.d : * : T | x d } J.oXC.5 K.x.* 5 5 ' K.| #.d h u m f d z 5 5 z 5 u x j u i ; h Y P : z :.m.:.P s y h M T m O.+.Q i i M x s x Y d T #.s f 0  .l + L z j u x #.-X-X` : h h m U m :.*.:.m.P P j.$.4.A._  .<X<X5 z Y J.P.d ' * z %.} ` d * s m :.*.d h.c.q =.L.z F $.T I k.G ` K.oXqXJ.T C.` z T s d Y v Q z.g d #.-XT.P J.-X:.0 =.I } L.-XL.f F J.5XT * s L s + h ; ; d Y =.m + U G.O.; j h m j z _ [.T ; b p.s.z T C.k.f * s + < N u b u Y L = x.T f -.z d F ` G P $.m.=.=.l.Y b #.s.*.j h m ",
"| z $.z f z d $.G F q _ 5.'.T f q q :.m.m.x.$.F L h L P f l | <XT.I z : 5 L.=X6.] A _ %.L P #.O.M u h u L P J.*.u s P ; : + Y E.z.m 5 P T.j.` u j h - : I F } L 5 s m h h M m.G.d 5 F x.F h * #.T i N Q i p v i M y * 5 z _ x.C.f 5.x.j.Z.l f :.'.| f :.*.=.|.P.L Y Y &.U P P Y ` .X].Y.=X].n.H D 5._. .5.A.Y.6._ 6.N.C.;.l 5.m.a < h P $.n.j.Y y O.h . 5 n.'.` f u h x d h : ` :.x.C.f f z d z n.,X' 5 : s *.*.G n.:.;.F 4.K.Y.Y.%.I.J.*.P s Y ` h h  XqXu s ' 5 5 5 d ` XXm.F z o ' *.L j d *.s.=.d ` h h 5 5 f :.*.h 5 *.s.O.m ` h i h u h s E.:.' I A._ 5 s j : * :.' I #.s d ' O.|.T.+.u : T I.].z.m m u j.s.T Y y + i @ ; ; *.I ` j.j.=.#.j T L : P z.s s.z.j ` z 0 F =.z 5 m :.qX,Xj + u * * z J.9Xz.` :.Y h u : h M U - X u + P J.Z.:.d + i v i g u @ ; m U *.z.m Y ` L } ` + L ' G e.2._ J.' z z d d ` ' z - ; T v v O.` d d ` #.* d d _ Y.Z.G n.m.5 + u *.5Xz.m.` =.m.:.:.* 5 j + ` T s T | f d G f z z = C.'.s - u d $.` = s * 0 z f ` P.Q W M i *.XX'.C.0 } P = 0 .X.Xz :.,X:.I h.5Xm.5 5 J.l.s o u L m j h m < ; h u s u s ; < < j _.H * U p b z d Z.Y.5.%.z 5 ; L Y b s #.J.L z P.T.oXZ.:.x.c.0 G 0 5 J.j.h O.*.g h z T : P I.",
"m.z j.j.0 5 f G } l l _ ;._ | l + G m.j.6XmXh.T ' d 5 z n.n.} C.'.z I j.G _ =X).G 6.} z $.j.#.Y T s * u :.T.z.:.5 ' F f d I I d h a ; ; m x y M v - - M z L ` 4.` 5 u ; ; h U Y Y h h z z L ` O.m h N h y ; h a a h m #.d f ;.G l k.:.` ` z d m.P.5 : P u s T : - h +.Q i - h P T  XoXT } 5 f l 0 ` 4.T 5.j.l m. X} } T.L d z x a n Y F f l P.G.z * d P q q %.H 5 F s.|.z m Y P d $.*.f 0 z } 0 h m 5 f } G T $.Z.n.T _ | l l I : h j.:.C.j.=.| j.P d L =.#.z $.z d s I ` :.Y * 5 x m G.8X:.s h + ` :.d h ; h z T L h #.` ' P h $.z.d I ' T + j.<Xx.$.L * d z H l l P P.n.>.4.:.5 L & 5 P x.I.#.d j.Y.>.z u : *.P.I *.T G n.} I j.F s h m.j.z z d z j T =.Y 5 4.L G } ` 0 f z 0 d z h ` h 5 h z j j.L :.m.#.*.m.m.s & x z.9X|.i + m : m *.#._ 5 ; m M g y y u s s #.m.j.z ` :.:.Y.>.d *.I.Y.~. .).).Z.L.$.d l j d m s + ; g y y y j h s.` #.m.:.| l [ 8 l n.m : s h z L 5 P m.L 5 d m L f T x.0 = _ | ` s :.L.n.I = =.#.+ m Q m =.$.| %.4.| ..$.` G.*.@ W U U L z =.$.F =.f 0 | $.5 P x.=.j.P j Y T * s s & ; ; J.XXl.Y T < ; u < L O.L h h ; T Y.k.: M i W T } [.C.4.C.x.Y 5 Y j.z L Y Y m : s #.L.} 0 Z.$.q } = & L $.L ; u s Y z : o z z.",
"T G z } F f f l T 0 %.=X.X5.4.` q m.` z Z.:.` j z I z 5 z } L.4.P ' ' #.= 0 n.'.I ` :.T.T.m.m h Y m j : P *.d d z.} I :.:.T.'.j.m a < ; 5 i a a N y y m.oX=.5.L *.T.z.m y 5 5 + Y u d #.j. X4.5 d M y ; v h +.Q < + - : + z :.} x.G | Z.=.j.z J.Y ; O.O.h ` *.x 5 m y - y Y O.O.` qX:.5 d = = ` } P f ` z z 5 d h 5 z d X * 5 : a O.j.I q 0 * + 5 * j.Z._ H ] l | %.d :.m x G.s.u z.:.z + f Y.4.j 5 z C._.;.} | I _ } Y.oXL.J.#.5 h z j = %.j.G :.l = & j.uXC.m.z x Y d *.x O.5 x ` m T =.` L h u m m.' y ; y 5 s f j *.' ` d d z = :.J.G F q } 0 5 P 5 +.s q _ T f $.m.` z T ` '.qX:.d =.j.#.d * 0 l F z P d ` } q d I '.1X.XI } * 5 L $.*.#.s s #.I  XSXj.' T P F 4.P P F = 5 _ 5 h N ; 6 m _ F F 5 5 5 5 z j x s h u ` z.s.m 5 5 m.E.* 5 d L O.h &.h &.z.s 5 L >.j.z d Z.'.;.l z 5 s F G ] ^ ( S B.;XN.q $.=.z 5 d m U ; ; a m - * s s.:.Y m.Z.A w w | n.` O.G.m.*.z 5 ` j.5 z u * z z Z.Y.5.4.} 4.z 0 K.Z.] _ 0 L O.- 1 g h O.4.%..X,XG l F I : < g p O.T & 0 j.=.` K.:.=.P j =.: f T j : : 5 5 s 5 *.j T x.s.P.#.*.Y s b - + h Y U *.g u s.8XL.j g m L I C.;X;.j.T 5 T Y s f z ` o s =.i + & L =.` 4.j P G ` 4.=.*.g h y u j #.m.z 5 #.",
"_ T $.` q ` K.T.F * L K.T.z.:.d I $.5 d 5 * x.T.} ` F q I F %.m.#.` z ` oXZ.= f P z T j.z m.-X$.+ P m.5 + - h s h d z L :.T I *.s m ' s u ` *.M v @.M O.:.L $.5 d m.s.U y - +.L 5 Y J.j.I :.5.| #.j.F s h h.m.- M *.h j 5 * f f ` P Z.} k.'.z ` h z I P *.L d #.j.m + i M G.9X4.| 5. . ._ H 4.Y.%.` 0 d F P ' d f P j.m.` 4.P * x h $.Y.} z ; < u d =.5.;.5.rX5.A.qXz X P i 5 5 u h >.| f = _ 4.q 0 q ;._ 5.=X;.T j.;.T G $.n.P l d 0 0 5 P G 0 _ } l $.J.I.T.m.L : s + s ; ; : y h i ; 5 m T m ; - *.#.i y u L P s =.` I j.` 5 4 G ].L.l P j.| T F ` z 6X XP F P F 5.$.0 + 5 z -XkX} A l 0 4 P G 5 o 5 I _ 5.I F d d T P I >.= l d * d I 5 L x X *.j.P +.+.:.j.5 = * ;. X X Xz.' : L T ; x :. X$.= * 0 F z z *.` * j : * h z } d + ' >.j j z u s *.P h m T.#.* : } z.z L j.*.L 5 d M h : * 0 [ H  .4.4.*.F 5 5 z 5 5 P T ; < s m x u * h v p - z ;.] A F >.` Y G.' l T j.:.z z z z } 4.z z ,X.XF T f : d T m.k.Z.q m g 1 2 , ; z n.4.G 7 = H Y.I 5 g , v z.h.0 d s z Y b j s Y L L L m.I.J.m * 5 & 5 * L O.s.O.+ ; L =.m h ; - < : L v.4Xv i g +.h g h L x.| [ 2.] G = * 5 d ` q f 4.j T s.g a - h s.s.` $.L 5 } XXC.T < < i ; d =.I.j :.I.",
"5 z L d F 4.j.} s h s P s.m z * z 0 l z P 0 0 q f z F f F G 5.n.` d 5 m ` P 5 F I x 5 O.O.:.*.L *.4X:.s s M s X 5 5 s + + ; h P m u P l 5 m.jXoXM a i T 5 $.>.I P s P T s.XXG.- z j.m.u 0 | k.| I z 4.6XP.L 5 m Y G.*.m #.T 4.P d z P ` C.L.F = *.O.m.*.z 5 & n.J.L h g a m ` ` L.}  .;.| 1XY.P %.| = 0 L T I d s x j. XZ.kX%.j.m.j j.>.L Y ; v j.*.' I.} ] N.| 1.'.T s s.*.+ 5 * & d f 4.Y._ l A.n.5 $.I 4.} q f m.m.` f I } I l = z F 5 d q 5 l w q n.` z J.5Xs.* ; u * - y ; ; y h i i i ; a y - * o X - T 5XO.h ` u z m.'.f f %.L.I d m.` l f 5 q 5.Y.| d F F G Z.<X'.$.` } 4.` H [ | %.5.x.` ` ` G q ] | l 5 z 4.m.x & x f ` '.L d L d L $.*.T _ G m h z F ;.C.;.n.Y.Z.*.I z : u : s y h ` ` F P I ` =.5 :.m.=.L m m T d } G n.I z j.s j * h F j.*.L -X` z ` m.m.x j &.M m * : ; y *.I ` ].q.l _ ` m.m ` ` d z s ; i m h s z.C.:.x.m a N s.d z A._ & * * d f | 5.4.C.m.x.` & P ,X$.: : s 0 z z d z L :.:..._ I =.Y 1 y , + 4.5.H ).1.w I 5.F F x - h s.j.` j u + L b ; - + i s L O.s.8Xs.z P s L 4.#.m j i m h y &.l.< u U d.m ; < v < @ @ - < h : I m.}  .V.6.} 5 z Y F $.1.| = $.$.Q u < ; - ; < s s * : & T -XL u @.Y O.h d j d z | ",
"5 ' z.` $.j.=.L x i M m j 5 z P F f 4.Y.I.z _ ;.G T _ } %.0 _ _ f s h ; u j h h Y O.u u 5 5 d 5 :.E.5 Y *.5 + z O.L u - - u P.oX:.L n.| = 5 :.T.T a h h s 4.I.j.I : h U T z.P 5 5 u $.j.l 0 F = 5 d I ;X-X* x =.$.T.' * P m.T.m.*.5 f z G ;.6.l L h J.-XL #.T.T.F :.J.h M U : j.x + = I _ I s u 5 f A.N.q F } F u 5 m ` l _ l L..XP 0 z P u a p O.s.*.T G z w A 4 * #.P u 5 T h s d d #.} x.} } ].C.F m.J.& = 5 z m.P.P q T 5 q $.,Xk.F I 0 f =.| H I } l * f j O.m u T T L y : s m I h y a # a v +.x * u y i M ; m M 5 z '.B.D 0 w =.:.+ * 6.C.* L F %.;.& * 5 5 I K.Z.:.G f ` & d 1.[ V.=XI.=.` ` Z.n.H n.G l ` z.m.h.O.Y T 5 0 '.qXj.P.m.:.C.n.C.1XY.Y.L.G 6.).;.] 6.m.} o 5 z z * s Y s m F ` | T _ P 4.P.} oX} d *. Xm d $.=XC.l } T * s j d 5 j.z $.L.q 5.tXn.* I U a N W s l f 5 } z q %.I 0 G G s 5 *.=.=.` s : h U i m N.N.Y.T.U - h *.: :.C.q 5 : * z & %.n.T.m.m.,X} 5 L L 5 5 j s : L j x.P : } = X l I :.l.m O.M j k.I G n.C.F ] k.Y.I ` * 0 C.'.T.:.s i : u g h h h m u - < Y Y x Y d C.6X` s : j U j h @ - # 2 i M n < O O < + Q &.h j T L : ` .X .w } T '.-Xz f k.5.0 0 5 =.b v ; g h i T : P ` #.I.-X:.a 4XoX'.m O.'.q T I ",
"$.} ` T $.=.F d T *.m : 5 : T :.I I m.<X:.j ` 5.` _ } Z.4.I 4.G 0 : 5 y T L * 5 5 h *.s u L j 5 & z #.:.#.` d P.*.: h y + h i s m P.].l G : s.W.f.v y u T j 5 z d h * U *.y ` T Y : L z ` -X=.h : s k.n.%.f j h m m.*.j.' m.x 5 * & } P.x.} Z._ 5 ; & P z =.C.%.= z m m U m z.j.h h ` >.I d h h d %.).1Xx.$._ F 5 h m d 5 5 q _ G G z I *.+ # , @ f.qX' d %.} _ G G j o m #.=.z I P + P h.I q ` I.T.P z 5 z z.` L * 5 z j.m.x.m.z j.=.:.T.P j.qXY.%.5.].l } m.` u ; s 5 ` $.- y *.6Xm.=.s.; - x u L #.5 O.z.j y N i < s ` 5.] 7 } '. X` P F n.7XF z F k.7X$.* : 5 #.].m.l %.oX-X5 & S w ( ;._ j d d I 5._ I T :.x.=.5 O.T P.:.l = f $.:.L d T j.* F 5.| 4..X5._ |  .;.| l G l T.z.m x x u : z.I.:.T | =.C.m.:.5 L d & I P j._ %.6.w _ G 0 j s P | 0 : u $.m.]  .).6.f #.h < c v O.$.G = 0 P I $.G _ l 5 5 j s u I d * : - + X * ;.5._ 5 x P x.` L z.C.5XT h s.m.H ] Z.Z.G x.:.d P j j Y s : j Y $.j Y T &.L z & f I.z : L #.x.m.$.f f ` %.4.f 6.C.l l = A _ G $.m.s T u j m L j m Y *.O.U L : h 5 =.T.-.s L l.` #.Y Q U +.n c ! p v h m + O.Y J.T.T s h.L : F T f 5.z : P #.5 C.,X} z L s h h m g < g L ` j.|.C.z L I $.< a ` | s L j.d C.$.",
").'.;.;.j.=.s ; M T h j : d ` L T T j h s 5 5 * I T.4.0 I l 4 4 l z s i i u 5 d : z m s s.` x 5 * j z j.9Xm.f *.#.5 s Y j.s.j.` f.*.O.j ` O.m g N y i 5 j L q z P L L P Y *.M M u ; + - y x s.M j =.| | 0 5 d s s.J.z.E.s.P ; y h y m s.T s 5 0 P U + u 5.k.z f T z h j.L Y m.Y h u *.x d s m Y P =.| C.*.x d 5 * L z 5 P 5._ n.=X_ z :.J.+ @ a @ - j.&.d ` I w 4 q d L #.d } H  .n.5 i M P ;.;.= 5 } 5 X 5 #.L j.L m O.s.z.h L 5 o 5 j.C.$.P.-X:.l $.P f -XoXm.P ; x d L z + P J.qX'.5.:.z F T 5 d P X : ` U v , y i g i 5 } I G x.a < z.P I z d 5 n..XN.].>.5 X & -XuXP Y. X_ * F [ q.~.A.0 u * 5 L.0XN.I | '.9X-Xh m y +.m.| 0 z F P d f G d : ; } L ; @ j d P G } l 4 _ q.[.Z.z * h M h :.-XY ' #.L O.P 5 G.j.5 d F 5 C.} 0 4 q G q $.| z } :.f s i M M P d l I d h h ; ; a 5 h n.k.=.Z.Z.Z.1.F._.j.T Y u : T x.} j.+.+ + T T.$.5 5 z L G f Y M Y Y v y +.s.;.6.;.f G L s Y j h j j d F |.J.j.} O.$.j.h.#.z F h.s . j } =.I.F z F :.I.:.= & s = * f ` j F T #.F f & P j.z P h.z z T j o : h u P $.z j 4.'.=.T 5 z $.*.m m O.x - L =.d s u : L x.j.. : O.f & z j.|.L X j s $.j.Y Y u - g M g Q u - : s j.oXI.f j :.#.g , s P - L P P L u ",
"4.0X'.].oX:.s h i h h u : =.n.d I h + 5 P z.:.f l I F I ;.0 q q | j.' s : z T.XX4.T Y O.z z G.:.$.' q n.j.f } x.C.P 5 d z. Xd *.9XQ g m d #.Q , @ ; h h m T $.,XC.G F d d : ; i - s *.s.: O.J.z h L 0 ;.A G ` 5 s 5 s h x u u * m 5 : L d j ' z *.O.< m l 7 4 _ 5 5 5 5 =.:.j.x P M y - y h T #.x.=.0 q j h Y T P | P z Z.f n.<XC.* 5 d j y a i @ ; ; x *.P j.5.;.:.:.T #.d _ ;.B.C.j N @ : | ] I 5 I * $.Y m u : * 5 u 5 5 * j j 5 z 5 d z L I j z j F z :.' s * s } } : ` :.| n.C.w & F Z.K.} 5 m.E.z u |.z.&.i < ; y : s z T l F - a h L L :.F 4 w B.8 } } d d & 5 z $._ F :.T f G ,.q.q & u L F l H pX4.f $.z j.x h U G.Z.m.G $.` 0 G Y.j.5 u T 5X=.< y h L F 5 ` | l w q.F.C.I s ; y ; *.=.d h i i i s j Y z u L ' 5 5 ` *.$..X5.0 4.l ` %.4.C.Y i n y i y 5 ` T i - i g - +.:.F T ` P q z l 6.;.| ` z : & P m. XP.h ; ; z.f.j : 5 z f } C.Y m h h N ! a #._ B.] 5.K.z j L : - - : #.j.=.L h j Y 5 * L P & o + 5 O.$.z $.h.4.j.x.P T 0 : f s L x.T & P m :.P.} z T I.T.0 * : & & P m : s L 5 + - j x.G l %.C.=.} P h s d F z d f =.` L s L P l.#.* s #.T h m.XXI.m L T T : - h h g g i < v U i - ; : 5 s l z $.x.l.g @ T K.T E..XC.m : ",
"m m.$.>.j.4 4 _ h y M x d P :.G d d j z 5 L $.` G K.Y.T $.n.%.G 5.'.z d Y 4.qX].j.F P P =.f } T.m.` f ` ;.I I $.0 $.j.d ` :.* 5 h i @ Y ' d M 2 a ; < T #.d I N.A.5.0 z z m j P #.,X,XuX;.| :.L._ * w  .X.1.q f G | n.T.F j.n.l 6.C.& G Z.m.} ` m.f.i h ;.} L.Z.#.5 & O.T.5 ` T m f.j - v *.f.m s s.:.:.G.f.' T 4.'.F 6.-Xq C.5.0 d d : z i N i i < h Y #.:.;.n.Y.j.T 5 d d f l Z.4.z < a s f _ 5.z 5 ` T.6XK.XX-Xm.s P *.x O.:.L Y s.m j m 5 Y #.s L P =.L & 5 z z : d 5 m.,XH S 6.A.l $.J.:.: s m.m.P x x.T h #.J.z ` '.].| _ Y.[.} _ x.z.G Y.| 4 X.r o. .l f 5 f Z.} 5 d P ;.P | q ] 2.w q j.*.z 4 * 6.* o 5 *.m.u : : s I l l } z & 5 z _ ` * z Z.C.m h :.$.5 z 5.4.Y.] S 1.P ` s.u u 5 h ' :.T.O.i s : u *.` 5 ` d 5 $.f I :.$.} l _ _ %.Z.Y.n.Y m a @ g h 5 T h 5 m &.g M s.O.x * s d h d L L = & z P F | I 5 z m Y U N a < i y T L =.P.I y g h i y y a I 5.] l T P F I = L T L L h < u u u x ` s : d s & - $.m $.XXP.s d z.} } $.f | T I : T I.&.#.x.m Y L - j h L M s u d o & 0 j s O.x.O.s h $.L.} Z.<Xn.L.T.| f = T P | P : : h g o ; u : - : m m L d j Q.J.f.4Xl.m h u g , &.W i i.P.m Y u z m : * 0 =.4.z.x.; u z 4.$.=..X'.*.- ",
"O.m.L K.-X%.F T.O.< j 5 5 d j.=._ _ | L.%.5 ` :.I } T 0 ` } Z.].1..X5.s  X>.5.<Xj.q ` I ` 0 *.C.= `  Xj.$.Y.k.d d | F f l F j.` T &.h s * h y a O.; h m.Y 5 l ;.[.1.N.F P #.& Y *.m.4.| m.;.m.| F ;.1. .B.,.F F & :.=X;.;.T.N.| N.).1.l ;.=.G L ` h + 5 0 4 } ` ` =.E.#.j z :.P 5 *.M < h i h u 5 * G >.Y h z d | | ;.'. Xm.=.4. X5.` #.U y y i M N h 5 z F | k.'.6XL 5 #.j.l | q * u < + ; z ;.:.j z.P.d j L oXqX:.& z >.z.*.m.XXJ.` O.O.:.Y T j s =.j.#.* * m.qX$.L T.I :..Xn.A.tX2Xk.' j.- + - x j ' z s z & T =.z 5.I.,X,XC.G Z.C.T.` s q.w 4 A 6.D D e.N.;.z I ,XoXT.'.m.l q | l 7 7 ] 5.n.L 0 4 A Z.%.5 z $.z.O.h i ; z } G I | | & = j.6X:.0 } C.C._ l f = f = _ 6.A  .H G J.` * M * o 5 d P 5 : 5 s d #.#.:.m.` j ` d T #.5 G ;.L.I q  .A :.Y ; a h u 5 x h i u s.P.5 m +.h s 5 s u 5 s.h.I z } ` F I C.f z 5 m.J.p a i v - Y O.d L U - + h P h y y T L l S n.;.0 5 d 5 } x.T - ; h m g g x.J.h L s & ` m.#.$.z j z j Y m.'.x.h.T ` T.'.` : > > : T j j - + < T h U Y O.j : z T f d x.XX$.I.P.` T f 4.=.0 P $.f G k.rXN...H f $.*.+.i - - s z + s : d j ; m p.h P.U.l.Q , , g b ; + m G.x.< j h s P } $.x.#.L + - h z } f z G z : s ",
"j.,X=Xx.'.,Xz.=.m L x P d f 4.5.0XpX_.N.)._ A.1._ l 0 F l 5.N.Z.l k.%.4 z f I Z.j.T d T :.5 z 5 = >.C.#.T :.} _ z _ ;.l 0 I ].m.G.Y 5 4.' P u u v h T &.u z I.vXwX/ A A f ` m M Y z d 5 x ' L z 5._ n.l D.`._.x.& 5 L * x.L z f l | N.q 5 h s j j x #.:.d } T.m.:.XXI.h * #.C.I z m +.O.a h z 5 ' F w G 5 m } Z.1X^ ] } $.L.Y.].Y.I I ` h U u &.P.Q h P z.} T.Y.n.Y.= 5 T j.x.=Xn.P z u * P J.:.I F I L ` _ z ` Z.Z.l f | 4.n.4.T =.s : j m u X u u ` m d * * ` } w d ' s d G l q ;.:.d z L - y ; X : L :.$.*.:.z.h 5 #.h h O.' l T h s 5 d k.I H B.$XV.,.~.).Y.5.G T T.qXoX_ | G l _ 0 4 | C.f d 5 q H H | _ z j *.m.u - u j.7X,XG F _ q F 4.Z.Y.4 5 *.[.F.I 5 I 4.%.5.n.w G 4 0 } 5 s s * * P $.5 5 & L :.l z `  X XK.z.T 5 5 d T :.G _ l G _.N.K.qXu d ` ;.H O.+ 5 s 5 j h h z m h - + u & d ` :.q ` P * 4 G L 5 ` J.m Y Y U M L z L $.L p # h x :.h.h Y m T  .;._.;.& o s J.*.m j - - s.i : d d 5 s L : 5 j x.Y =.x.5 & j 5 T =.F =.P T j.P I C.} | } '.,XC.4.s 5 P.CXoXL $.x.#.z. Xz } :.T z z j s 0 * j P ; ; s Y j.I.Y. .6.%X[.6.T.P - h :.=.s s s * Y s h j s < < < g v - + g u L ` P 5 L s T j 0 z G %.8Xm.: < y s = 5 d P k.4.: s ",
"| n.j.5 z :.` s : h z 5 5 j.j.G ;._.6. .0X;.^ Y.%.l _ I.P C.,X=X1.C.I d 5 G | I d 5.` I :.J.m.d P 4.d * =.T.x.n.l 4 | _ 0 q 5.#.5 * q  X X:.d J.*.h +.z.=.T $.5.A.o.6.Z._ ` h M T h h :.P ` x L G _ l q :X2X=X'.P.J.=.j O.s : L z l j.d m M u u 5 I 5.n.j.` z.m.P.j.s 5 & s 0 d 4.J.T @.- u P F P 4 _ 4.z ` I.7X6.] Z.| f 4.T = 5 _ L m j j m M *.i h h.` z l G L.;.z 4.>.=.l %.k.I 5 5 z j.j.:.z 5 j #.m.P F Z.;X=XZ.| 6.C.Z.j.d Y *.u m h i i y s Y : s j d F ;.n.>. Xz.u n.` & z $.P h U h m 5 z m.m.h d ` *.&.x P Y : * ; u z f u h j.: d z H ] X.V.B.wX<Xn.I ` $.:.j K.5.l 0 _ | ;.} | -XT * #.5.T n.H m.Y :.P.T d u z } |  .G 0 _ ].Z.P F _ f 5 z 1.[.=.5 z .X X'.j.j.` z z x h j *.T j l 5.m.} f P  X:.d P '.4.:.9Xm.z j d F F q n.n.Z.).6.%.>.z T '.B.;.h h m.*.x s L d Y T : u Y 5 5 | %.;.q z ` d f f d 5 d ' ` x O.Q < Y I d j y , < 5 z J.j.s h *.P.'.6.4.q 5 ` L h < u U L < T J.L T j = P } '.x.d s h s oXE.- m T 5 s j ` $.=.q = ;.Z.5.} F j.uXuX,XP 0 4.4.L I h.j.x.I.P.d f d f L f z T 4.z 5 l.s #.oXoX:.k.f w A.[.[.,X} 0 P T x.=.P u O.z : d T.T : < - a a , O s.|.m.T m.,Xj.: 5 L T =.x.;.} l ` m h d s 0 T z F [.n.F F ",
":.5.q = T ' : d :.` P * s T C.>.5.} l F 6.;.f } _ ` s s 5 F ;.N.uX6.* f T _ _ f } =.4.| ` =.=XI.-Xz * z $.5 #.} I l _ Y. .k.:.* u y x Y O.m d d #.m ; O.*.* 0 I  .N.;.5.j.m m ; h j h m.'.$.4.I f _ I z l [.].].j.cXT.h T d z J.:.d #.: : : ; s :.I = } } 5 z 5 ` P * * d >.I.I.5.m.' s j 5 d #.z $._ d d * z 5 5 P  XK.G '.;.4 4 } I * : + ' x.N a s & f ;.I I <XL.F z z 0 f 0 = F %.z 5 * 5 : j ` z z >.P f %. .N.Z.H A 0 P d : h T O.x * L *.s P *.*.XXK.;X0X_.Y.$.:.Y u :.:.z T. Xz s ` d } = l n.m.z P z * y M 5 j L d _ F l P I 5 T j * 5 H H G _  .1.n.} %._ K.' T F z _ Z.Y.q '.n.:. X#.O.qXP.z _..X5XO.* j L f : 5 d w w =XN.I } >.j.P 0 d h P :.0 L I 0 $.=.z *.T.j.d : h s j :.G.d = I uXiXm._ x.| f f d 5 5 m.T. X$._ P G 5 n._  .A.k._ 4 q P I G *.u ; ` J.m s j.=.d 5 : P z.0 T | | n.F ] | ;.C.=.L j & 5 #.* m U m : * ` O.+ x * z m.L.;.u x L z q 4 q d d P h 5 i 5 O.M m z T h 5 * } '.Y.| f s = P K.P.#.L - : ; : *.*.` P   G .X'.} & d d z I F & 0 x.P s $.P T :.z s P.l.s - s - z F T s T h.; O.*.P.J.=.P T x.c.].n.d N.'.} G q I.x.T P P %.'.h.L h h < @ @ a m l.$.P ` l.x.5 : J.` :.C.C.k.q d Y z =.x.T.-X*.L K.-.f I ",
"$.j.} I ` I 5 $.-X-XoXz.=.I.m.| I _ z 4.>.` F = k.J.&.: : I :.5.N.} q n.n.` & I  X4.` T 4 5 0 ` j.P #.d z z *.:.:.z } =X_ f ` T p h h 5 : T f 0 J.P.Y G.T ' F n.<X5.* G z m u h y z *.*. X5.| I _ G 5 5 0 T :.j.d l L d 5 u 5 L Y Y s.5 m s & L m.| l n.$.P P z m #.m s d h >.T.} f 5 T oXE.I : z L : * u 5 * 5 i z.O.4 F I d G q + + : d d s ` v y z _  .[.%.` <XC.4.:.L P ` F 0 6.I.>.f P ` s I.T.d l f P G + 8 A [ H | G ` T 5 T } P 5 * 5 y h Y f.O.` j.=X .q H G : s 5 * 5 d n.m.q } Y.].C.;X .w ' + ` =.d P : d Z.j.` Y.Z.5.G q + h T : 5 ;.Z.L G  .q F $.n.%.* = I m._ 5.].].]._ 5 5 s 5 z j.L G ;.;.` v h j.' 5 z m.5.4. .;.| j.#.z h u s z m.d z L :.SXs.: 5 h - ; m j s z m x x h 5 0 z  XI.& f z $.#.$.P d 0 T J.;.} m.n.4.` l H l 5.<X4.=.$.$.| q d y i G.XXs O.P.:.5 u x j.} ;.I z P :._ l w H n.4.m x d j.F 5 s m #.h : ' T x m ' 8XC.I d j P L d =.5.Z.d d h u h m Y =.` : s h.j + $.].=.F q 0 d P oX4.d P L h < h < h h *.j } j.` $.:.F z } P f f 0 d =.P s z P s d * j &.*.u u s T x.5 $.} h g - u - u m d : P 4.5 $.K.:.` _ .X-X=.F 4.:.T %.| d $.h.` Q ; u g s j + - s - j : *.l.L j T :.4.$.G '.J.z.#.$.:.4.h z.C.-.J.L.",
"P Y._ | | q z ` _ j T ` 5 z F n.qXqXn.:.P.#.s s H Z.-XO.h T :.x.z d 4..X'.} f n.5.%.'.m.I ` P $.+ d K.m.m.:.* x P i 5 s & : y *.< ; *.Y m j.} P l 5 s s.h.T _ 5.L.} G ` Y s * P h *. XC.P I H | C.Y.G G $.:.T z * * f d f z 5 & 5 d *.*.* 5 s *.:.P.-X} ;.} | '.1X0Xj.h Y *.5 m :.5 5 ` T.I.$.5 5 z 5 L ` j.O.P h h o h jX$.+ F :.| _ %.f 5 d * & z n.[.] ^ %.l ` l ` m.K.z G } _ _ l z =.P m s *.j.F P Z.| I A A r  .n. XP ' -Xz.} k.;.n.m.z 5 a i +.m * m.K.4 & %.j.m 5 u 5 f d l f 0 P $.5.%.0XZ.n.*.+ F } F G } D ] _ q n.<XB.Z.=X4.: : u s z 4.k.} V.N.I m m F | l G _ z ` f } $.+ o s 5 Y m * P j.G 0 ; - h L 0 z T O.z ;.n._ >.L *.h y ; s : + h I.h z 4Xm ; h h h v T m P Y ` Y P d u d d d T =.d d :.z.d L T T F z _ 5..XqXG G F n.} ;.'.N.K..X4.| :.' 5 h m.j.=.|.5X X'.T s j.j.5.1.m.Y z = ,.F.[ q s : m.*.j.>.L :.h #.L ; 5 z #.s =.' G T.4.h ; 5 ' n.n.=Xj.z :.O.s  X XL.K.:.I T.I.& 4.C.5.5.k.f 0 4.m.z x.#.Y O.&.Y ; #.O.#.: x.T.F I $.d 0 ` J.F T C.oX:.5 j.XXj.T :.L m ; g XXI.d P.Z.G x.h.*.< < ; s ` 5 : z j.d ` C.m.T f d Y :.XX` =.| 0 x.m.j L Y T =.O.< u + ; + u s h s h *.z.: s f $.C.F f } } T * & f d : f z C..X4.",
"} %.l l f 5 q T z 5 d 5 d ' G d *.4.j.m.#.5 T } 4 w n.=.g i L 4.n.;._ G 5 P .XY.Z.L.Z.C.j.F } x I T T.uX<XK.T M < i *.I s Y m y h i u z j l I | L._ + y h ` Z.Z.Y.n.d *.h & :.>.I ` j.} + G 5.%.F q z ` 5 F T F I j.;.'..X5.5 5 5 : ` O.m ; Y J.T x ` z f l w 5.n.L.:.T P =.L i L d L z T z $.` 5 #.m *.` *.` j *.h u d J.:.z d :.n.I 5.I $.z 5 >.Z.F.V.[  .=X4.l q | m.:.+ d q Z.n.T d J.Y s * L j.F P I.J.n.'.n.Z.C.} I.T h *.T ` ;.w ;.C.d 5 m - T M u u T 5 G T.x.P s d d } } G 0 z j.5.G 4  .5.*.z * d l 0 4 1.2X^ = 8 H q.H [ ;Xn.f ' h 5 & 4 %.A.;X| P 5 h T.Y.q _ ;.I m z m.=.5 m 5XT.O.s h ` ` $.$.Y ; - + d m.5 Y ` H } :.F s i ; y ; ; O.j.j.O.u x #.h ; i @.i g a h h u L ' s h d z * x Y s j h * :.j.P G >.T * 4 F L.` I } I _ H Z.Y.4 l ;.l G ` z 5 o f j.*.f.=.z.-X` : ` T 0 6.T.U P  .F.`.sXn.P I >.:.4.'.j.5 O.#.s y *.x.I u h h z C.J.d + + d _ ` :.*.L z.O.+ j.j.| L.L.} ` ` f =.` f T } 4.G 4.c.=.:.s.< U U.O.h &.*.#.s O.#.P $.I s = : T P j x.x.d * P J.L m O.s u u M x.L $.4.| 4 0 : m W u j m s d T z.F %.4.T j.:.:.; ; ; h f =.G =.Y L s ; j *.T #.` u ; L T ; s s O.O.g u g d T oXz.& x.` z m.P s P s L m.=.} T I ",
"n.| l ;._ d 4 f z I T :.d *.I.u s s P P.$.=.Y.'.l 4..X X*.+ * ` n.n.z 5 & f z.=.z s 5 ` *.s 5 ; y h G T.=Xm.+.; M y P ` j.O.; N h h :.:.j._ 1.Y.k.} 5 Y s.#.G %._ 5 z T m * f n.K.I * * x.j.:._ j.z 5 s P 5.;.l ;.k.%..X=XK.:.| z h u m M Y +.x Y ' I '.%.f  . .G 4 x.:.=.L j h h h m.x.q P ` f z L 5 5 * & P j s s h d * P 6XT & q F | I } 5 z T.%.V.F.,.] ;.n.=X$.j.j.x.T | k.=Xj.=.P.8XI.h u h 5 P ' =.m.G ].Y.` 4 f j 5 m O.h 5.C.w l | G x T m ` m h x s & L #.s.E.Y d ` 5.;.:.Z.=.} } T.$._ | j z & _ | q d J.).5.} H 3.&X$XS r Y.=X$.0 %.w l 0 | m.0 G } d =.} F ).6.* P +.v T m s O.G.J.u #.4.q I T Y s - 5 P } 5 d :.H q P * s M y T M x XXm.O.T.s.U O.O.y h T h y h - + z ' h h I L P + h h + * u P *.I.m.I } l d 5 =.<XI l %.Z.k.%.,X| & f f & f $.` + z | P : h u s O.z + o q l I ;.- T 1XF.V 3.n.=.K.|.6X.XL._ T m.J.#.m m $.$.u L s x O.*.Y f ` 4.} P I K.T : s z 5 :.f l l | k.H l F f f 0 f } F '.x.0 s &.i ; O.s.J.L L #.s ; : : P =.j.=.: * s j z 5 & d z j P L 5 : h j < < + T ` G m.'.L i Y g m x : d $.I.=.x.` $.j.m m - @ < ; #.J.$.T j < h < ; L L J.z.h s s.h.- u * Y U O ; Y O.m T : 0 4.-Xx.P z z K.4.4.Z.=.%.4.R ",
"4.%.Z.n. X].j.m.$.l F T I :.qX` h u * s d m.].n.G _ ` L u + * d G $.T f f } ` z Y h h 5 y P &.z.*.: 5 & ` d : m T O.L z z * * h m.O.>.T.l A 1.l _ G 5 ` *.=.} * 5 #.' ` z = l Z.T.d 5 ' T.F f =.*.d s L P ].;XC.5.l & q l * _ j.I * x s ; =.h + z 4.=.n.$.G Y.k.} z #.z.m P m x :.T m.I.*.C.` q ` >.G l = * L Y z m h 5 P Z.m.T.z 0 5.L.5 = * d f = A V.6.l z _ F q F F _ j.K.'.L.0 %.T.m.s.h 5 s z f 5 5 } G K.lXx.F ` u + i h L C.kXY.| G z 5 * f :.#.T O.h s z m 5 h =.T * A q $.'.m.f P } } ` q * z d G :XN.5 #.| I n.;.e.>XtXN.] A.)._ 2.=X_.f F l z 5 1.| T s = G l 4 } ` v n g h M s 5 m M U G 0 P 5 5 ; i E. X` f o }  .l | m.I.x y h m u j d m m.*.P O.:.u 5 u m P M I.h.:.h h P 5 L P m j y M i + + j.zX=.d l 5 & 5 l } Z.%.} '.C.n._ %.-XoXn.I q f l d ` m.f U &.T T 5 s I F ` L.n._ *.j..XyX>X3.6.P d F _.Z.= n.Z.5 5 j 5 u ' #.h s y M I.j.*.P f '.n.P j.*.h.` u L I L = 0 0 %.T.Y.L.=.f j 0 z q 4.;X;.= j #.m o u s h m Y O.h ; ; h L $.j.=.j L $.j.:.x.L j J.5XJ.P * : & Y &.+ u s d T .X'.5 s y h j 5 * - ; z h j #.=.; u Y M O + i m T j s s : : s =.h U O.h : * j d s u m Y b v M M Q g s s P x.C.P 5 5 P h.K.F F I } 4.x.",
"` >.j.J.n.` F $.T 4.j.z } 4.j.z L L I z F _ ` f P I ; ; * f ;.} Y.q z T q I F T *.z f d L j.J.n.P T = F  XI 5 5 j I :.I.m.m.z u =.*.-XT.F l 2._ 1._ & : :. Xj.= h L & } C.n.%.z h ; : d _ l N.Z.C.5.#.z z ` Y.5.6.l q A.V.[ N..X` * ` Y #.:.d f K..X} 5 0 F j L P : * O.x s m.>.4.K.T.` z q G _ n.Z.0 q 4 4 I :.Y :.G.m z n.F '.C.q z.} d q = I l f 5.;.n.' u : L f m.5.4 d q l F * * 5 5 : * 5 Y :.z d q F z >.=.5 F #.s ; a ; ; 5 d =. XP.T u H } C.:.d + Y J.*.5 : s d 5 _ Z.q ` m.z d z G z m.T.u z f w B.B.5 j.$.q L d _ Z.| A ] 7 e.3.D.D.n.1.[ Z.z * 4 _ ;.` P z $.z z h # N c a M u d m N m H ;.:.Y z.h + s 4.Y.4.f  .5.H N.Y.$.#.m.*.m u z T J.=.0 d _ f l 5 x.T.` *.qXj.: x h #.T L z m M i h m T s h *.T I z P P f f l I | _ ;.4.G f j.:.` :.;.= 4 } ` + :.j.6 m x M 5 h ` T f '.N.4 =.:.5 ;.>XrXn.w _ } ;.n.l } P 5 * T x.s.T M x : + 5 5 + z } 0 l f z z 5 ` T s *.E.x s j L d z ` |.8X:.#.j T G ] F F P $.P.G.O.L ` T $.s < < g o - s s d d : L =.z =.J.` s s.O.j T s j ; 5 j - ; : $.:.` $.` P T :.x.j ` P.d m m m + U &.m m s.I.G.< < M g g s d ` z $.z O.&.< < *.j * m O.&.g b U W g v U z.#.l.j.4.$.#.F z 5 T F L #.u g U ",
"T I j.0Xf & f q f *.=.%.C.k.$.#.>.P _ z m.C.f * 5 *.W i j.T.} z C.F = f d 0 f $.x.5.z = z f f 5 | ` f z d ' C.5 = z x.k.;.].' d d ' j.P F I 5.N.;XY.z 5 5 5 z } Y f.` L.<Xn.I G u L m.;.l H $.n.Z.F _  X4X} z w 4.L. .A.V.$XA.G ` m I.|.h.z.>.5 $.:.` f z I.Y ; < i ; ; F f =.} *.5 5 | * 0 d f ` G l | ] F d Y d 5 J.#.oXY.0 H I f z P T 5 d I F } =X_.$.=.m P C.:.Z.C.l P x. Xn.C.=.G F $.` & ` j.z L L f P j.j.#.5 s M h h - 5 m T d d u < m } A ] I 5.| P Y #.h.x * L F 5.=X'.P ` F * 0 n._ $.T.P.Y L 4.6. .P h 5 T j.x : d = G 1.o D <.w.~.0X6. .A.=.& 4 } Y.` I ` d P G f i y y N m x :.x i h z 4.5 Y j.j P s m.'.z l H ] 2._.6.l 4.J.L 5 O.J.O.#.' 4 z m.j.G l =.Y._ d z + * u j.|.T T h 5 : y - h L x : x G.I.j.L P :.I I 4.n.N.k.G = I q 5 >.>.z q } j.=.q & P M Y i ; ` L 5 5 $.1X0X%.q 5 5 d l n.6.;._ 5.I G 6.L.z * h :.T.E.O.y h ; z u 5 P ` T ` F | C.G 5 d L *.-Xj.z =.P u * 5 * j O.#.5 s T P  .G f q 5 ; s #.h z d P j i u ; Y j h ` |.E.$.z 5 #.|.#.5 z &.=.P s s u : P d j T : Y :.$.} x.#.h.O.Y d : h.s : P.l.h @.Y - h h.|.I.m M d.p v j P C.=.f d L b - d.z.L *.|.z.; U +.v < < @ h O.=.P.T.C.=.P z s 5 *.s.s s j U , ",
"m u P #.0 0 ` G :._ x.Y.N.Z.j.=.f d Y.C.C.Y.$.$.& ; N p j.oXm.5 :.j.f :.} | } G qXY.0 q %.%.l q '.Z.m.I.T d '.;.* d f 0 %.$.P l z d : & 5 I 5.| | I F L z 5 z *.d *.4.]  .;.:.` _ 6.$X .;.].C.5 j.:.0 :.:.z z d I 5.l 8 B.F.rX| z L :.` Y *.T #.5 : ; i s m m @ ; y i i L ` 5.5 m y *.j.| -XJ.L L _ _ C.k.5.$.P d 4.| } C.6Xx.I.G $.j.x.l 4 q 4 G w  .| 5 M h *.#._ z d L I z I.k.T.Z.G ` j.L m P s h P 5 s d $.P.#.z j.4Xs.h 5 O.J.x.j.s ; N g h h z ] [.pX$.d :.$.5 z F I I l z 0 T P 4.:.` $.m.} T.h.L $.j..XT.I F I j d * 5 0 F ^ S F.e.D S 5.Z.;X[.| 0 f T 4.I.XXz L F %.$.z ; v i L P s + < ; z 5 + 5 u i O.$.f T T } 4  .B. .A.;.z L u y v g ; X Y :.P F %.%.5.%.L.x.f I z s * m $.s d d & z j.s.s m h x T. X:.I.z L :.z 6.<XN.V. .= z ' d 5 ` z.T d ;.` = d d F X z.I.m P Y s & T 1X,X].$.5 P P _ 5.Y.| I q 4 4 f _ G : z ` =.` 5 * s * m h *.C.` z f G ].5.0 d = T '.1.[ $X=XT j m h < < s j * u z l C.N.H x.=.T L ; u z s Y s.Y s g P.x.z.z.G.:.T s ` j.P 0 > g *.h.=.L : i j $.1.C..XT $.x.#.| ` T C.L = d T T L ; ; @.p.< M O.: P z ; : v Q U N L I n.lX.X= ; < < Y j.z =.z.v < a m U O.&.h 5 5 z z 5 0 s s } #.L s : *.=.d s s ",
"j x d z f :.0X.X:.4 f q [ A F L + _ n.| z 4 F _ $.* ; < 5 d h y s P f } G 5.n.l } ` q l l Y._ q j.n.:.I.:.& m.m.j.` d z | 0 5 5 P ' m 5 & 5 4 l 5 P J.j.x P h P.T 5 _ | S 5.*.d G } ).$Xn.n.Y : T m.z f 5 z *.m.m z A X.q.^ S q q z z z z 5 *.*.*.s.N v a + i N h a - + 5 F F + : h d P $.` 5 h ' f :._ :.F l = z ` f 0 G .XC.} ` ;.].'.5.5.} _ } q | } s T m z 5 I.T.=.L z d 0 5 _ _ $.l q m h 5 * 5 h 5 d = z T + m x.P.*.d Y P.j.#.$.*.O.v , g U j.'.L.,XZ.0 z z ' #.P ` :.I T $.P =.m.I.F } %.G ` I * * x j.` ' z + 5 z.m.>.d 4.Y.H >XrX6.%.I H H 4 0 z ' >.$.C.4.#.=.P q 5.'.x v U *.$.s +.s z 4.w l T.:.d 5 5 ;.Y.j.P q _ [.6.A 4 q f * + X i u m T.T.F d f q } G l I 0 T =.u + T m.P + z z }  X>.*.G.:.Y m.P d f L d 0 0 d G B. .A 4 5 u h *.=.5 d d :.*.z ` } z u U T.s * d & + z %.G n.$.m +.P.;.H _ _ =.G I x.;.0 l 5 z ` * 5 5 X 5 5 * d ` $.f | x._ q l H 4 5 I _ 1.Z.A.| Z.|.P.M g h h 5 : m z.I.N.} G x.x.T b ; i Y b *.s.#.J.T s O.j : - : s G | & z } 5 u h s f h.s s s =.Y.] Z.} } F #.F z ` $.j : j.C.O.x.h T N - b d.x.j h.XXL ; g d.U y - f I Z.I.0 : u j j.-X=.L O.M , - s Y =.#.T #.*.J.T ` I.'.P m.I.P z + O.oXT.I f ",
"s h s T z l m.x.| F D Z..X:.4.$.l _ 4.I I.} _ ,XT.} s 5 G Z.I P 5.} 1.<Xk.X } Y.| 0 G Z.} G P z s d * P ` 5 *.P T.J.j :.' + 5 d F I z * L T.K.m.L u O.h.Y Y x m d z C. .Z.5.d s K.K.` n.} ` i < u :.5.l 4 ;.` L O.m.C.B.B.1._ 4.m.'.T.j.5 s P h Q &.h u h h U U h * * m.-Xx z _ I 5 = 4 I $.d 5 P.' j.J.I 5 G 5 d G d * s #.j Y I.T 4.).1._ P 4.oX` %.,Xz.i h 5 h I.cX X*.m.f 5 f f T #.j m.kX` h y : z #.P ` d z L : u #.Y 5 z 5 5 >.` s : - a v < P J.' P f ` T d ' ` j z ` | ;.:.4.,XC.d G ;.] G k.0 L O.+ ; h x d I ` J. XJ.j $.5.4 w w H G } n.6.4 l } 4.=.=.5 q _ P z *.T.Y ; i a : 5 i +.:._ A._ 7 ]._ 0 f Z.Z.=.` P d T ;.e. .2.6.] q z d 5 d C.x.I G T ` d T %.5.L.T f L s h U XXj.h #.d d :.4.F z F x.'.d z z 5 d P * m y J.Y._ q } z d P O.h d d } *.T I 5 ' Y h h 5 s * + j.5.l F 5 5 *.#.Y '.5._ 5.5.F z *.} l } I C.'.T f ` #.z =.m.F x.>.j.P.} 4 k.=XG 0 z 5 d I P d d =.h ; v h g j I z 5 s.$.L = : s h h a , - # W v h s.I.c.5 s ; - ; s d 1.1.5 5 H 5.T 5 = ;.%.0 L j L C.k.4.0 F P P h.:.0 5 z z j =.j.=.u *.v.&.g g u : ` :.: s L &.T L j :.K.I 0 d j :.:.C.XXJ.h ; @ o ; z =.C.j.=.s 5 T : T 6X4.} I.` h.j.b < L x.6.c.",
"h ` #.5 * z + F j.I ;.$X$.=.4.f } I G Y.uXZ.%.'.Y.P.' z ;.A.Z.-X6X=.%.L.} f n.qX.X_ I 4. Xj.+ z z d 5 h :.` d d T z Y h.*.h d P T L d 5 d P z L :.x * * =.T h x s x.,X| Z.%.F J.J.j.z 5 : Y Y M y h | ] 6.L.d 5 h T F Z.Y._ F j.m. X-X' : + s i h u u h Y h h i m :.%.j.P.x f ` 0XL.} 4.m.j.5 + I P.$.j.` I :.w F 4 f } 5 #.T L j x.x.f l & & * z ' z 4.:.s * m O.T *.` L } ` G l F 5 ` } T J.s h h O.G.z.z ` P. Xm.Y J.` : d =.*.d } 9XL * + i i ; @ - s + + z L.P 5 s L L F Z.G q f + F l q F 6.;.l ;.:.P a < *.=.L d ` 5 d * #.' } | q _ ` z G n.Y.} I m.u z J.z G $.T q P j.z h O.m *.m.s u = 1.2. . .q S 6. .Y.6.I ` J.P.& f r H )._  .I F q ' } z 5 z ` :.6X$.= ` Z.m.z z L u s i x j *.#.x.j.5 I *.* + j.'.0 d f l | G * h h d _ } z *.:.z u m ' } d d I j.P 5 s >.z.*.:.m.T.m.5Xn.j.G P =.s.` m.=XN.F P } z f G ` 5 5 L P G $.` 4.x.T } ` F *.z 4 z P 4 | ;X5.& Y.-Xj.: h : ; m * + i u m =.P F h j $.=.:.:.j : Y U U , - , @ y > * 0 I 0 s h L Y L _.[.;.f  .1.x.$.1.;XqXP m b s P m..X} F x.P $.m.$.* z :.d : z h.Y + < ; ; h o : j 5 j O.O.j Y ` d T 4.5 P I 5 =.z z T T h - + < $.'.$.P h.'.z - j *.T d : d d : f $.l.+.+ q 4.%.",
"P d z s 5 h h z I 4 I A.` L } 4.7 G 0 d z 0 | ;.I & + m Z.m.m.:.z d : s z z K.m.T ;.;.q :.4.I z n.T.C.j.z.z T qXz.5 5 * s 5 j x u } F & d $.f =.I.x.= } 4.z $.d 5 ` C.=X| & P j.} *.T.*.; ; v i + s q H )..Xm.m h f f I 6.=.x Y s j O.x #.z I I #.I m j s s Y z 5 4.6.| f : d j.K.j.| 4.z * + L =.j.*.` T f %.B.q.8 G _ A | | } 5 T oXZ.F d d j u s s 5 5 I L m m.h h x 5 0 5.=XN.1X1.F 5.} 6.4.T M #.h & L $.=.L z m z.` 5 P =.` s d z z 5 L Y h +.+ N +.5 z z I P 5 z J.m.n.| I T d z F l P I G l X. .z * @ i m T.z . * d ` L O.:.;.C.4.%.l l ;.%.;.,X| :.m.d #.z z } I.m.P C.Y.L.>.d _.q.l I ;.$X1.A.A.5.0X5.q 5 F f P Y.,XY.H I q & = & P F : s U Y m - u : z =.T f = & = f d & s : m s * m m.|.z ` T.$.F I G _ l C.'.I G n.m.I l 4 ` z.- - j F I f h : * z T T d d #.$.L z 4.4.| I *.` = F m. X&.h F =X} L.T.P ` $.d ` *.s s 5 : u y z Y z & F ` z * l ` f = l $.l 5.k.] q L - y + + j T m $.d F 4.U b Y :.4.qX5X` f f F =.n 2 - < j ` 4.Z. .Y.'.: y ; L T * ` 6.N.%.0 G '..X` b - - $.m.m 5 z.C.` = q z F z 0 5 + 5 #.Y y g u < ; : L L s T.m.$.z #.$.L & * * 5 j * * P j.F & ; ; Y XX'.4.z L $.x.F & 4.h.-.$.L } T * z j.Y L j.k.F 0 ",
"} G = z L 5 m *.f + %.Y.6X XY.Z.6.'.%.` F G %.T & * P L f _ d & 5 L z L j.z z f f ` 4 4.T.} ` f ` T.*.P.z * z XX$.* f I m 5 m d ` T F 5.Z.K.:.L j.n.| Y.k.j.-X-Xd * l H q H 5 & z G L s + i T ` x & * q 5 0 P ' z :.;.z l 5 g M M T u s I f 0 j.-Xz d z L d 5 $.A.Z.[.1XG z z z m 5 ' K.0 f h P #.P * * T I f 1.rX;X] G l G $.:.d s j.I d z h m x j.M 5 4 6.m.:.z.u d 4.x.].Z.=X} 5.^ q.[.] | %.P h &.s #.m.j.T.T + & s 5 ; M z.Y + 5 X :.j.$.I 5 s h +.z.j.| k.n.| *.h *.J.,X).} 5 z j.G ` m.j.* %.Y.^ = O.i v h I.J.s m.C.J. XI + _ l G f q f q q 4 l G d >.d =.j.f & j.I.G k.[.n.z } e.2.6.n.<XY.I. Xf ` 5.f z = 5 ` ].6.} Y.F z d z ` | $.0 d + h s.Y i a Q s.J.T.| d 5 J.T.I #.5X*.; u + h P 5 s d z.oXz 5 l 4 l Y.Y.C.Z.H _ <XqXA f d u h f | P.6Xs.h & 5 5 h d j s * ` P.%.P q H G f z & P #.+ u f } $.G | =.0 d ' :.J.z d u s z M i s j * z z q d d | L d d } | '.Z.X.S d z 5 5 Y M L L s L m.C.< + ; ; h z j & P } 0 h.+.n b O.#.C.6.).N.).$.* g g g h 0 =.1X;XP j ` | ] d g @ u u u - L z.} =.j.d 5 } $.` z P j.*.O.g < ; ; - + h z : $.$.L s P T.=.z L h.$.#.$.= l 5.=.z P P P } %.P ` P s : 0 s } =.:.h.I $.#.: z ` s *.K.=.F d ",
"k.] l F Y m j m | ;.L O.j.} H G ;.Z.x.m.` C.Z.| ;.;. Xn.] 4._ d d l I :.0X4.= f z f T %.T _ + & h u m z h s * s f * f J.' z j u 5 5 k..XZ.:.T.' d z F Y.T. Xz.m.z d } A _ H d 0 1._.n.d ` #.*.x.4.q 5 h h & l :.d d :.5.*.M y W G.P * & f L #.m.K.| _ 4.%.G 5 %.>X).).;.A ] G s U O. X` m.:.x u d 4 4 | n._ F _ :.qXoXJ.0 m. Xm.u - *.s u h ; i O.d.y 5 5  .| z _ f 0 ` |.T.j.T q 4 * 4 0 1._ z u : &.s.' $._ #.5 & m j.J.&.h f.+.h Y s z >.q 5 z * ; i m _ ] A. .` &.g g +.].C.z 5 f j P ' z =.s *.L. .).n.h N u T C.j.j.=.z '.%.0 | n.G G I 5.n.l $.Y.'.F f L z | z z d I.;.l | | d z [.2.| l l z x x i * I ].| l } } 4.} l z :.J.T ` '.A. .= l Y.=.* h m m &.=.E.C.j.:.4 C.Z.` T m.*.; h u s 5 m T T q l 0 = f | N.<X;._ q 4 H n.;.S [ _ 0 l | m.T 4.L + h h & u F z j Y m.| j.Y.} Y.P.$.s * z T - P C.5.x.` } f d z z 4.:.' I T #.Y T ' * L z z } z d T m.F =.,XqX` q 0XN.w _ Z.k.H I.j.h P O.|.Z.=.+ ; + Y M - : : 0 z = : m u i E.j.P + ;...& d z s + h s 0 0 %.} u L s F P z h u m u - h j f z j.'.} q f 0 } } T *.m m h ; : < < u s 5 = * d :.=.:.J.} ` P O.O.I.7Xf P I.x.z j.#.z.].e.N.x.T : z s m $.-X6Xx.T d : * o d u h P I 5.=.",
"1.H Z.4.T *.x #.Y.A.d + & G ] w G ` 5 F 5 d f F } 5.` l  .5.Y.Y.%.* I C.5.F ;.G f F G ;. X$.F h m u : ; T m h ` #.o P j.` ` 5 0 + ` j.G l F P T O.s = 5.m.:.G 0 ' z q q G ` =.Z._ ] | _ j.| } ).k.l 5 y x O.} %.x j.K.-Xs.O.v a d + = L j.j f.O.z $.Y.n.G P I 4.^ ^ _ 0 n._._ z T U z _ m.I 5 m #.J.A.A.] w F *.L 5 I j s XXx.U + h I.m d f.N @ v &.M Y I.Y.Z.).H 6.z 5 x s ; + I L.l * | L.$.s ; m h * d $.4 q ` ` I *.z.G.h m u s T ' L #. X].l * x *.L =.].N.;.-Xz.p y M  X XP * + L m.j.L d h s | ^ 1._ *.m : F _ f 5.I P C.4.7  .pXC.F } l :.C.T.kX'.z | | q T _ d T Z._ ;.n.j.O.d 1.l 0 d } P U i ; h #.>.* $.m.} f 5 P d z. XT.G q 1.1.w n.<X7X| z T m y s ` h T T d = ` 6.$.& #.G.x 5 u * P :.' G $.f ` '.,Xk.n.l F 1.;.4 l B.e.,.;Xn.7 l ].K.5 P Y s d L } j.$.5 #.*.o G C.Z.L.$.z d 5 ` =.h u #.5.n.uX4.l j.z + j.T.*.L * ` k.C.x.d * = $.uX_ T T.$.= j.].| :._ = | I ;._.| } #.x &.f.5 :.$.5 y ; < p.U ; g : & d f } T - < j L L 0 0 } j.s 5 h : : 5 = & = * : : * F I d ; < *.T : : 5 ` T f | m.:.= & f :.:.- s j +.s s h j P m d : :.J.K.-X5 m T * & s L P :.} h.d I z ` ` } Y.A.[ :.P.P : U m j T P.z.` z } T f f T *.P d =.=.",
"q q ] ;.4.#.l L.5.4 q 4 6.<X_.4.5.} z z z d j.m.F j.$.H = l } } %.f A | 1.5.6.C.} 0 4 } 5.=.*.z x h * u z.G.s T |.T F 0 l z z * j. X` _ A.H 8 5.qX X$.n.A.B.] G | l %._ P $.#.:.} ;.| _ q = I ;.L.:.: i M Y } F z m #.O.z h v 5 * G H T.s.v c , *.' ].qXH Y.-X,X5.G T q } I f 4 G Z.I d ` d * P 5X-XH ] X.4.l 5 s O.O.5 h h y ; i i O.L G.J.i.< m h ; m Z.Y.=X2. .Y._ 5 y i h h G ;.l n.<X'.n.0 h M - : P Y.] D A._.} d m P m m + h s.h } :.x.` *.z 5 m O.-XT._ 5 L v v N a d Z.m.h o s *.m.:.u * h =.m.n.w l q l I } T oX-Xj.l } } q A.iX` 5 j L d s z d G | G Z.G = + I $.l L.].Y +.h = 4 z =.h.*.M i T } s M T h *.Y d I m.P.m.Y J.$.w Z. .w S ] Y.).m.I.M y h u 5 I :.>.= I n.| l 5 s.Y * d j s I C.I. X$. X X4.' P 5 4.A.5. . .6.A.q A.xX| = 5.oXm.I.P s C.5.j.Y.;.z 5 z z d _ $.l 4 0 = z I m h : d >.P 4.} ` $.4.I } I } h h m..X5.4.>.z 0 ` >.& T ].T * d 5 :.7XL.A _.5.d 5 j s.h : : +.s #.z 5 m i ; : & + L : 5 m.|.I.d m s * s + s j j.,XP.L T K.0 q %.Z.=.5.I.P.m.T ].f o T *.x I.x.s h.j f z x.5.f q } I.j.#.u #.|.h - : h.m.h.F d $.J. X Xs ; P j : m Y h h s z s d T P 5 5 : } * u h s m g g g < Y P T j } $.F 0 f 4.$.F z I ",
":.G D [ G l n.n.| f q H %.k.C.} $._ =.` m.I } m.' 5 } H 0 ;.5.f F 4 _ ].L.F } '.iX;.* f ` j.>.#.T *.O.x h x.m 5 m.F = G 4.` d L |.>.z P F f B.L.z j ` 5.[.)._ | | } 6Xx.5 L 5 4 I P 4.4.l | '._ 5.:.P U h s I.F 5 u u s u : ; F Y.6.0 5 6 @ % , U =.m.| l F f 5 T P $.P P z q 4 l Z.n.} F 5 * Y J.} Z.A.N.| z d 5 O.O.u 5 h ; 5 y G.E.J.L 5 h u U 5 u z l F 1.A [ G l * M i u d $.F ;.].L.'.4.j.` + u h d I.^ 4 n.=X%.5 L L h m =.O.T L 5 z z :.#.L m z d d z f 5 + i , i i & L :.d T m z #.m s l F f d ` G H l ;.z F P P P P q 4.Z.} G T.' d h d : d z :.l 0 l =XZ.L u j * f I P d x O.I.-X$.h L - - h G d - y m - + s d * P s.d u #.z & w G _.N._ ^ 2.;.0Xz.+ y y d * ` n.& q %.} z.s.Y z :.>.$.j z >.z z 5 } 5.d Y 5 5 z w 2.~.1.Z._ 4 H 6.l q f P l d 5 z ` %.Z.C.C.` T f 4.q f z l q ` q I. X` h h z P q I C.Y.} | =.C.;.z m U P l 5.:.T ' d 4 $.x.z x.j.5 0 d 0 z F _ [.Z.' ` O.I.O.s z 5 : P ' ' Y ` * u L *.:.z x d x m m h.: : : T m L m.J.j.s O.T.5 G 7X<X5.| XXI.4.5 z $.#.O.I.$.XX=.+ ` s : f $.d f q $.P.P m X m =.s h s.m.I.s d L j : d T m ; Y l.T m s s.*.: - s $.m.x.d T z P j b m h L i , < +.l.*.d 5 = & f ;.0 } $.j.T.=.",
"[._.`.[.6. .X.N.2.A w w l z d * L ` $.x.z : + z ` 5 * f } ;.L ` *.z l C.4.G G '.].*.= 0 I -XJ.f z u 5 5 d j.T s d z ' *.#.I j ' #.m.L ` *.} K.:.; * Y T G } d u : j m - P j.* F q & 6.C.;.'.;.;._ G d s i Y ' F j O.s.*.x 5 d m.T.G 4.:.T h T T h z j.0 ` *.5 + z : d $.d P P l n.} 4 I z 5 5 #.' ` 6.G 1..X_ d *.m.*.m.'.4.*.L.' ;.Y.Z. .5.Y.:.j.z j.m._ F B.w 5.pX>.* M d *.T.L.%.:.f _ C.C.T.#.z P z 5 T :.0 d $.I.` #.s.P z.|.d ' *.#.I.h.*.z.5 5 z s d 5 d L #.p @ , ; s z 5 ` j.' j f 5 f N.] + ; : z m._ 5 m P u 5 u z *.4._ F 5 = & d L 5 I L.L.Y.5.5.=X;.I j *.z 5 d l  ._.m.*..XL.+ h P - 6 P j.z.u h 4.6.l j.x.s * d G G F } n.Y.A 1.'.f A 2.Y.n.h n - + u d 0 T l 4 } C.*.m : I.-Xm.*.j.P f >.:.P 4.$.d x y 5 5 l 5.5.N.,X} } I ;.'.G 5 5 = #.9X=X` d _ Y.z 0 P =.>.*.P } P :.,Xm.4.:.s s j.J.=.G l 5.T.'.} = z %.'.I.L f j.oXL * h.j z 5.j.:.x.j.} 5 5 _ z 5 0 | ;.n.4.4.Y.k.G } j.P z x.j.$.T *.j.-Xz.` :.J.x d 5 5 $.P j s J.j.: Y Y - j m u - L ] 1.Y.4.:.j.$.j z.z T =.*.; : - - 5 & d :.4.F q I T.J.G.l.: : j s *.z.T.m.j z h.s & 5 *.m y < < h : < &.&.s + s :.m.T ` -XT L s i b s u < i b m ; + u 5 z 5 G ` m T T s P Y ",
"n.;.N.n.n.k._ ;.n.;.4 I f :.T.P I d ' J.z ` 5 u : 5 m.5.` P #.L T z f 5.*.:.:.P m.K.} f f d 5 5 5 * 5 * ` T u z ' I -XP.*.*.#.h m.j.u z.oXz.d u +.` ` Y j f $.=.P h + * s P F Z.C.%.l %.G G l } >.d * + + m ` : s Y m.s u h 5 h >.J.m. Xm.n. XI : u j ` 6XP.O.h 5 E.XXF z d z ` '.T $.` z d d j.n.f f 0 %.C.f F z F } _ _ 4 } n..XL.n.G | _ _ $.} I.:.` d 1.A.H l %.I s O.T J.n.` } ` d * = =.x.$.;.-X X' d ` m : z j.' z d ' j.*.5 :.*.O.E.j.5 s 5 Y d j :.d 5 #.:.h v g m h } f ` $.j :.m.5 j.$XB.f h h G.-X:.s M y P +.m h Y 5 P j.m.` j z P I x. X$._ Y.n.` & + x ` P 5 z 5 [ 6.5.Z.] & + h U h z j z ` h * n.Z.q ,X-X:.=.m.5.C.I ] A.1.A ] ] l Z.n.,XJ.i h u y * d 5 q f 4 & >.Y * m O.L d P  XL z :.z d 5 f P ; i u d _.6.;.q.;.l H | } n.G %.I.I.6Xm.z d 0 5.].z l $.:.` n.Z.T _ _ C.I = = * + m h z $._ I | j.P F %.$.} j.5 }  XT * u P :.5 0 d x.].T P f P I.Z.d 0 } | l = | k.5.].} G ` P T =.L $.I.j.L z #.j.z.z T j & ` T j =.jXT.L h h i g m i m j ] ).N.G P } L z P : : j =.Y x.s.z P L #.j.4.w 1.P T d O.*.#.u ; s u T s.z z m.#.- u j O.m h j Y m ; - ; g b u h L L 5 m T T L s T s - L - < Q i s g : 5 =.P c.=.Y m b b u T ",
"5 5 m s I :.: * Y O.z d z :.-X` d d d z =.*.h *.m z ,Xm.=X8X-X` s z L ' z ` :.T z.:. X6Xj.T *.m.=.d 5 L m y s Y ` * h z y h O.L Y u : s m L P i s.z.XX+.* :. XT.:.$.z P _ I 1XsX_.%._ Y.'._ _ ` f j.' j I z *.Y s y M h z.*.m ` T d P G 0 | n.| 5 - F L. X#.=.i + O.-X` =.I K.m.5 5 P.:.= q * } Z.G 4.` 0X7X;.` 0 I %.G + l l z >.$.} h P *.z ` s s s :.I = w G l d P s Y J.x.:.l 4 : L ` d f $.Z.$.} -X#.m m + u 5 X z 5 5 d z z * d 5 :.P h P : z.8XP.* d z T *.T j M U h m.I.=.l | z m. X5.Z.Z.} P P.G.; h M +.- i h h 5 * 5 & d d J. X= + d ` >.z #.z.x L s + + 5 5 u s x ' :.F T ` 2. .1.l h i 5 *.#.z U x Y.X.f | G ` P 0 0 ] _ ^ G l _  .( D 5.K.O.s.-XE.O.h h s } m.$.f f I.*.h M h x z z T.:.5 5 d F d 5 5 h P.L d I 7 6.6.~.6.[ | G %.0 q ;.m.x.m.z : = _ Y.$.I q 0 I j.;.G 4 d & 4 ` d z T h 5 I P.` 4 w 0 = 4 z _ I _ _ x.s : u : ' j z f q 0 J.G 5 =.f :.'.]. X` = 5 ` T m.5X>.* z d 5 & #.h.#.m d j 5 5 z d * s + s 5 s d Y #.T O.h s h O.p.O.v. X[.`.N.} ;.F ` ` >.G 5.x.Y.m.} J.P 5 z #.:.f =.iX} l 4.J.u s h m h : m L & f j : s u u : L *.m O.&.@ g d.m h s : h Y : h s h m s z Y &.z.: #.T.- s &.$.X 5 $.%.h.T Q v g < v ",
"u h g g Y h @ i i m h m m.|.m.$.5 4 _ $.*.` m.s.j ' z G :.} O.Y x : h j.m m L z L z } k.$.4.T x.*.* + 5 h ` *.E.*.+ * + +.f.; * T O.*.z.O.E.m y : j O.G.:.+ 0 H l l j.K.C.'.=X].C._ I _ %.C.G I z ' f f f ` G.` M T Y h m s M x s z z q $.C.4.4.O.5 q j.:.z m s x 5 f ` P T m.m.j 5 L :.P w * 6.Z. .z d | } G F l l 4.} G :.H d 5 ` O.T M M + 5 z 5 d } ;.n._ 1..X#.h : 5 z I 5.d d 5 *.#.x 5 $.n.;.P z 5 ; h * d z =.#.j x * + h * I I.|.T #.` 5 ` -XT.m z :.G G d * 5 & m I.<X;.G j.G 5 j.| f ` * + O.M i h P z.s.O.Y m u m s 5 5 5 * f 4.} q 0 s z T E.s.+.m + * 4 ` #.z #.XX=.5 u J.>X1X[.F M M z 4.z m M T T _ I.n.5.z = = l N.).f %.n.z L.3.2.n.*.- m m.m.*.M d + z  XK.x.>.*.; < < T m ` } j.G z d F 5 j + + 5 j.:.=.Z.;.2. .;.N.0 _ ].'.` f 4 + 5 >.z : L z d _ T %.4.iX=XG 4 | C.P f ;.=.#.:.*.m z ` d l z 5 I G 4.4.F n.,XJ.Y m Y P.T.I d } z m.m.F q l I %.$.=.5 d 5 I J.` d O.: + j x 5 5 ` =.z :.|.#.x d I.I.d : =.m.m : T Y d s m ; h s L l.s m 4.1.F.J = f z d 0 ;.5.'.| _ | I * h m L =.x.4.0 I q 0 C.x.d : u s - s =.x.=.} z.I.&.; h u ` $.; M m < i h b u g - - j P : * $.=.=.L s s d ` I.$.; h s.z.s z & P 4.h v N g u v ",
":.m i M m.' *.+.x x y h #.z.*.*.d d $.:.z j x.#.+ * 4 H q & z 5 5 : * * * ' #.z 5 4 = 5 d P 5 T * * =.#.h ` h z.G.h &.i O.P.m m O.m :.&.Q N , a d P :.*.>.;.3.[._ q :.J.z ` I ` K.;.| _ ;.I & z Y * + z z 5.z * s m m y h T h : Y 5 5 P |.|.z J.m.d G _ 5.] G.E.C.P.$.l d } T.*.f f z ' *.} r N.;XrXC.F & *.j.=.P q + + s ` x.L j Y M m ; M O.L z z f = } =X=XC.P.*.m i Y >.N.A.>.h : u d z 4.z.m.>.m.oXY 5 j 5 G :.T.-X:.: i : h =.=.$.' 5 T L x : ` z.j.z 0 = l | 5 u P z P L.=Xq _ Z.} } } } 5 * i N ; s z I *.C.>.$.` =.j.z * s 5 I K.m.G f %.m.oXm.s u + ; z = q N.Y.I } $._ m + P F $.h M Q M J.k.x - x s + h x.T.#.d 0 G  .$Xk.w l 5 u >.q.$X` 5 : m 5 * s * ` -Xd P 5.>.5 u ; a ; - : z l & q 5 4 I I 5 * 5 d m m s.C.} z L m 5 + : d P 5 d F d = = G 5 I T * z } I | ].n.G | 6X4.P d G '.m.z h s : #.| P f + z | $.C.} 4 f - i h z 5.6.'.=.` P :.-X%.0 ^ A.%.L.'.' P z : h s h s & s z h * s :.I P T z x m h $.J.5 d #.T P h #.$.s j $.h.:.#.O.#.z } :.S ;.6.I = 0 0 f d z I 5 f z T 5 h P $.F d s 0 F f k.} 5 L * u u j u P C.=.` 6X-Xd d b Y T ` L s g m o : L : m z.=.=.I.$.j f L $.I : d j %.'.P.j : *.XXXX4.%.k.` j m g b b m ",
"].5 5 h d 5 j.P P z u j - y M s d 0 5 l 5 f T ` * 5 _ Y.L.f P h ` z _ Y.} ` 5 * f I G _ q $.5.f d ` z.|.m.T + 5 5 i m # - : y s ` z Y h v , i @ f G L : z =.B.>X=XF 5 z O.h i u d z I 5..X_ %.d x #.` 0 z T 5 s ` P >.#.j.m z T L ` :.z m s 5 L #.z G ).tX6.T.m.` $.d l T ` J.4.` f =.:.=.m. .q.).C.j.#.j.9X XT.` : : : L s z T h * * + U z.I } 5 F 5 q P F f ;.d T M < +.O.;.%.I h + d j F F I z & ' E.:.5 f I .X5.=.:.m - i u h ` :.d * d u h P s : z ' } _ _. .l d z I.} * $.;.| | _ l Y.uX5.m ; a y a u L _ $._ _ 1.Z.n.q f s * z ' ` P $.4.<X=XY.:.5 I j O.=X;. .1.q._.5.I | j.d X + & * *.h ; ;.C.*.m s 5 + + U O.5 0 f A H Y.;.z 4 + u + l | z *.O.O.#.h h x T oX} l | z z x g p a * *.` _ H 5.;.:.K.T z z *.' + * h 0 z ` u *   + + - s #.` $.` %.` 4.} m.:.= 4 5 $.4 4 G 4 z m.=.| 4.j.$.I z * z *.I 5.m.* z C.} I Z.I #.:.&.< ; h A n.4.` m.P 5 } } q A w w K.L #.m J.P.:.P.J.U y i ; : : h J.J.j u M s d L P ; o * h x.J.` T T j j.'.=.d L z =.` :.4.%.1.n...I } I 5 h *.j h ' T P f z } d P f $.} f K.,XL * s : s L #.j & d f 0 P I 0 : < *.j.=.h s - o h #.U m m J.x.Y :.=.5 d : :.$.= d h ` T P : ; i =.m.4.j.} %.d m d + L T ",
"Y.;.G '.'.Y.F u m U h i y a a i d F } | G H %.` 5 0 ;._ L x >.I.j.5 l L.k._ 4 5 4.:.n.Y.n.n.Z.'.].$.*.&.#.d & 5 * + y s L L x $.1.H =.x p 2 y M -XT.s i i h h * 5 5 z I 5 5 m h d f _ 6.;._ P 5 j m.qXm.5 l : u ' 5.0Xk.Z.=.} qX].C.P f j d h f *.d = l ;.2.5 z ` z z d f ` $.j.k.& z L 5 } 1.l l G _ $.T O.G.*.m +.m 5 d 5 #.z d I ' T :.5.n.,Xq.7 n.Y.d ` $.d 5 M i @ ; ; =.d * P =.m f P = F 4.} j U U ' G q ` L + & + U *.j Y x j m.*.=.O.Y x i s z C.0X2.[.;X_ G L T.P s ' ` $.d 5 z ;.Z._ m.m.s.v M : $.l Y.4.] _.e.{ [ 1.:.=.T z P P | q l } F l } K.j.%.n._ _  .B.6.[ H I N.n.1._ 4 4.).l 4 8 ).N.| _ *.z >.` z G 4._._.H 1.;.G 4.| * 5 & 5 z z z F :.j.m.' =.4.} } 5 z :.O.g @ < m uXZ.N.Y.N.Y.].| ` T z P 4.#.s P f I qXK.n.P o - ; j j.m.C.Y.=X<XY.T F z 4 f $.L d :.:.5 u *.:.F ` T q f F z ' j.L T h.5 T #.I F T 4.I.T.+.i i h 4 A G = 0 0 f 4 =.} 4 A G * + y U G.z.9Xz.T M h ; y ; j T.I.5 + < a.L j s s L m.=.=.=.` 4.XX=.` F & f =.5 ; T P 5 %.w ] ;.l _ 5.=.I G.Y - + d ;.).q.= l ` $.j.m.T s T :.4.d z :.s 0 z P 0 :.Y.F q k.6.f s |.T.` s o g s Y O.O.L *.$.#.d 4.C.d T | P =.` 5 5 5 f 0 u s s s O.C.4.G 5.q :.Z.P 4.uX",
"`.>XH n.Z.].z.L m z.+.i h T T x.6XuXN.I C.C.0 = l } %.} 5 ' ` m.Z.` G _ n.] 4 5 $.$.l n.n.N.| I I 5 u ; ; s } :.P O.Y #.` z P '.2XF.;.` a p @ Q.9XT T m.G.J.J.*.+ z _ | k.oX>.+ z I I l 4 q * u h L P.j.q F 5 * z G ] F.Y.1.w 1.6.l } :.G z P 5 } ` : 5 _ 5.G I x.].C.Z.:.} z.T.I T =.s : 5 :.G | T _ L m.I d O.h h 5 5 & f T z 5 >.` j.x.=.,XqX_.=X'.n.5  X=.+ m M M v   ; T P m z.j.` K.4.=.5.%.%.d h M ' I ` } #.& * :.XXI.L ` T z 0 z.,Xs.h : u Y J.5.A.9 ( D ^ q 5 d T I u F _ d $.].<Xz 4 L.qXm.i : P I = 5 I F.<.{ D D ;X.Xz.:.L -X$.:.f P n.n.j.n.5.= f f 5.k.| Y.=XZ.q | 5. .B.n.I Y.=XG r w A.[.q.Z.m.T.oX:.f G L.;X;.;.=X].L.n.5.z P 5 + 5 + z C.f j.-Xz m. XY.L.I d u M U i s d G H = ;.n.| q l #.} I I *.].T x 4.C.n.C.0X4.+ i u s 5XjX*.I ;.%.;.Y.5.F n.<Xl = T.-Xs.5 ; h m x. XF G j.j.` 0 4 & j.j.+ T F d j f F 5 s i y u + F N._.n.j.} z 5 ` l l Y.I.I ; i m y ; h ; < ; # i h : * 4.5.f s n - < j P P :.z.#.s : P #.T } F | G %.$.s z E.J.F 0 f .X].F I Y._ * + # *.P 6 _ A.].l w n. X$.$.z #.j.T z 5 F | =.4.0 f z C.].4.;X<Xk.=.0 P s h u s l.x.u h m j ` T ` f :.} 5 : L F P T F f f T d j u : s j.5XC._ =.%.5.Z.n.4.K.",
"w q.Z.%.l q T x L *.=.5 x x P  XT.-XJ.f Z.].L.$.} $.:.4.q q P 5 + q | rX>X6.* T =.P } 5.n.4.P 5 ; s I.| * x *.m.n.'.Y.m.; + - =.;.] C.Y y a y Y M u : 5 f f K.L.=XpX} G m.Z. .n.z h * ' z j P x P J.4.I I ` l l 0 w _ F.$X:X] * | w 4.x.` l *.$.Y.| u *.5.z z _ :.F j.I.4.T K.n.` T h + h T -Xm.d T s T 5XK.5.$.= 0 _ 5._ T 5 O.s.+ x O.u #.L 5 q f f = = $.| d >.j.U $ @ < x m i m Y :.x.F Z.Y.l 5 x 5 L Y J.5.G l l 4 '.,X} T d f ` d 0 L d : 5 u J.m.G ;.D X.N. .:.:.4.z : d d $.G 5 4._ = q $.z : 5 u h 5 4 0 [ ~.r.w.<.D q.C.4.J.*.} P C.#.:.I T z 5 #.T } '.*.l z f ` F * m h & u i - u ' 0 f 4.|  ._ %.I ` s } P q F P 5 d } I F A =X'.I m + ; 5 * u d j.T d z :.T.C.` f u *.&.; x ` 4.D 7 A l H | z d z j I f f s s ` ;.F 5.1.G x v P G.f.f.Y 5 = 4 ;.Z.} | N.F.0 :.'.N.P y i y : z cX,X$.4.z 0 } =.q P ` * h.I.=.P 5.* : z m + : P L.[.;.4.4.T z x.' F ` l G ` j.:.z T O.P u x u i I h d '.} q =XoXO.- ; m L s : : . + d x.I.4.I.` F 0 d s + : u Y T.I.] C.L.q Y.k.4 *.T 5 I :.z L $.T.*.+ 5 P ` 0 P T.h.L L T $.P H P l G | k.f f C.1...} s : h u h m I.h.h s j h : F ` } q 0 5 P Y * 5 L =.4.z =.m.z * z j d } 4.k.k.;.V.%.Z.} & ",
"n.1._.} P _ 5 P T 5 O.* m s 5 z } ` q d = } L.C.5.} * I q } :.: q 4 | q.e.n.;.f P K.,X:.d * T I y m -X,Xz m : O.G.T.L.d y y *.` 4.%.d P x ; i ; h h $.Z.4.l * q B.>XY.5._ _ ] A.z s z 5 j P x h d ` *.x. Xm.F I ;.<X].C.F.6.8 w l _ I _ = = j.5.;.P z M T d = ;.5.5 F T 0 5 + T :.m s 5 j Y oXXXh Y z ' j.j.uXn.q ] _.;XY.qX#.T M i < y +.E.s * s m d d z P I } I j.b N Y h x 5 : : z z 0 ;.k.m.} f d j P *.z.z * q l f G :.m.Y.| 4 I f f } d =.P z J.j.F ,X<XN.Z.4.K.'.} * & ' L l P z ` & 0 m._ } h.m m.J.5 l =X$X3.D.t.{ ( 1.l q 5 5 * d j.:.:.=.* & j :.J.4.4.G 4 5 q f f -Xs.; u Y v ; j L f z } 0 G .X=X` d : *.*.0 0 G P 5 * * I | } l ` h h u * s Y h : h z d #.d 5 5 5 m P.G.a O. X.X1.D Z.| j.5Xz.i - & s I P & P C._ f F 0 T j.T m x.h 5 : + & _ H q G =XB.H & * A.,Xm i ; : d d Z.5.=.5.z 0 ;.].=.z ` T T XXk.Z.<X] s F =.} l 5.6. .f 4 z } $.x.z T P z ;.f 5.k.5 P.m.5 z z z ` z.f + =X0XL.:.` j - u #.*.j 0 s $.z.P f | oXlXoXz 5 s #.#.L ; j $.x.I =.k.} 0X=XI ` j.= P >.L #.z u j x I $.qXc.C.=.5 s } :.k.I = 4 F w c.].] k.C.n.).5.4.$.P Y z.m j s : z 5 z x.} :.%.G I T I s $.} j z s } j.:.: * ` L : * f $.=.H 2.N.H f P ",
"Y.] ] _ j. Xz F z h.*.L 4.m.` :.J.:.' L T oXj.= _ z 5 ` Y.[. X' P 4.;.X.] ] n.=.` L ` : I j.J.z + T L ` n.n.U N < h z I h 5 ` x.j.} :.T.` 5 - h - Y T.qX0XZ.l f = w 2X2X_.V.V.1.$.T ` $.%.} } q z d z z j.z I x.` ' P Y f l :.f ;.Y.C.G = q #.` 4.;.* s m s Z..X| z _ f d ` d P x * u Y x Y h M h &.: *.#.f '.,X[.1.A _. .q 5 h y - i h &.J.s : j x F L z f :.j.G ' 5 y h - z $.z L * * } 6XI.I _ & L ' z #.:.f 4 5.I G Z.l ` =.=.` %.` 5 :.qX-Xz L * F F | } k.j.d $.n.| q _ 0 & G ` 0 * 4.| 5.,X6XT.L J.x.'.k.Z.%X/.`.V.{ G n.P.:.5 s ' 5 d I f d z z z j z L K.j.f 5 0 f z } P d 5 F #.m.j.f z d f 5.F | *.: 5 5 z =.L 5 O.` : - L 9XqX;.L j.:.Z.q 0 m.9XP.L z z h d 5 & s s 5 O.f.h j } 5.l * _ $.d Y x - u : ' Z.$.u u ` 4.0 | 1.,XXXh ; 5 s _ f A n.B.3. .5.=.;.| h x *.F s z 5 j P 5 _ '.xXqXoX%.l f =.T f P = | | 6.N.[  .6.N.5.F f d 5 z z I -X=Xz z z T :.6.).).Z.| l z ;.;.C.n.A H  .;.;.n.T j L d : * s s : L P =.k.l G A $.#.s s i :.P.=.5 z z : o * f L..XT.k.F d q G  XY.m m.z m u ` j z.x.` G x.h.f f z T P 4.G A I | %.4.%.C.5.k.4.I } P s.$.; O.m s s =.oXj.z z j T T F G I Z.$.$.` d -.j.I 5 C.} & * z :.E.$.] 1.N.'.T j ",
";.} | Y.4.].F z z #.K.K.P.j.` T z #.d 5 L #.Y z ` C.*.T n.Y.m.'.L.k.k.[.>X6.=.XX-X5 h #.m.=.x 5 5 j + m Z.>.L i @ O.` d d Y G '.j.P j.$.` * + U m ` 1.A B.=X_ k.n._ X.Y.[.6.1.,XL.F T.-XC.T ,X| I T q * ` j.' 5 : 5 + ; L z d j P l G 4 d f z L oXC.} P s u P 4.P d z 5 ` x.*.:.O.- h O.s - i @ h Y + 5 L T f G C.6.8 6.). .= u Y Y u ; 5 s h * } *.} J.' z *.d z I P U ; * 5 ` >.=.` F 5 0 z G z L *.} f *.T #.d J.I j.=.5 f P } ` 4.f d Z.J.P | I 5 G F z T _ L z d :.=.& %.} q l G | G } I :.Y.j.m 5 u d Z..X1.H ,.e.1.1.5 `  XK.L L ` 5 5 d L :.} =.T d F j.j._ _ ;.j.z P f 5.:.d & I k.:.j.G 5 ' j.d j L x U s m =.' z.T Y u u u P.,X' + * ' =.5 C.P.' s.P.m T m ; - T T m m s i g j d Z.| | G q s : j U ; s =.5.5.x s z f = n.1XT.z.y ; =.P q | ;._.fXwXN.T d f d u P.Y * z s : :.} q | ;.4.5.:.G ` j.L.0 : F Z P N.6.w  .!.~.,.S N.k.d : j ' z 4.P.C.T 5 5 z _  .B.>X[.A ] Z.;.X.A. .S X.2.] n.` m G.L L j 5 m 5 P I.4.F ]  .G q & u g i i x #.L =.'.j.L =.n.1.] C.:.q I * 5 z d 4 >.5 P j.d F #.j.T.=.,XC.j z $.'...k.).Z.[.F P Y.x.F F G | F ` h.XXj m j j s : $.#.s d =.J.m.4.C.%._ 7 } '.oX#.& T F } ,XC.Y.T &.s.O.x.;. .[ | =.T ",
"C.L.'.Z.} P ` ` z $.j.I =.T T _ #.x P z.h X s d q } _ 5 P d T m.z l 5..X_.n.*.P.T.d ' m.>.* * * d j s P P s 5 d j 5 s x *.C.I 5 : z *.* _ #.L s S B.6.l q f 5.;.I f l f z P | H =.*.m f.j P j.T.m.z I z 5 :.=.I T z F 5.P :.C.I G f 4.T m.I.I.s 5 5.).0X=.5 5 j.=.I #.z O.:.m.O.Y < h P x h N # d Y.I * 5 =.j L F G q.B.tX2XH } $.:.F & f ` I l | ;.| I.` u T z s j =.s s d d 5 5 z ;.:.P } %.4 m d f w q * & ; 5 X P z.d z z f 5 u I l } '.x.%.4.F G f q _ I z u s l _ Y 5 I %.f f l x.} w & | 4.5 * P 5 P l 4 :.%.l G q d i ; P z.f L F :.$.T P P 5 z 5 d F _ %.Z.4.n.,X'.Y.| K.'.P j.]._.=.$.} * P *.#.j.$.j 5 - i O.I z j.:.u + * j.J.5 , p h d L |.cXL ` P m u i P s h =.h h m h O.P 0 _ N.Z.F = s 5 m O.x u m.n.;.I Y T 4 = ;.'.5 ; ; - m.I T I.5. .N.n.w 4 w ;.C.P z P d P L 5 P | N.C.5.` G l T 4.j.:.f P | q 6.;XA.6.e.6.).V.B.2.n.I z d 5 _ 5.f K.z.5 P j.z _ H e.o.`.N.6.q.q.;XV.V.q.N.T.s.a g N &.5X*.L ` L s #.P P n.B.N...z G.z.< ; L h.} j.m.Y Y P I * = 0 4 G z i h : d $._ Y.q.| _ F x.oX=.T ` d d j 4.,X1.A.N.).V.l G ` T z | } =.C.4.$.P d u : h 5 s s : : d ` J.6Xm.4.T.s f $.z } s 0 F $.'.'.n.4.4.P m h x.$.q = w =.=.",
"` %.l d z f P l :.Z.j.$.:.n.} d Y : G.h.h s s m $.z 6.;.P :.m.;.N.A l I l P ' O.z f f ' : * z ` =.* d m u u & F ` d s : d $.` + u h J.#.F K.m.T [.wX=XG ;.C.} k.F = z d O.' qXk.| I & h s O.z d l * d d z * s P d l n.n.5 Y =.n.k.f x.<X'.I.m.$.u z 5.Y. Xm.=.F P.T.M m Y j 5 O.h + ; m m &.n i 5 l =.| 5 5 u s f f D A ^ X.6.A q %.n.G 4.}  .A.A.Y.Y.].z - o d 5 z ` j.j.G.-X*.f z n.=Xn.C.;.0 * * 5.6.A.G ; a &.z 5 h u h s s h :.#.F -X<X%.I 7 H H _ k.G F 0 + L 5.].:.m :.} I ` 0 F f ;.H k.,X$.*.z F ` %.| d ' q P x j ; h :. XI.P l n.z z z z f q d j z l I =XL.4 * ] _ n.$.=.` j.pX1.z $.P h m i T s.I 5 ; y i s Y z G G u * s 5 5 m i y h T P u J.&.- : h y Y P.*.y y ; O.+.+ s L d f _ 5._ z z m.P & s : ` $.I T :.j.I 4 C.5.d i a Y z.s O.s.} 0X$Xl F _ 4 ] .X:.` G _ :.>.G $.Y.Z.I.:.I ` d 5 d K.x.:.=.` 0 %.].;.V.V. ._ >Xe.q G P d ` ` G _ 4 f :.d L 4.G F 6.8 V t.$X] A 2.B.3.{ F.B.G y @ a i < Y #.P z z d : j $.[.).Y.4.z h T g u j 5 5 ` ` u *.T = & = n.'.Y.P z h u #.n.r  .).^ H K.:.z T s ` j o P h.:.=.%.N.A.Z.= * s d =.,XG =.j.:.:.T Y u ; L 5 h z $.=.z s x.L.} P T * d T z 5 d 5 f =.$.].C.w f 5.f } ` G G ..$.T -X",
"` 5 l l } $.H l _ l G k.Z.:.F & P z z x s P T :.` ;.2.2.j.:.5.A.~.N.l z U i i h _ 4.;.d F =.I.*.d P x h h O.u ` P 5 =.j >.I & : : & z m.L d J.` F 4.A.Z.=XY.5.:.= F T T 8Xm.$.,XF.f 5 d d d s O.=.0 X 5 z Y m h 4 l 2.;.5 s Y f j.C.P T f f = * ' *.h & 4.6Xn.6.j.G.i m - P P.s.i i v h u v , a u Y '.-X} 5 +.s.z l 4 8 7 D X.2.n. .] Y.w _ 1.| :.T.5.j.x h - P z 5 : h.T z h.J.4.1.A.H G 4.:.l P T z %.[.} N N M *.*.u *.O.- i i z.O.` =.f  .rX1.A 7 l G | 4.0 z m.Y.T.m u q 5 z m z I H | G f :.` z :.z | _.Y.i X : #.M y : L C.;.I.z n.6.4 ` #.L z f 5 ` :.} _ k.I f %.6.| q f x ; u ` H _ T + + U Y O.d ` =.O.u u P =.j.q | =.f d 5 d $.h + j M u j O.m h M T T m s.' #.- m s.f.i 5 z L.k.I f } %.4.<X'.0 F j.Y.} f z 0 5.5.0 f P d i a p + : Y P P =X0X| ;.5._ I d T f K.Z.f f T oX-XT.,X8X| = z f 0 =._ _ } d s d l f 4 r F.;.j.` h x h x $.Y.>X).n.j.: : 5 5 : 0 G 3.%X<.w A 0 6.:X[.B.6.q G L T x s 5 m ` ' z =.O.& d 0 f _ H q 5 P m h ; 5 L z L L 5 L f :.} 5.-X.XG * n.oXL x. .] N.'.$.z |.h.& u j u s L .XC.L s 5 |  .| d d O.j $.x.F } T d $.T & d h.:.=.s.m z.x.F x.j.P ` } L u < W.E.h.T.P f f } 8X8X%.= 2.6.( 3.e.N.].| L m.",
"` f 5 f l '.].,X0 0 4.C.| l l z f L =.s.` s h s.J.5.[ ;X0 = G ,.r.r.Z.:.i # @ s | '.T.=XI.:.:.z d :.x 5 : 5 u m.m.: ' z.z.j d & + s + 0 z } j 5 0 5.;.4.'.T Y.k.| ` z f *.:.5 F q._ =.j ].-XY s.P.].j.d *.L h 4X=.1.0XZ.Y U m 5 q } 0 & q 4.j.5 z T m d z _ | G + y y # + h ` 4.:.; s j T m M - i #.| ;.>.z 5 : 5.[ l r D q.6.Y._.l 6.=X| C.[.= T *.:.L + *.+.d G z d * * d L j.'.A.>XA.G ;.k.[ C.| = _ 2.I h < s P h 5 : u h y : ; u *.Y.| Y.pX;X| [ [.6.| ;.5.].k.T * : P ` : j : z 1.n.[.,XZ.d + : z T P ).;.x s #.j.Y + * } } %.` q I G d T -XI.q d * j.:.q G 5.| ).xXY.F $.z y h Y f _ I d m ' Y O.z 4.Z.=X` m z.C.P.j.C.4.l 5 P h f 5 m u s j u 5 x s Y h s d + z L z < h M m h j.} C.MX=X;.5.P G oXjX} m..Xn.` z =.` f q f x.F X 5 M h : 0 f ` ' 5.N.k.%._ n.| d :.C.m.0 = P j.f = = P T ` F d F P q I n.[.4.x.:.* 4 w [ ).m.P m Y *.s.#.z f 1.2.=X.XT O.j s m.| = 6.wX;XI F %.1._ _.1X1.F ` ` $.:.z d >.=.=.I.J.#.5 T m.#.5 d L P P s h O.m #.$.d h z P ' P n.].$.l & I 5.;.` m.n.;.Z.:.m d : * d m *.m : m C.I.&.< d 4._ T =.j Y j j K.| 0 T j d L ` Y =.=.E.m.L z F ` J.j.T T s s - m : T |.oXL ` K..XZ.4.| l  .e.r.`.[.).F = u j ",
"F L P P f ;.7XZ.4 = _ k.G F n.j.z.$.I z. X*.z z l 4 _ P * z q o.&X0.Z.%.d s x h L j.*.'.m.5 : : & ` L ` :.z d T 5 5 } P z d d P z f *.} | _ I P x.C.s y h u C.].| G 4 l ` d * f Y.j.P 5 F 4.L z x.K.I.d ` d : T ' I _ z m v u s 5.<X6.2.6.1.;.I * 5 F G T.>.d u X ; p @ g =.= & _ z ` P l f $.z m.:.>.n.%.d d 5 4 %.2.3.F.2.} C. X8Xx.` } ` z * i G.m.` m M h 0 n.Y.;.;.n.6.A.Y.T.J.] Z.q 0 X.A.[ A +  .>XF.z s * 5 d l l 4.n.K.Y * *.z z n.| H ).N.n.Z.%.F F n.m.` & z *.C.m.y y h F ] _ N..X-X$.m 5 z >.I 2.1XtX| F j.6X:.= d x.T.T 5 G F = d $.` f f 5 d =.z } ].C.5.oX$.G $.d h + s _ | } j.m.=.` j _ $.rX).= P 4.I.K.Z.G 0 h i < T j.Y.oX} d z I z j.P.I.n._ l G I j.G.M h - * s z F G F %.7Xk.F $.| C.f | ;.j.=.f j.T.x.'.:.$.:.5 5 I 5.l _ Y.4.f oX<X5.l } F * #.*.} F & = I } T ` j s 0 =.T.l P I F 4.Z.Y.T =.P 5 5 %.<X_.l u U v @ *.:.} N._._ 1.F ` :.0 = L.$.* G F z z z h.} 5._ l } %.T l ` j.m.' * $.' I.:.:.x.Y :.m * T O.; i h &.*.z m s x m O.j.P f P.j.P I n.Z.I = * ' I 7 ` F d : h - ` z.T g u u m Y , i - m I.$.5 : + L =. XP & z : d :.XXh.z J.m.P s : z :.=.j T d u L U m =.L Y m h x..X5.0 * ` $.} k.1.G 1.| 4.P P T.",
"XX' z 0 | ].L.l } _ q ;.G F F l z =.T z >.z } x.l _ P.F d 5 l [.).[ | ` L O.I.Y x z : P m d I z z I. XT.-XG F ;.` 0 z P f _ K.kX6X%.Z.n.%.5.n.G I F * L x : 4 I l w q | j.*.` -X'.$.: d 6.N.` =.E.m.I T L z x.z * L >.*.Y M y j  .F.>XS S S q l _ l H l ;.$.T U h h g a ; d l G G 0 _ A.7 H Z.Z.$.d 4._ 5 q 0 z = 4 5.1.B.[.l & #.Y d d + & + ; y ` j - a i 5 5 f ;.4.| 1.1.l f L ` 4 _ f z Y.;XV.N.l n.tX>X,Xj.f ` 0 0 F } Y.].j * P 5 } qX5.4 _ l P :.5 & 4 5.;.G * O.*.:.+.y u :.=.Y.k.= #.P *.qX' G l } X.).wXN.q ` 1Xn.= m.T.F & _ uXL.4.z d ' T z m 5 z l 5 q l f d $.I l l * 5 ` | | f } 1.1.l z f G 1.S l F | G = d =.:.m h y u Z.Y.} F f ` m.:.P.} n.[.G V.Y.| x.` h m h T 4 G K.` f f f 0 :.$.*.qXq & I I 5 z G j.T.K.:.$.f 0 = 4.Y.2.] Y.].0 :.F 5 z F _ L ' ` d $.k.| G P j.6XJ.` T P F q G 5.} G l ;.| * h + 5 %.n.] %.5 u y - u P Z.;XZ.0 _ F F : 0 x.4.0 5 d - T &.s * P l } '.$.n.n.` f z :.#.z :.L :.z d P j j *.*.+ u ; u 5 h h s j * h h m T.=.z m.` _ 6XI.= I.T.h s F G T s L J.O.#.|.XX*.+ h u j : - < u s #.C.j.Y : : O.=.z ` P 0 s T =.$.z d : T *.s j j.T.h.L d T j T s *.O.- u L L G I T *.z I z T =.& d ` L * F =.",
"#.I 5 4 f 5.F _ ].0X'.xXL.4 l 5.G >.P * P :.| d d m L I Y.} s ' L s I C.*.U h a m u s x m z d u Y L =.m.m.d 4 G :.| F f | m.x.T.].:.| = * l 5.q 4 %. .X.A.^ q _ ).5.q _ L * U m.4.$.: h _ A 0 z.m.J.s.L #.f ` L f $.n.n.z.' %.5.H 2.X.8 ;.q.n.).%.Y.xX1XI d z.Q h 5 + + m I ;.$X_. .l n. .H  .[ A ;.].$.F F l ;.A. .l f G 1X>X1.=.O.d l G *.j v m - Y x g @ M Y ` d d s d 5 5 =.z :.'.$.s @ P | 5.] $.T.[.A.5.;XA.5._ 5.;.G j.} u 5 d 5 _ k.6.T.=.$.-X-X:.z & l ` P j x } :.M y x L z ;.` d h u ; ` :.P 4.Y.1.D N.1.z 5.I l & T 5 = q %.=X` T.$.5.8XqXP T *.T j.P z l 0 5.].5.Z.] 5.z.P 1.n.f  .iX'.F G :.f 1.I q f Z.` 4 f T.'._ | 5 : F z ; L F G ` I 5 & l >X1.V.] | z j u d : 0 $.=.d z C.P j 5 5 L *.*.Y L $.0 F '.k.F %.z $.:.& & w N.Y.B.1.;.A.;.:.d & P 5.'.j.=.m 5 | j.T I.,X|.kXP.s z L j : m T.:.f } '.j.` : s L q | 0 = T M a U h 5 1.q.w 0 $.4.0 o z m.h.4.h - a g g ; u d : z :._ C.-X>.I T d * z 5 : f 5 5 5 * } T.Z.` I =.j.P d u 5 ` x J.I.s & 5 s d ` f :.G f m.x.U +.'.j.z O.*.Q L L Y : j j d z _ I L z * : j z L =.m.=.` m.#.:.L & + * * P #.O.*.=.P h z s 0 L s 5 L s j h U g s T T c.P L O.=.P : 5 Y U m h j d T 4.C.",
"h h x P F G | | 6.).Y.'._ = G k.G 4.} d z L.Y.5.s m ` L =X,XL + s m Y ` P |.h a Q M ; U m u s s #.d s z T d T P x.T.z T J.d s L F T P ` 4._ 4.0 4 5.N.1X2XA.w N.1X_ _ G j s + - s d u ` K.k.G 5 s *.j.` f = G >.5 5 0 1.x.G ;.1.1.N.w 1.<X;.w C.k.F Y.C.5.G o ` =.d * P x.$.D X.] A A & l ] S D ).} } j.n.C.N.6.1.[.<X%.I L.Z.A ; s = D 1.;.#.h y h =.Y g < T m.s.L 5 M M m M *.j.m.=X.XT M T 5 | ;.m P | w * 1.).w f m.=.* + m ` h ` -XJ._ f P 0 j I I ` h 5 ` 9XP.: m.-X:.u h : * z F ' s h M j.L j P I _ 2.B.<XF 5 $._ F d z + z l 4 q z q I I.` : : ` T d j.$.C.| 5 | H G | A  .L..XA.8 _ L.q.n.;.} $.m.Y.;._ 4 ;.l l L $.j.4.].' * f 5 h M } | f 4 0 N.A.2XwXr = _ d 5 d f | ` j.m.z s.' z L : z x L s :.` $.oXY.| ] | P z h 5 I T z 5.;.G f n.N. .$.L l ` l %. X*.s z :.;.l z J.j.P m * s s & + z Y z d = f d ` L h.#.} A.C.} T i O.T P J.[. .+ f K.h.0 } 5.F I P u g < p p ; U m : h I :.` j.} 5 j ` z z 5 + L =.5 m.m.$.P ` P l F n.T.T j 5 s s T.z.Y d ' P.f f d + T j.5 u h Q F d u u - - ; + j : u T 4.z 5..Xm.s P ` s 5 ` x.x.x.j.T.L L & L =.d d |.I.Y T T ` P z f & T $.j 5 P b g g < h h.Z.m.z 5 s 0 d s s m O.Y ; ; z =.C.C.",
"Y s :.:.$.$._ | 1.l w f f | 5._ } C.k.| %.F Y.I.z s M g L -Xs.- x *.$.;.| T s M +.+.y j h P h z.*.L h 5 #.*.h d d h h : u z O.I m L h x *.d & = 0 I n.Z.| ;.} | H _ ;.$.*.y ; @ 5 x h y I.iXT.' h u x :.$.G _ ` - u ' z x T 5.] _ G T Y.n.P 0 :.$.* * d q 5 _ L.,Xx.u *.*.}  .F.;.5.;.f 0 4 l 5.5.H F n.:.=X<X;.| 6.C._ F L.| 5 : * q.~.$Xr * s u y L z h a - m P U m Y @ @ a a u s z f +.G.m.m.n.m a m d 7 2.].T 5 * + z #.$.P.5X` $.jXY.5 & = j & & d z.P x m.T.5.* ;.O.- s u + ` '.$.j i , p *.|.4.P 0 w r w z i m z O.:.Y z L :.} Y.$.$.f f 4.z L 5 P T.s o G '.=.0 %.q q [  .9 6.rXtXG 0 $.A 6.5.z m P d f G  .Z.q z j + *.T.T.h s ' } 5 d _ ;X'.G A 0X_.5.{ 2.G %.l l ;.Z.).Z.I ;.z.m + O.x.O.O.s x h h s z K.l q 1.n.5 5 5 I I.x.` m - + s F ;.%.& 4 l H ] 1.n.:.* m.iXY.G s 5 d m Y P F z z z d 5 x.=.f z F O.P.J.j :.Z.uX'.*.h h - U } [.1X| 4 j ` =.=.$.` } j u g , p < i a < M z ' j d *.|.oXj.` z F d z T.:.z *.` 5 * : L *.& m z.M m h ; s h m x - #.K.$.oXZ.* f z z s < u #.j.&.: h Y u Y m O.XX#.; s f x.Q u P.6X` : K.4.G d z m.T P 0 h.I.s 5 *.P.j + s.-X=.j.T ` :.z z j j.*.u g O.m =.m.z %.].=.` $.T : u b h u ` F q k.k.",
"d P z.j.$.5 0 5.| F l q 4.'.C.l G k.6.| I l x.]._ & ; + * ` P ; ; h d ;.L.k.z : h : j &.f.O.T T.Y m x + 5 :.$.s d x I.s.s P |.h.s z m s 5 5 P I _ q T T.*.:.$.4.;.C.L.-X*.h g ; : ; < + 0 :.K.#.m +.z.G.*.z.<Xn.5 h I d * P I %.n.T $.:.P z ' I 5 #.*.s = f Z.N.G 5 s d x z _ Z._ ;.q $.5.& A S | | H K.;.} C.).1.l 0 4 G G q 4 d q q.~.`.1.L i + x *.Y y Y h O.` i h N v N O.h h * 4 ' m &.m.#.j m < ; * _ 5.5.s T +.j.O.` $.L L z z :.P.` G q 5 s z s j.i h -X XH G G j 5 5 I ` f l 0 z Y y , o :.P.5 l _ A ` y v m u - s m.L d _ 5.k.f ` I n.,X` h ' ` T.j.0 m.I.f _ %.l 0 | [.1.4 } A.5.#.d l F._ + z u 5 P N.Y.6.I s : M U O.#.* &.=.j.s z f w 5.].B.2.A 7 5.N.5.G ` Y.Y.n.l S } %.#.h.=.5 T G.E.m.#.P z 5 x =.H l n.n.5 z s I XXE.i i M ; + >.'.;.f I S X.N.n.G 5 & _ 6.q 5 d L L j d z P P z ` $.F m.F | '.P j h : J.].%.q F m m < - s z l =Xn.0 F ` } f z L & L h - a g < u U s Y O.z.x.j.x.J.-Xm.I ` ` P F ` =.m m m s x m *.` * ` j.z i Q s j *.*.L j #.J.n.=.P m O.h.m ; < h =.XXh.: ; < g v.s.@.E.h j I $.m.h g =.|.O.s h.` I f : z } C.} o L P s O.` m ; z P P 4.f q f f z j L $.O.$.x u : & P x..XL.K.XXh.z z u g L =.4.%.l = ",
"=.j.oX=.` I Y.'.l f l G Y.=X;.I F ` <X7XZ.G $.` & q _ l T 4XG.h i - * z G %.T = d 5 h *.*.L I d j.4.*.L *.T.j.L P ; T O.h #.J.u + y m + : T F :.Y.l | j.K. XI ` 0 = I.oX4.:.y h ; * h s 5 d G 0 4 *.+.2 < T I } T s s L s #.K. Xz z z I z.z h m O.U >.$.6.C.| l 4 l I * s h d 5 P oXm.l  Xj.I 4 4 G l = d F _ F f 0 d z _ P 0 x.Z.F & 4 * d d o x f.z.s.M M s Y z.y : m *.*.L m d 5 f ' 5 h 5 m T s a x d =XN.= : =.O.z x s : + * L j & } :.l d I #.Y h M +.x m.m.1.;.=Xk.H 4.| | Y.| %.j.0 L T.j.T * * ` m.f F u + s m m u j.m.+ z ` * P 4._ d T z z T } d I ` Z.4.F _ } q G n.N.T 5 5 Y O.T : A 3.} C.=.j #.-XZ.%.n.| d y N M L F d L T 5 h j.Z.G 4 d <XvXn.& F _ _ T z 5.5.%.w 0 F ` j.z L d z j.5X$.*.K.d + 5 $.6.q l 0 j.cX9Xz.z z L $.6XqX$.f A ;.| w  .[.2X;X| f F $._ z 4.P z *.z & * & d L P $.;.:.I I j.z d h : *.T.G 5 0 Y s.h u u s G Y.n.5.4.Z..X} & * F 0 : P g p M =.oXI 5 P.J.:.XXI.m h * f ` ` f T O.s.y U g - - P -X X* :.-X=.; m Y m #.P h O.' 6X8X} ; ; ; i T #.- m #.0 } x.0 : ; N @.< h m j | ].c.s g m T j #.s f T f d * } C.T & z $.s M m h d u u s = } L.,X| & 0 : j d 5 s x s L } P } L.n.F z j T P s.=.s $.m.'.5.",
"` ;.%.l G f ;.| ;.].G = _ } I l $..XK. X,X` G z G } Y.F.T.T.f.h m P } I :.%.f G Y.} f f 5 T.4.$.oXn.C.m.*.I L O.T i 5 y i u u u - i s : * :.'.` $.q F | n.T.I 5 5 4.cXJ.T *.5 y m ` m.I + j.;.+ q d a n y i F I C.k.` ` q ` *.' #.:.=.J.m.m j ` O.& = G ;.;.F q f | :.z.*.T M u m m.P + ' ,XJ.= z _ G 0 G *.n.F $.m.j.I = P z n.5.6.4 0 f :.P.#.5 L s.P a y u m T u * + m L X s ` G j.T s h i T G.#.: x d ;.j.z * } T * 5 d ` *.` s } :.} 5.x.5.} P j O.*.x d | l w _ ;.1.5.0XH 4 1.].Y. .4 H .X,X;.*.F P K.T s z L s m ` : d J.I G z 0 I.J.z z :.#.T I P * o f l H L.=X_ = f } d 5 5 ; j T s $.6.N.Y.Z.G 4 f I F 5 q ;.` h N < * =.` m 5 5 x z ;.I z z k.2XY.5 z s 5 =.E.:.I.P.| ].:. XjXj.5 L T.J.j.5 L ].5.= f ` n.6.q H C.].oXm.*.f | =XN.>X[ w n.Z.| l l _ 5.C.z m.I.-Xj.` } P s.I : 5 5 z.T ' L 4 z ` P 4 | 5.d C.I P T.j.` 5 x T h Y j o G } n.L.$.x.L. XL.$.C.I.Z.j.g y i ` :.f z Y P d *.:.T I.x.5 T P O.O.u 5 u @ s m x z L G P F l C.j j L } I $.: + h =.T.` , , g #.J.T.b L l.P z ` z L N O g ; m.m.F 5.'.4.: : s #.h.m.z } h.F 5 + =.=.z 5 : 5 < u < u : u u & f N.Z.C.;.T I m z I z K.h.u s h.m.4.4.G | ` *.m.$.j.O.- g s $.k.",
"_ _ ] 1.H H _ 5.Z.1.= %.} q F 0 L.].P *.*.j G ;.n.I 6._.T m h i j.j.l ] A.B.4 q.0X;.F T ;.C._ q '.].].C.L * s s + ; y y *.+.i h u s.m.>.q x.K.} } } 4 I 4. Xm.d d j.=.5 = $.h 5 :.| G _ F Z.n.I | 5 h h i j C.5.n.;.} f ` m.j.>.J.j.` ' z z Y m.` I 5._ q d 5 F 4.m.f =.j.*.; m Y h U i X & h 5 *.` =.f F C.:.G L.` j ` $.z z 4 0 1X].<Xj.' =.z #.P m x ; ; i h y x h s z 5 : d } P *.m - X # X * ` G F s s ' Y j.z.P.T 0 j.m P h L '.T.=.Z.<XZ.I m.#.i h h z | l ] N.8 X.N.6._ q.5.[.q.= w F.[.2.).vX1X'.4.z F F :.F l ` q F q F N.;.& : Y m z m L $.x.T 5 T Y.4.1.).N.| l z T d d T 5 P 5.5.<XZX,X_ q G  .G 0 : 5 :.lXx.z h m x.x.z 5 * j & u * 5 z T %.Z.T : 5 u M f.&.m +.s s.m.u >.qX$.z T _  XT.z :.].qXw =XY.N. .] [.1.G f =.Z.G Z.B.,.<.o. .B.Y._ $.f & 0 L P } Y j.m.5 - h s 5 P ; s O.h : z j. XC.5 I T f } :.I :.Z.` 5 z z + : s m L f l _ C.;.| I k.=XL.F 5.m.m.h ; u m d q j I } f f 5.I.>.Y j y - : * x d 0 f =.5.F = & z Y.>X6.G P $.P 7 f l > : s f | =.i p m : | Z.F j h - > j z j b , b b z ` 5.n.8X|.T.m.: *.*.d j h.T * F L.m.oXm.5 & s T #.: - $.#.s T } ] .._ l I.6Xh.4.$.z ` s + s $.T.].= & 0 T T P $.*.U , , m : ` ",
"Y.| 5.,X,XxX1.| k.| } 5.%.%.q ;.6XY.} + h j.].Z.f ;.).1.* x y d j.;.F _ ] H ~.X.1.C.n.%.F 0 f G I n.} _ $.5 P y i - O.W.O.U @.@.+ h :.} %.G I } z G f z '.n.=.` m & & G T I o * z :.L.A.Z._ 4.;XB.I F 5 5 5 I [ l q F ` 4.` I I T 5 f 5 I d ` d T } l z G z h $.& T $.z : U M T u y m - j z h h I  Xm.5 z :.| d I d T G.L 5 f l | H ;.x.d d :.-XcXT z M h f.G.u ; m d 5 5 5 z z z j.P u h g @ T :.].Y.I y ; h L -Xm.z 5 $.-X=.& T s P z 4 z 0 = G m.s ; v.m O.$.;.;XY.C.n.1._.Y.5.;X| _ | = 6.rXq.q.].xXtX] F 5.n.;._ N.H %.C.f * q f $.$.$.*.s O.>.G o u T I $.} & 0 | n.[.%.* l + 5 f 6X].:.= G d z z G 0X0XH z j P %.I z 5 U s.j 5 5 P.$.* 5 s 5 h T G *.P =.U + h g @ N M M y y h z d & 0 f + T l + T 0X6.5.1X .l l l 1.1XL.` } %.;.n.| 2.=XtX5.= | d I J.L 4.' u * h O.*.x - - - +.=.s 5 s L z L Y #.=.d z G K.n.z ` x.,X#.5 z 5 z h x x j d l 4.5.| G P 4.0 5.-XF + d j.` *.L 5 q : :.5.5 5 P I s 5 Y T m T m z d =.I = * | =.:.$.Z.[.:XG q :.C.5.5.5.Z.c.} %.[.4.T +.g s l %.F u j : L Y d m < + U h & l N.4.s d L.I s L s u 5 $.I.` ` :.h.x.x.T h.XXoX|.h L P.4XT.C.l w A z f T m $.=.L | ` ` 5 : z =.$.F 5 0 #.T s 5 L u i g P.T.;.",
"$.P ` 5.=.5.:.j.P I k.C..Xl q z P ` ;._ 4.} F d q n.Y.| u i ` T.$.l F G ;XN.~.rX6._ L.0X} F 1.H l ;.4 l F : & T d.M m T h h +.W @ ; *.5.n.n.4 0 0 0 k.} z I :.x : + #.'.z & u $.J..X5._ * w ;.D 8 3.B.N.] r 2.).8 4 G 0 d *.:.I L F z & f z f 0 5.'.=.P L O.d d d  X6X=.+ +.z.x 5 + & 0 j.Y.Y.C.L.5.l :.:.d f } j.' #.` d 5 L ` ;.w 4 P P O.-X*.m p ; ; y Y =.P 5 5 * o *.m d m ; & 5 z j.C.} <X0XC._..Xm y O.P.=.P + d J.T.` z P : T m.$.z A 4 I d : z.W.T P * 5 d z T d d m.%.l q * H 5._ X._..Xl 4 + 7 ;.F.B.=X_.;.| | | I F : + P qX9Xm.m.#.J.I } F h y z z %.n._ A Y._.H 5.Y.6.w z ` *.$.Y j * + & f j.C.G F F l _ P - p , + * h ' m.L L s d z I =.P O.` |.z.i M *.N y , p p y m #.` z _ ;.k.4.4 q ` $.l n.P f _ z 5 :.6X'.f | G q f * P =.P * z 5 & 0 %.n.J.T : d s.I.=.L & s h O.m 5 s 5 * z j.=.z d d j F z x x z j.` : d m s T 5 5 s : 0 *..XY.G + o & P T ` #.d d :.].T.z 5 * z m.' u x s s j m P *.:.|.` + & m.%._ H z J.T.l T ;.N.^ 7 L.,X'.;.l 4.Z.k.Y.A._ P M #.oX1.1.I.#.u j *.:.=.} z.z.z.O.  G N.4.5 T j.0 * : z : z x.m.I.` L ` s ` I 4.m.#.` 5 =.z.T j $.d j 0 4.h.` T x.x.'.4.T z j s j F } _ 5 * j : 5 s $.O.m i *.C.N.",
":.I 5 d d s f f | } F } ` | ].j.5 5 ` ;._ d : 5  . . .I : @ d z ` $.& 0  .;.n.6.l l 4 j.J.Y.%.H ;.| } q F ` s m U < y U h ; - < a i * :.6X1XH ` Y.G f } F 5 z 5 + 5 z ' I F ` ` #.I l T | %. ._.;XF.$X1X`.`.1X6.l | L.= 0 =. X*.z z.f q F } z F q z | j : j P G z n.K.*.s *.j h G G H %._ | 5.| l $.x.C.*.4 d f z :.m.m.T j =.4.q l } -X6X=.y U @ X o N P * : Y L j : 5 * j x s u m x 5 L.<X]  .| j.5.j.P : P 9X#.& d * =.K.d h.` 5 m m.'.k.| | 5XoX*.P - j T z d * s h s ` I d G } F 4.1.1.;.| %.q %.%._ _.).H F ].L.q f = P j.` u z.-Xj.m.:.-X` 5 I P m Y 5 q ;.L.| l 5.l q n.n.Y.z f d z Y |.E.j.O.L =.` z 0 :.'. .5.j.x N c m s u *.j.z q 5 z s s d #.i ; ; h M v g v v v p @.v - z T.j.].=Xk.%.'.j.j.:.z + 5 :.C.:.z z I | k.'.| 5 z h + a ; ; 5 d F f I | f l L } >.z.$.P :.} T z L m.I z & $.K.T $.m.I.oXj 5 Y L Y *.z.G.L #.s : ; h 5 d 5 d %.Z.m.n.x.G G ` : : u _ C.| 5.z 5 5 4 q :.s ; *.T h 5 d ` :.4.` j.z.f  X-Xm.u L ` 5 m L l H f | T j z 0 | N.H A  .Y.P h #.-X4.I j.T - & I | uXm.L O.h $.q N.k.P f s | z * : L s j.x.x.$.d s s z * $.=.5 & * : j Y s d 4.P z s z h L m h P :.G z o ` E.4.f $.$.0 d L z j.|.J.J.P m P x.] ",
"q } ` } _ ` H H Y.Z.l d $.Y.'.4.z z T z l =.d %.] 6._ ` N @ : I F z 5 & 0 I P I P s d h M P 5 I ` l $._ 0 m *.T M h G.d.h m - h O.g + 5 z } 5.;..X} I %.I d I F m Y P 0 4 F s * 5 5 *.m *.` 5 l | | ;.1.N._.6.F H L.C.C.z z  XL & 5 z I Z.5.L #.x.$.x * * z H H _ %.` j 5 m u : 0 S G ;.} | l f 4 z 5 f 5 q 4.d 5 =.4.` } d f %.;.L.| Y.z.$.h j m L + z.` y h 5 : & d z E.5Xh u h i 5 : ` '.$.q f s u $.z I $.} l 0 z #. X6Xd z x + d L 8XcX%.P *.Y h i s * * z d T h 5 I :.:.0 ;. Xk.5.S G 1._.I z j.x.} ;.5 F s *.z * = d q P #.*.j.L =.>.L m.d 5 ;.I.M h O._ G k._ l 1.l l G m z.O.P s m P J.-XE.4Xs.h u ; ; m I :.].-X` Y Y +.h s I.-X4.l | *.5 * * y h h h P O.i : + h v @ v W v L T.j.H 6.I ` J.m.T P _ P l 5.T.I.;._ %.] <X=XC.l z m.d s L m F ` ' L 5 d | ].<XK.} ` ].].'.n.| ` f $.P.$.= `  X_ z =.T.` & 0 d I.' m.-Xj.:.:.x x J.*.P 4.G f 4 =.C.Y.qXuXj.O.M : m T.[.A G _ & T n.P z u 5 :.z.x s : 5 d d 5 #.Y h O.s.h g @ g +.M x j * s m h s z P } _ | 1.F.Z.f * = : = F + : : I k.G 4.F 5 - s $.} C.;...$.I : j d h s s j =.=.z $.m z L : P P } ` =.s L m z ` '.%.d i h < < u : d I 5.x.` d Y z I $.P F I } T L s.j j j d d P z ",
"} 4.:.'.j.L.| 6.n.C._ 0 } I P j.z.T Y I $.I._ ` Y..X<XJ.Y u >. X:.* P :.T s.z m.m.* h x h : - + * ` P q z d : :.+.y m y m 4Xs.: i y h T h : n.Y.H f ].<Xk.q f z *.I $.d I J.z F L j.s.x s T :.4 j.4.+ 5 F d 0 5 :.m.F 5.F = 4 | G : F q _ d 5 z ' j.z.h + L _ ;.| 5.j.#.T.I O.z I q.q.].Z.j.4.$.} $.$.z T Z.` f m.-Xf $.uX8X` _ =X[.%.F j P u j *.W.L h O.z.h 5 d >.F *.P.#.*.+.z h h j x d f q q L U m z  .Z._ l z #.|.,X$.* * : *.*.z L _ G z d * ; h j F ` P T F d * d * 4 f I f 5.H 7 H [ H G F q = :.L j d Y m.P ` } P P F T.j.= d :.d z + h P 5.T.m *.I.T z.6XY.I 4 0 A H x h h u 5 #.>.P #.` x h s : ; i X m I.'.z = h y ; ; : 5 J.P.0XP.h m.oXm y M G.x h Y x + u :.j.m ; ; h x *.} f f P l I ` m P f q %.;.4.4 } 1.Z.4 | H 0 | G ` $.} C.' j d 5 j.:.z q m.Z.n.I T %.N.5.l 4.q * _ 4.%.0 G H 0 G _ 4.F G :.K.j.L d j.` P 4.T m j.m L } ,Xk.T G ` P 4.P.:.z M : j m.N.q.f z m F ;.5.z 5 d d 5 T z h 5 : : :.m.* h - X < b a g i *.#.: & s L g s d z %.'.N. .A _.n.` z 0 F s : & 0 ].%.P 4.| 5 s h s q 0 l %.K.f : u 5 m ; 0 5 z F h.T.4.- d s s = G C.4.s s 4.z | 5.z P U b ; u p.P.$.F 4.$.T ` *.} f G =.x.z P #.=.s s P } s & 0 $.",
"G z L #.z Y.N.N.Z.G z 5 l w q P L m O.s.m.#.5 M *.Y :.:.C.| d C.J.s O.s.m.` s u j h y m s.u ; - < M :.q f f d z h 5 ` s.j s.E.j h T |  X+.; 0 ;.5.] | ] I + 4 d T n.j.* I T * z. XI.j.=.O.m.XX:.$.z.*.z } } * d j.j.| 5.H 4 D ).:.5 4 ` T.oXT : h j h s s T Y s + u #.$.6X].;.;.A.5.l } } F =.*.#.` T.*.x.L d =.-Xj.| z *.].;.1.).).L.z * + y i i M M J.4XT + d z L #.I.#.U U m | 1.*.x ` | ;._ ] A.x.' } F N.[.} ' j L '.Z.d d 5 *.T ' 5 * 4 f z h u + z T.4.l *.z.P s s L d 0 5 F } q w | 6.H w | H H _ F ` P G ` | f j.C.G _ :.d d q 5 L z ` &.z | T ; U P d z.m.I } $.} 5.j.f + f ' 5.I _ _ oXI h h 5 5 m h L :.4._ G n.Z.T I z : ` -X:._ $.+ L x.z * T s.:.x Y j d f I.Y.$.a i : * z 5 z m F d m s : m F $.F 0 f f 4 4 _ | w | 1.G ;.q :.G F ` } z : >.$.s 5 d = q I f q q d & 5 5 ` =.F 5 d 5.].k.5.,X1X;.| =X:.` oXoXC.} f I u ; - s m d >.k.].| z = 4 I P 5 s 5 d j.;.<X.X_ s & & ` z.z f l : z m.` T L } T.z.$.z d z s i z.K._ C.mXL.& & j u : P -X=X).6.= D [.7X4.k.T } =.k.J n.).4.;.f f z #.Y 5 d 5 L $.} P m 5 : h T } f P } } ..q d j s f I T $.T z z K._ 4 7 } h.x.U < g d.O.L : f 4.h.j.h.x.z F 4.'.:.XX|.*.j : K.].} = n.iX",
"n.} ` d & f Z.;Xn.q : ` =XC.5.J.m.L h s.*.* u * + v m * F w o ;.XX*.m *.z.s.z m i U Y M M O.M y a ; G | ).;.5 z T *.d L 0 s z x j j P.9XT i q N.1XA.[.D ;.F. .6.7XZ.d + d ` :.d #.z.I ' x 5 L } d z T * d z s f *.} 1.2.| A ~.e.} =.P n.qXY.j.h i ; ` #.I h ; ; ; z m.=.5 :._ Z._.;.5.,X4.d d * : s x + X + m Y #.Y I P z q I l } 5.} * * - U +.b @ < v.+.u 5 5 z z j.:.*.j - z | H *.s T ,XY.4.N.r G l _ w 3.F.;.' s ' $.f P L 5 L } * f z 0 5 u s s s Y 6XP 4 Z.-XM v m +.L f z T.=X$._ 6.2X_.| }  .n.1.l | F f q z d I ` 5 z z f $.:.I z L #.; u Z.m.h M x 0 z 5 * #.P.:.4 q = q | $.C._ G C.7X>.Y s 5 L h x I.:.0 & 4.Y.,Xj.T Y x.#.x.*.` I z d * m s s m  Xj.j 5 d 0 } ;.f U i M O.G.I s h h :.T.` u s ` Z.].;._ Z.k.F [.L.| 5.1.'.L.$.} G = z F z l } L q & l C.z * 5.4.= ` ` + L j.d 5 f T = '.<X'.=XL.| ` $.z P z f I 4.| 5 : h O.j x $.j.%. X| 0 } ` >.=.d #.J.m.K.w q C.J.L z.` 4 d >.k._ d ' jX*.` P 5 P J.Y P j d I s j.L.Y.Z.4.Y.:.C.} j d z :.=.l ..F B.7X6.f k.k.P Z.A.A 2. .4 f l = 0 >.>.5 5 d T L P z L h ' L x.P = 4.C.4.Y.C.T s d #.4.L #.x.$.C.,X,Xn.f } } j j Y ; b Y L $.I } I d F $.} } ;.L.K.h.j.P j s d F f C.,X<X",
"H I *.z : 5 L %.z 0 & ` qXiX X*.d z 5 f z s P ` >.#.Y x d : F K.:.j T ` h.s.5 L h s Y s.s.E.z.5 h f 5.6.B.N.l ;.x.0XG & ] I * z x y T E.h d I G  .] B.[ 6.$X_.;X=Xm.h * n.n.T h s ` F %.j.F F + + * & z m.j.z = H  .1.7 A e.q.,.:.*.;.I } ;.#.h - + P ` j.T y m f ` *.s x j.| N.Y.;..X Xj.:.G.*.y x T I : O.P u s M Y O.x z ' 0 G _ 4 d O.u y g v v v ; v v ; M s.T.L I x s U m | 5.i + I } j $.B.:X[ | F.X.%X%X;.P m #.5..XJ.d n.Y.Y.H F F x.} + d P L m *._ l =.P - i i h s z :.j.$.G n.1.N.6.j.Z._.~.q.].].*.* ` P.m.d h d ` J.' |.oX$.Z.j.d y m  X=Xm M :.I : : d ` 0 $.n.l 7 N.'.G G K.*.} *.P.P * f } h z N.r 7 H l 4 z h s P s & J.P.4.L.G + * 5 ` z s z.*.d z >.} .X=XG ; a y Y 9X*.u L j.8XXXh ; : q 6.qX[.'.iX$.= f d } %.4 L.oXP } j.| Y.T.} q | ` G I I =X_ | Z.j.=.K.=.5 z Y z F d 5 d ` 4.:.} A z j.m.d ` ' } L 5 #.m ; &.s.s  XXXT | oXT 4 =.I q l l K.oXz d 5 d z L z >.#.F ` T.H 0 Y v U j x.=X` z ' *.#.z * z f } I $.T & l L.).k.l G z F z 0 F G I _ | %.=.j._ Z. .%._.;.= l  .8 _  .D l |  .m.d L Y L j ` P 0 I ;.:.` L =.j.O.Y s O.: j T z $. X'.4.C.5.} 4.P P &.b h Y XX|.=.d P m | m.L.} f %.4.` O.j Y j * s C.:.` 5.",
"{ 5.=.h i x T z I } L d I } >.z =.4.H %.P z ;.;.L.` $.&.h u j m.T.5 u m :.z } x.#.d h m x x.T.P I l Y.1.B.0X%.4.G _ 4.7 5.=X} =.I j g M | } l q r N.Z.5. .[.`.e.0 4.m.z x.Y.z u 5 d k.A.6.k.L d h j } j.T. X` F ].<X5._ F.`. .l 5 d $._ G ;.=.: : s z l } *.x m 5 d 5 h j #.I | | & _ = 5 *.XXf.: +.m.P - U ` * ; M m L J.T.' j.C.=.Z.>.*.; + i i u i M M 5 - h m P u u 5 h s 5 ;..XY 5 I & + 5 ] %X6.6.X. .S V 5.m.5 L 5 k.=XT 5.L._ w A I 5.j.T d 5 z x x m.G = * i Q < + : $.C.T.:.G 5.N.H 4 f | 1.A.,.] j.#.5 z *.*.h 5 * j } f 5 5 5 ` f : u h _ :.@.U d *.z s z I + l 5.f q Z.A.F $.F O.z z z - m :.f : *.[._.D | _ 5 T P x =.Y G.T | j.$.f o 5 L L $.#.z h P ` m.} 5.] z 5 M ` h h M u h oXCXj.+ T *.f k.n.A G =.f 5 z d z I q & = G _ $.=X$.:._ ` } P _ q } T.I } 4.P I :.O.` ` + u ' T.} %.j.I #.$.H q y i Y -X|.*.s 5 T T +.z.*.h ' z.5 z C.$.G q 0 l H q } j.I * u L 5 5 l G l T P $.C._ u a ; s 5.FX=Xz m.` P :.j.l z 4.$.h : j G 5.A G H l =.$.d j j * =.d z h.4.s d F 5.'.=.=.=.=X6.Z.;. .;.^ N._.:.z J.m.m m.z.f $.5.].F = d s Y < g :.P ; s Y L #.m.=.q x.| 0 4.} =.O.u m Y m.P L = 5 $.J.:.x.` = 0 x.$.z.oX#.s *.m j 5 d P ",
"] ] :.x h &.#.d P f m z 4 0 f ' =._ B.n.T I Z.L.6.5.:.s ; ; & u h - m Y z z Z.'.q d T x 5 Y z d $.|  .( F.A.5.P I 5.;.Y.A G ;.k.z h v M :.5.} I 1.B._ 0 F ;.N.( T f $._ z z m.n.T O.G _ 1.%.T z s x  Xm.I j j.=.$.d & : $.} z x O.` 4.6.Z.G F :.O.j 4 G } C.L u 5 & $.'.4.j.P d 4 G 6.z 5 j h y h x j.` + * s h z.T T O.m.` & #.#.4.j.F *.J.* s d J.4.:.=.j.j.F z P : 5 =.d * z 1.G G ;.X.[ _ = 5.Z.r [  .w 8 4 $.j.u T Z.q 5 j.T 5.C.4.G G _ } *.x #.=.: h d q G f j N ; h d x.].C._ F 6.z 0 0 + ` Y._.=XI :.5 m I s ; s * 5 s : * d 5 5 $.I L d 5 d & y h s z d j.' 5 5 * d I q F Z.;.$.:.I.P I L m ` :.*.5 * A N. .| H | L 5 Y m h G.jXY._ l ` = >.j.L T L 5 s ` :.T P Z.;.` x.z.h i h m i h z *.& d *.T = * H 4.N.T.4.` z m.=.I I 5.$.q 4.Z.n.G F I f d F ` & + 5 x s u s x x :.j.P 5 * =.oXf = f s z z 6.m.s v O.4.L 5 h + * #.&.; Q P * j 5 l _ I.6XT.f _ l l I 4.L o : O.x & f =.' d * z A.;.s @ @ s 4.N.x.d 5 5 & d '.,X4.4.=.O.- $.T.| H  .).G P I T P s J.T.d =.T.} o 0 z 0 s Y >.n.Y.5._ 5.l I ;.:.=.F :.-XP.z :.J.j.T.=.m.L l.O.u u : L h.K.T.m.[.'.I F f = } d f C. XJ.&.; g j : = 0 l z } h 5 s s j Y l.#.T..X} 5 P j U h h T ",
"D q + h &.O.z j.j.` d j q I 5 & ` 0 ;.4.I * 5.Z. .Y.J.5 u y * u a a h ` J.:.G _ k.Y.:.m.` P s 5 |  .).;Xn.F d I z l $.;.` ;.Y.x.z i a i K..X} ;._.A.z 5 5 5 2.[ 5.*.;.k.h * d l d d ` H n.%.z 5 L ' z d } ` d F l d : x h u * ; : : G N.5.= f ' d d 4 _ n.} l d d :.n.=X'.:.h ` I 5.7X5.:.T T 5 ; P *.z h - P +.I.` O.x Y P Y z 5 5 F m d I : j d ;.l q %.L.n.#.P *.5 O. XL j.| [.6.n.>Xo.D %.' z l w [.Y.l I 5 P ` x L I.].} ` ` %.l l w 0 5 =.' m I.j.d ' l _ ;.z =.s.u 5 _ _.]  .1.| I q d _ l H } | l l P & l L T s & 5 $.I.d m.T.} o _ K.d d 5 + I *.s T d z ` $.f j 5 u z l 6.qX'.= } z z } : u s & 4 + + 4.q.A 1.%.L.` & 5 * 5 5 I.5.q %.=.5 d F ' z P m d $.T P z z 4.Z.,XzXh - v M u : d 5 f I.$.=.& #.n.m.Z.:.$.j.oX<X} G n.pXqXl j.L.G ].m.` #.d j z =.T 5 m :.Y T.T.&.*.s * 5 : m #.l ` 4.$.G * } _ : i d s m s & + 5 m Y ; i - ' ' 5 4. XI >.j.5 z I n.n.F z j.T.5 5 f d P ,Xx.& P.N.f h M u m P ;.z ` I 5 j s = T.h.` =.z.o u z f '...I %.P J.=.j :.XXT ; Y ` z z } P h j j.d ` T.j.:.x.` 5 ` d & *.T z ' j z h #.z =.J.j d j s =.P + :.:.6.%.5.1.F f j d P f ;.7XC.L s g < j d l f 4.4.P P d h u h m d : L :.4.F Y u s.z.m x.",
"l 5 :.:.P *.5.7X-XL s d 0 l $.z d j : 5 d s 5 5 4 q ;.j.d s ; a , @ m h } } C.k.'.T.} d } ].'.z $.4.=X=X=.z Y a s I F I *.5.I z #.j u ; z.T f 4.1._ j y p i f 8 q d G = 4 l 5 = 5 ' I #.#.5 d 4.=.P 0 T j.f T 4.Y.<X_ _ h i + y ` z n.H q A _ >.d F _ G G | ;.%.l } 5.j.f T j.j.0 l _ | ` * 5 5 * : h 5 h x s &.oXT.C.I x.J.Z._ P 5 h z T x z m.m.F l z 4 5 : h u : u s m * $.4.I G P } { S f m - ; d %.m.m.M h T =.L + I L.C.I j.-XY.5 f 5 0 x.J.z M W.` n.j.l ;.] I } f 0 w B.A 1.1XuXY.G 0 :.;XA.*.z 5 $.q.6.k.I #.x.=.& l z + ` $.x ` j.j.j.F 5 u j u d j.:.` 5.:.` h j ` m.:.:.j.z k.<Xl $.m.m p.x G j.s.* G %.G F ;.C.} G z 5 #.` = ` f f F f 5 4 $.0 T #.5 f d * z P | .XT.=.; i Y M i h L d 0 P G _ * m.K.$._ P F G | =.5.F | Z.Y.| I } 4 G  X} L *.:.G :.x.j =.J.*.-X5XY s d h s h h z 4.:.` ].oX$.F 4 = d L L m $.F 0 q L h ; * X $.:.* f ` 0 d f & d z I j.P.XX X].d 5 = & 5 $.T z j.:.l #.G.s d l $.J.T.:.$.L m.:.z z + : j j u s u L * j } 0 m.C.L #.I.O.g ; J.s.L 4.P h u h : :.,Xj.=XkXC.L I ' I P.=.j #.j.m z m g m < M s s :.P.$.j.T 5 & & * = F 4.5 s T ` .XL.=.f g h - T T z 4.-.j 4.j.Y #.l.m O.i h z L.qXz z j h s P T.",
"z :.T. Xm.j.N.].$.Y Y P $.oX-X$.h u + i 5 d ` U X * P ;.z h - a N N M h z 5 5.Z.| G * f 5 F 4.;.m.x.I } ` Y X < v h x m.=.l & q d 5 u 5 F f ` C._ q @.y n N 5.] 0 f 5 * ;.<Xj.0 ;.].Z.T.m.L T T.n.= d 5.=.d x.:.j.n.1.Z.*.T j P :.=.A.| q n..X$.| m.L.0XuXZ.<X0Xn.H q 0 d ` z q 4 4 %.Y._ F d * * 5 ' * s h i s h.} q q P j.T ` s & : 5 m P T m.x.q 4 f d : h M 5 5 m u s * m.L.= = z :._.Y.d s h v z d 0 u M M h ' L ` I T.I.$.h =. XP d d 5 d :.' + * f 5.| w 5.5.Z.5.| H 2.F.A.1X2.5.f d z F F.5.m i P T.;X3.4.m.:.:.5.F _ 0 & Y m s m.-X:.;.l = s T =.F q } | 4 d z d h #.J.h - 5 l ,XZX<X] 4.#.x O.} n.s.d z 5 l k.Y.'.C.} ` T >.` m.<Xz F =.L d >.m.G l q ' :.j z f T.Y.| q * h ; v *.O.z * z z ;._ f * m z T ` j.| } .XZ.z k.7XZ.0 P } j.z f z d z m.$.l P G ` f d + & z #.d * O.* h h z d f | n.].'.G z Z.:.` Y o L 1.n.F z *.+ s T T * = } P z I z j. Xj.h 5 *.4.f l } } | $.z L 5 5 z z f d z F z :.T.j.` oXL.T f | T * & T J.4.: h h h m 5 T P 4.8XoXj h m s u z.P.: 0 0 z i + + z m.*.s | z F :.} ` L h u z F L d 5 h : u Y d s s + : :.:.: d z P $.:.|.z o s T.<X .X j +.v N U m ` j.` m j $.} #.Y ; h h h d z f G 4.` z s j =.",
"l l T.|.I T Z.H 5 z ` s m h.` 5 s ` I.j.z :.*.#.5 f x.n.z d 5 * m L ` Y m.m.5.;.Y.n.4 z G n.'.C.>.f 5 ` =.d * s ; < v s L f l ` T *.h s l 4 f T I 0 h ; M i T.Y.K.m.` $.F C.x.P L.]. XoXm.* 0 ` I.n.j.8XK.4.f 5 d * 1.Y.:.m.Y : * 5  .q.r  .x.& G 4.%._ } 4 G Y.,X5.0 4 X P _ F C.6.;.Y.P ;.f 0 z :.T.P : L z s z d F G | 4 I |.G.y ; y P ` I z f * _ 4.#.h M < l G z u : * f x.5.T : x j.N.1.Z.z P z :.T.s P Y 5 + h m ` j.O.O.s } q x.j.H :.` :.*.f } _ C.I w N.6.A _ w _ _ H n. .4 l l } z 5 x : * u * $.n.0 F q * = <X[.=XY.i N h s d =.| 5.G } T $.rX=X| q l C.} f d 4.6Xs.i N 5 ` | ).N.f T.'.j.I.k.f 5 j l 5 _ Z.Y.uX-XY.z ` z 5 =.L } 4.m s d T 5.T.:.+ z *.f z = n..X;.f d h U v *.k.0 q 5.Z._ k.5.d & * ` } 4.6. .<XoXY.T.} P s u d G G $.| L L z z G C.].L.z d f T 4 :.z z *.d P P z z C.'.m.L.C.= 0 4.'.J.b ; #.k.6.| *.*.* * ' z f d F $.G F T ` >.L 5 L n.` = F | | ,X<Xz L s =.#.h.j : h 4.'.4.T : * P f  .5.6.4._ + 5 f ` 5 h &.4Xz.#.z d = 4.:.& u m.O.5 h u 5 _ | *.O.$.$.G f - < 5 I 1.A ] :.Y ; T j f j.m.` + d C.Y.` P s ; : : + d x.m.j.T P T =.T P Y.5.f } O.u g h < ; d j 5 O.P.=.P *.&.g b < < : d G |  .w z I $.=.",
"I G P G f F z _ F l T z j z m 5 * j.|.x.F T F >.I h.$.l 5 z 0 l f z x 5 d ` I _ C.%.z z 5 ` j.4.I 5 4 T.oXm.d 5 Q M ; : d z ].1XP ' ` J.'.` 5 = G $.u + h *.$.m.I k.4.f 0 T l z '.} T j.G.P d $.].5.f z F } G } s =.Y. .F 5 u + $.Z._ N.n.Z.4.f 5.].` 0 4 4 I ;.5.P.x.} T = = $.Y.n.0 l F l 4 q F m.cX-Xm.L #.T.4.l * q G P z.G.v N a @ x *.*.P. XZ.,X,X:.O., - I F.` & ` z d ` :.m.d s j.n.q.D f 5 h I O.5 :.P.` d *.:.` z 5 : h -X5.Y.7XL.Y.T z.=._ N.] | } n.[.] n._ w q 0 1.1.& _ .XL.:.:.h * s z.I.z.d F F f & 5 & ;.).} j.i.p + s d m.Z.Z.I w l 6._.A.=X;.F C.z m.d F :.d < h :.P 4.,XF & 0 l _ _ k.} f q ` 4 G ;.P z m. Xf z z * * & s d u +.x u T ` l ` j.j.>.` 0 P ].k.5.f d x y m } l 5 n.5.0 G | I z.:.F :.:.} m.Z.5 d I l & * + * 5 & ` x.=.h.d d P n.Z.j.d ` :.-Xj.$.' z j. X` z d 5 _ _ ` ;.k._ 6.1XuXJ.u g s.I H ;.T P } z P $.I G f l Z.4.n.} :.j.l :.*.l q ;.n.F f :.P : j O.#.s z j s k.].-Xd T $.l f G A.6.%.q _ | G P 5 ; v z.j.j.z ;.;.` d * + *.x u z 5 f 4.%.= x 4.-X].$.u m C.;XB.[ N.| z h h s m T.].} s T Y.L.$.z s T #.: + : h ` z d 0 ` L.T.} F f f l.#.s s - u i : s z ` j.5 0 O.m < m g < j } :.} F f z 4.=.z ",
"P ;.%._ I } Y.5.[ ;X=XC.5.6.Z.f 0 4.L.l f T 5 5 L L d + d z = f C.J.T ' + ' Y.w f F P d I j.z 5 0 } 4.` T x.L P U U y * * :.Z.Z.G z ` T.:.L f _ f | s + G.m.$.` m.=X| :.f & 5 4 } f = d T #.I =.T q d & 5 ' } m.* :.=X].F o * s m.L.H H w | Z.F  XK._ Z.n.0 _ } q ` T T 4.0 4 z ,X;.f =.=.n.I T.:.5 =.T T d l G 2.B.G | ` *.G.N # , y X ; u i z.XXP.z z %.` O.d 1.`. .F | F z G :.4.z : *.T.'.Z.<X#.Y s u s J.Y m.` d I d j.$.L ` | | l | l + d J.=.P ` f 5 5 4 q F C.N.I l n.;._ l Z.L.4.} ].j.& :.qX6X0XF _ I | ` + m Y.1.4 q ' O.5 5 5 #.T 5 P k.5.] T.]._ l q X l ;.I n.` ` h 5 '.Y.f 4.Y + q _ 4 w 5.5. .N. .;.k.5. Xz 5 d P z d z $.f d s h Y a h s.` 5 L } T.T.T.:.d I } 1.;.` 5 5 : 5 z 5.P l l 5 } ` T.6X=.F z 4.].z + = z Y.} 5 * = 0 l I F s z P P l | 5   f |.m.*.} 5 5 5 } -Xz.f z m.$.= q q n.k.] 4.x.s g - ; q 0 0 m.8XXX$.} C.'.=X.X4.n.).,X1X=X| l _ Y.5.5.Z.;.4.m.T s : ; h : s #.*.j F %.G = n.'.;.f & =. X%.q 5.n.j.Y s O.u s d 4 C.1X .= *.` #.P l d $.$.Z.).G f #.$.f k.} f 0 | N.n.H 0 f I h.u v P.` q F U , h d F z s J.jXP j 5 * P $.C.N.} L.Z.z z #.T #.T : + : L 5 5 j P P : d } s : < h u g z : f d z *.T P d 5 ",
";.| 5.Z.k.| =X| A  .H F.;.4.=X_ q k.5.F F l '.j.T z m.-Xm.I q l ].4.4.|.h *.} 4.:.$.T } j.G P F F -X X=.* G z.s + i U 5 z $.G z F 5.n.` d x *.L.T _ =.z K.4.J.T.:.$.oX XF f ` 4.Y.L.z G z L :.-Xj.I.j.: 5 h z z P 5 l F f :.' d d 5 = %.w %.Z.F z d q [ ] _ d = d 5 * F } C.].` P z $.:.f 4.` m.*.M m 5 z d 0 ] 2.).:XiX' Y f.i < @.h ; 5 x x y M m 5 ` Z.T ` =.q._.1.I l z G G P L ' & 4 w Z.xXP.z #.P m u j #.j.m F :.F I F d 5 d ` f F %.P 5 q f G I 4.L.F l _ | _ %.%._ =X} 4 q F F I _ Y.| H %.%.Y.N.4._ %.oXj i m C.q.N.L.l K.,X0 d *.L m ' n.5.;.6XO.` K.n.l }  .).5.q =.' d ` F } x.: & | n. .).).= ] 1XZ.N.H l m.$.d *. X:.+ L ' P m y g a p N g m x s d =.:.= G | T Z.A.n.G 5 x h T I z I n.z | Y.;.L.j.q 5 5 0 z * 4 %.Z._.D l ` n.[.).,X4.+ s j.4.%.k.G $.:.` z =.$.+ z $.T 5 f P G Y.C.4.uXZ._ w I 4.0 j z.i Y $.7 & T m.$.4 = 0 F Y.;Xn._ N.B.n._.| F f | $.j.Y.$.5.=X#.* u 5 - s x.x.=.L P ;.w ] <XvX%.0 + 5 d z :._ = T T ; M Y Y T G [.$X_ f T.-X-Xm.z z z f '.7Xl d =.s 5 x.=.H | G f } 0 & f ;.x.d.U a u G ;.*.m M s 5 T -.F $.T d $.x.$.j.'.4.%.=.5.z P m : *.*.s & P.8X=.C.4.s T f $.:.z d s : ; L :.$.'.L.g m x #.P j.",
"Y.Y.} 4.| l ;.G %.T _ I f f %.5.q & 4 G _ n.L.x.=.z F I. Xj.j.:.$.j.T L L 5 F I %.5.$.` ` d 0 P F =.j.` 5 f ` h ` Y s s 5 z 5 0 :.C.4._ h m I.T.T T T.j.0 4 L ` =.z F } P f ` 4.K.k.f q 5 z z =.|.kXs.h h s d f $.5 j s ` 6X'.} n.5.& x.'.| m.m.l 0 l G  .N.;.4 d ' $.'.j.:.T.j.z T s I z u z s.5 h T z $.G F 2.;XV.A | >.d x P z >.5 f P =.*.x L z $.%.4.d s x d F 0 F L s + + o 5 P :.l F ;.G f f * 5 5 + : s.j.m m h < < s `  X-Xz } '.T.%.7 A 1.] ;.tX$X .r G k.H 4 _ 1.l l l _ =X%.0 | ] = H _ H I ;.5.I l T T h 5 G l ;.).;.N._.l f #.s + 5 oX0X%.u + =.P.T.C. ._ ] | z : y y F l 0 | d z } H N.[.Y.L.H _ } 0 f q G G G Z.5.l & #.J.5 h h @.i N v g u m P d 5 z G =.d P ].m.F =.` T m.$X_._ C.N.G | 6.q 4.G f l G %.$.P | tXq.&XaX( _.fX#X6.l j O.u ' ` Y.n.:.Y.m.d L ' =.& z | F F _ l P F G C.Z._ ] A l } f L J.*.*.F %.4.z F ` } q = * = A 4.] 7 ;.[.%.n.n.f q I I G 4 = F * d j u m h L j.j.P 5 :.Z.4. .Z.Z.= + d f I 6.| 5 s s y h y L j.| 1.5.} d x O.L *.y + h : P T z z j s *.=.0 k.C.l $.} F P %.n.n.G.; i g m.).).Y.'.m.#.z h.0 : ` z #.jXh.j.I.;...4.| x.XXj L z L T z J.x.=.x.F f L.x.G $.5.| C.#.j m.,XZ.1X,Xu b j =.;X[.",
"].5.Y.4.0 T } Y.cXC.' z d 5 G } } ;.n.k.Y.=X| I I P >.z.L l z 5 P L.d d L *.m.;.| %.I G P z :.4.z d d j.P F 4.j.` L m s : ` I j.:._ _ $.` z T J.*.:.| } q & & s.T.*.d z P j.-X*.q z P l d ` h u *.h.M h h : I ` :.$.L + + 5.%.H ].L.f z.T.n.` :.:.n.Z.n.6.L.| F G ` -Xx.d s d #.:.} ` z ' L s T j.Y 5 z F l l f B._.D G 4.T 5 * 0  .A H n.` ` d : m j._ 0 * * & ' =.k.'.J.z y h : & m.=X .G G & $.>.4.P j P.:.* z Y ; ; ; u : ` j.j.f * ` *.| w 8 A.N.N.>Xq.<X2._ 1.;.l _ ;.0 f I 4.%.l G 4.| I ] G %.0 q 5 * d *.*.h j 5.;.L.2X$Xq.D _ z z Y d 5 L 4.L X h 5 4 :.| q H _ %.G f Y u = 0 G } :.` d d z | C.-X#.L #.L j _ P F 4.:.z 5 * m.oX$.*.M h ; N N O.x ` ' G = P 4.} z F P F z G.` 5 %. ._.%.4 F q %.G + 4 l G } ` Y.5.F q X.B.aX#XA D ,.e.N.F ' O.* 5 z F | f o z z : z 5 & z 5 P n.$.G _ } C.4.G 5.F.N.f f s > 0 j d ` I.=.P 4.=._ P G n.} _ 4.H I 1Xn.k.=X_ G G } } T = | j.L 5 ; Y h j d x..X} : $.$.4 w F f o :.6X5.| Y.Y.m.z d i u y * * %._.n.H * j T G.p.*.Q ; h I.` s.W.m h h P %.5.z f z F F | `.[.1.s u N h T | N.n.=.m.L 5 * : d T =.L 4.L | C.n.4.C._ ,X'.s #.d :.P f 0 0 I I l $._ L.L.k.].%.$.} s T %.L.[.l * L x.I 5.| ",
"l = _ l q 4 F :.j.d f _ I l 4 F _ A.xXA.5.%.G A.4.F z F ` m.} 4 F ;.f d z  XY.H k.4._ _ $.` :.` s f ` n.4.Z.>.j.oXP 5 * d L s f j.F z m.Z.} d m s T n.m.:.K.=.j.O.d T l P ` Y.9X` } oX` d T z L d u h h @.s j d 5 C.f.; d I G 4 ] 5.` z I *.} L.6._ l z T x.5.m.L.5 q q z ` } :.* h s.j + T s.z.XXT.z.m.C.*.j.0 f 4.k.} l + T G G 5._ F m.j.j.h X < ` m.C.5.* 5 _ } 5.N.Z.:.*.T y 5 %.Z.$X[.| _ C.C.Y.L.| Y.iX4.} d 0 j L - 5 5 4 q z * X = ] n.n.q G G _ _ l 0 q F %.H w l l I l F _ l } C.q 0 I ;.=.d 5 * 5 y L L h m.[. .n.6.[.[.B.N.H l z T z & u 5 d s 4 4 n.].:.Z.z 4 I k.%.G %.k.= d O.N y + h 5 h m m x oX4.5 ;.I I 4.%.:.f & ' :.' *.#.+ u O.h P.T z m.G _ z T.` $.=.l | ;.m.P & 5 ` Z.6.Z.;.l G H z m.*.=.K.I F 0 4 4 ] 1. .A _ 4.1.6.2.z & * *.` T f = 5 0 d z z $.} ' 5 d T d 0 5.%.4.qXA.q._.>XY.] G I & f L L P ` L 5 ` x.*.z >.'.m.F G G } 4.G } F 4 = = q } x.$.*.>.P.m.T j s u L P =.I 5 s f f P.L G | N.F.6.n.] 6.L.} : 5 j.Q h j.x.k.=X$.5 T Y O.*.&.y m F :.T P m b Y u : d 0 : : $.} F V.`.6.F ` m ; 5 h =.$.= : : L P =.P s Y $.L T z Y h.j 5 d f G q } Z.` P G m.4.} x.=.L.lX'.5.C.k.5.4.z : f = 0 n.k.G s < j Y 5 } ",
"Z.k.Y.F I | n.G d : ` G.:.f | ;.l [  .| Z.Y..X| f f z F Z.$.;.G G 0 5 | } f %.;.| I 5 q *.' F z h :.P P n.j.T.$.:.m Y #.#.$.j.:.=.j.d u '.n.d u 5 ` } d F '.J.P ' #.$.= = q d ` T.$.m.'.$.L j :.#.X - - y 5 d I q T m s.].j.C.I [ A.z u m L ;.k.| f * 5 s =.J.Z.P q I G _ l :.T d : m 5 y Y J.J.I.:.:.j.` ' T 0 f j.%.z 5.$.q | ] N.;.I 5 x j - # < * C.,X| f | | | ;.] ] H h h m 5 F q.B.q.4.I _ G F %.1.;._.N.1.l l ` T d f z *.x.J.d 5 C.0XrXvXY.I $.P l q _ l 6.Z.} %.G ;.%.H _ %.4.N.Y.n.q 4 ` #.* + m s.P U &.h ` I r r | ] ] [.;X5.4 w l q 5 u m :.G 4 q m.P.5 Y s I =X5.A 5.rXk.F =.i y ; y h s x m : & T 5.n._ 0 l 0 I } 5 F z T z T =.u 5 ' T Y.%.5.=.0 T = 5 5 j P l 1.4.L L s d l I k.L.| q F k.-XY.$.` ` k.z 4 q 0 z 0 7 5.T.oXY.;. .w d 5 m ' j.` + _ $.` ` m.$.J.P.d z :.z z x.Z.).<XA.F Z.5.4.%.=.d f ;.j.` & : f =.` z P $.$.` h 5 T _ 0 0 %.5.F F l & 5 _ :.G f 5 z J.E.m ; h L j.k.` d j =.|.` : I.qX5.G o | ).N. .4.5 Y f.; + x d q | l 5 ` h #.x.s s d T T ' z - ; u P ` F T ` j P.j.4.V.6.G l L.K.I s y U J.L L ; T XX,XF m #.: 5 T m : : s ` z z l & I L.I 0 | ` F f =.C.N.'.I = 4.].].K.=.T h.:.0 I 5.F T P g j =.j.",
"'.=Xn._ ;.5.| F ` 5 h H.P.m '.;XrXq.G  .| ].,Xz l _ I ;.Z.I q ] 1.w 4 G I G =XY.l 4 =.F z T m M U &.u l q } L.>.h m ` P.I m.K.} | C.z 5 |.*.u u h j.` d d 5 z z.L d q 5 0 ` ` & _ 5.f F ` =.5 P 5 z ` z : z f l F 4 j m.].N.'.N. .].T.x T O.z %.:.].` 5 *.m.O.m._ l G } | :.4.z G.T m G.z.T *.h h d + d z 5 } q d ` P _ ,X4.0 } } l z } T P.` d Y *.` P n.q G n.4.k.).1X=.z I 0 z :.4.0X].n.,Xz d d G w q._ 2.V.D ] | f s I.x.u a O.XXd f Y.B.1.rX<Xu u *.j.k.7X:Xq.F.A | | f G } _ n.1Xn.f } ;.d T ' I T x.=.-Xm.M , y T F ^ 6.;.G 5.q.N.D r G 5.L.q 5 I.].6.H 6.L ; ; a L  XI q L.Z.|  X6Xj.5 + < m..XY.} d 4.F.F.[ 8 ] Z.x.,X` z j. X:.d :.|.j.& I 5.Y.H 4 l F z d 5 z h ; u w A | ` : s 8X$.f A.7X4.Z.Z.%.& d 5 T m.I H n.[.I d T Y.Z.f w w 6.5.:.m.z d 5 & z z I #.5 d d z s : + < T =.:.L.<XuX4.F j & s ` j : F l d d z 0 z ` 5 & z '.j.: : G.mX'.F ..^ 3.[ 4.;.5 4 m.'.C.F 0 & d L z : s 5 x..XF j *.4.` ; 5 P Z.].| q A 6.`.B.5.T x U N M ; =.m.5.G F 0 $.E.E.T m z F d f z L T T | [.w I =.& P P & 0 f G G I ;.P 5 j 5 T $.T.} f |.K.$.j #.P L z : ; g U T L s } I .X.XG f T = 5 = P 4.4.f = q P C.x.| } z.=.L z $.$.G $.=.T T  X,X",
"w G 4.4.4 %.G _ T U i Y m 5 n.Y.[._.Y.qXI %.].l q ;.5.C.} I G ].pXY.].| ] =X_.n.H m.4.$.O.Y O.h a ; #.:.;.:.k.z s z j m ` } f $.` d z =.` + 5 : : } 0 } j.j.z z G k.d 4 _ :.j.d 5 o & f T *.|.j.z $.1.4.} z n.tX5.& f T F } %.A ] 4.=.h z.s.s z $.|.L * s.m & T j d l $.$._ #.=.J.f.u T y *.O.O.z L z j.=.O.cXI 5.K.5.f F q 4 _ G 0 m.].z f T 5 l f f :.:.q l 5 z 4  .A.4 5 T 0 _ *.G Z.z q z 5 5 d + 4 | 1.] e.`.1.4 } $.z L h N v T F F | 5.1.] q + + z %.$.;. .8 * ^ L.5.f = j.5.'.4.} | l z G q F z : m.P.I.M X 2 y s.4.Z. ._ n.Z.q.1.6.r | N.6.Z.T f L.Z.^ 5.m.s.s x u f z f ,X<X6.5. X;.f *.*.=X1XZ.C.n.5.N.V.[ D H l ;.].5.| ` $.=.5 `  X$.l _  .[.Z.q ` d =.m.d z h h * G ).I.` h #.=.l ;._..Xn.5.} G ` $.#.5 P 4.4.;.k.I 5.P m.kX'._  .L.C.I _ l |.:.& F T z L d z #.z.m + + s *.h.j P x.6.] T d T :.` d & F P s P L 4 = 5 L z P K.'.j i L %.l k._.3.3._ | _ 5.%.I 5.;.} f & z I j.T I j $.$.T P.=.d 5 & * L l G w  .A.2.B._._ ` 5 Y @.g T L } 5._ 0 _ T. X-X` * z.} :.P j.h.L f C.rXN.G -.-.I x.` : F P q | '.l 5 * h P } } q l f f J.Y u #.x.$.5 : u T 5 5 f ` oXT.I.=.F ` L #.d * } C.G l C.'.F 5 0 F ` J.j - F :.} ] L.*.z _ ..",
"0 l k.'.;._ Z.Z.' : i a m *.| 4.4.n.:.'._.q | q I %.'._ ` _ } %.Z.=X'.4.H  .| H = z 5 z 5 h M M m h *.T.C.7X=XI z z Y ' =.q d P =.f P m.| ;.[.5.6.).G 5.n.z =._ ` | q 4 =.$.d l L z & F C.5.Z.P 0 l 1._ _ j._.N.w n.N.q * 5 = l ] ;.$.h o ; u * = * d #.` z 5 * 5 m ` P f 5 u T i T - ; M + h L 4.} l :.j.XXO.* L =.:.j.G F ` x.5.0 L. Xz * q 0 ` $.G :.| & F H F w 2.A.| G 4 4 $.= & * d 5 + 5 u s ` T 4 G 1.A.).7 & =.=.d L g i i.I.Y.C.%.1.1.] F : m j.Z.| = D $X6.A _ 4.4.m.$.5.5.0 0 q + G Y.A._ z & #.J.h @ y +.v a #.C.H l ;.] ^ ,. .A 1.Z.n.uX7XG f 4 f 7 G k.4.:.F 4 q G 5.%.4 _ -X'.} T I F I 1.n.%.n.%.z 4.F G I F n.*.j.L d F I ` P P l Z.5.w 1.P : + z s.h.:.=.T.4 Z.n.` x T |.` m..Xn.Z.4.4 4 k.].,X-XP j.$.} H | 6.N.f _ '.m.q T | I | z z ' m.5 T T.' ` ' L J.*.$.z = m.kXs.; g m : 0 f %.jXXXs j f 5.I * ` d T ` P n.4.$.x.K.z + : = H .XZ./.6.7 5.<XH H 1.F + = _ l I %.N.} 0 >.qX6XJ.j.z } ' u h T *.m.4 5._.X._.N.f z 5 h h @ h L z _ | P z d z } n.5.4.m.Y : z ` ] = A.uX;X4.L.#.0 ` | L d 0 H ] ,XL.4.+ Y J.I.4.f _ } T =.z s.=.4. XF o : * h.=.#.d $.` m : } P F T F F = F f G ] C.C.I j T.,X` d * ; #.j ..Z.$.G G  .",
"G G I n.C.4.I q 5 * u i : T n.5.f z + I n.^ ;XC.Z.l G d j.=.d f F I * =.n.5.L.Y.` * h o 5 5 &.Y + + x >.z l d l d & 5 d 5 5 #.} C.l 7 5.[.[.>X6.D A.| 4.%.0 ].Y.4.f 5.q P z d L d T 5 0 f d } j.z } ;.] 5 :.1.D ^ ).[.| m.j.x ` | H z x U &.m J.$.j.m.J.4.5 d ` L z :.z & s : y ; @.Y i h u h d m.} 5 T T ` =.h d F } =Xn.} } %.| w 4.F q H L.;.C.L.:.'.Y.l | G 7 4 o.wXpXpX .5.;.0 5 z ' m *.j.m m.9X:._ H A.;X2.] H ` f s j < y m K.;X| G F I _.%.5 Y :.z q G 6._ H 4.5.& =.T.4.'._ | n.C.;.%.%.G G T L d x O.m O.M - ; 5 l | f ] S * D  .F %.n.$.z ;.` q 0 4._ l _.lX%.0 5.;X} 4 | } G %.n.#.j *.I.5 l C.Z.` : u s m d :.%.5.} '.:.$.T ` ` #.>.I } 8 w ] z 5 : s L  Xj.:.k.q | Y. X` x ` P } n._ | Z.} _ '.G I C.f q 0 | n. .Z.H f } 4.` I $.0 d F q I f f l G } F I I P *.:.T T 0 f =.$.u m z 0 5.n.%.} h.*.Y s 1.F + ` j.K.n.x.I.m.:.I f j.5 : } k.5.n.).2.5.I Y.1.+ w = 0 } =XZ.N.5.7 4 l *.m.:.f * l I.oXz.* 5 d } * f 1.Y.F.;.5 ` m.*.h f.s 5 4.C.=XG d z 5 %.Z.l & * : s d _ 6.6.| 4.L.=.T f 0 f 0 x.$.= F w l C.I.; u l.Y Y T 5 f =.L : P z %.7X4.P :.L 4.F & P u u Y s * P j.:.P : : f ` ].x.j.F F h.T L - : m =.T : z F 0 f .X;X",
"} ;.4.4.| 7X5.+ 0 5 s 5 L ` B.>XL.$.d Z.[.N.tX0XY.P ` #.m.:.+ z *.>.F T $.:.].6Xx.Y.j.0 l } j.L d u s s z G F l f q z j.j.z m x.B.e.3.{ r 4 q ] } G l 4.4.* f q 4 _ } G } T.x.C.*.h I z z :.6X5.} 5..XY.F 5 7  .( S 1.C.` ' * 0 l 7 5 m *.M h L ;.} I z } T.J.:.5 x ` j.#.Y O.M i i h y y h m ` C.5.6XK.=.m m x x f _ F 4 5.Z.n.5.Z.6.| ] Z.H = } Y.5.| x.f q I ] 2XX.N.$X:X).n.} ;.4 Y.=XL.$.$.$.4.K.` n.6.6.5.N. .G '.C.h * g h *.,X).L.$.f k.L.Y.'.G.i s f f h 5 h m 5 & f q j.iX].A C.n.C.*.& 5 L I I _ ;.n.F d f } ` w 5._._ _ N.( H F.n.G l P T d } _ d | 6.[ T u : =  .N.] Z.n.f I f 5 d #.:.: F T.0XZ.0 s ; i P I d >.` T T L d z 5 T *.` _ q w =XY.z 5 I :.j.I.:.q 7 r ;.'.:.*.5 5 l 0 *  ._.5.q f l q | | l 4 I T P z #.I f P k.L.Z.k.L.G G F _ %.I $.:.F z z T I.j.:.j.J.Y ; * = G  .1.).L.d o h + u 5 : F c.z j.cX].$.F ` :.j.5 z h.z = 1.1.} Z.N.w 6.H  ._.6.G F G Z.Z.k. . .4 ;.:.5 Y P :.n.%.l l T 5 * j.m._ 0 q 6.5.l q F L s ; x j 5 H C.A.I.z o + m.C.G q : 5 0 d F G V.[.F L.qXP.j L f K.:.f F I 7 0 } P g N n g *.s + : z : s = 0 %.| } I.C.I > z j T L h m T * z I z j s z z Y #.l.m.L s u j d 5 ; O.s.L j P s d 0 5.Y.",
"=X=X;.= _ C.} 4 0 f z s 0 4 ^ 2.5.C._ } _ ;.A.L.` m.m.#.m h 5 5 $.*.L z 0 f j ` l I 5 0 w 5.%.%.` ' ` T m.x._ 0 w 4.m. X|.h + +  .>X%X~.1.[ H F n.| _ k.Z._ & q q q ` m.I.T P L L Y z ` ` 5.=.T F ` 4.Z.m.m.| _.~.A _ I 0 5 G %.q.C.z Y m T Y F f 4 ;.4.} =Xm.5 & z J.K.>.d *.T h i h i ; m x O.P F qXP.#.d 5 d z x.| q I '.I 1.n.2.).X.1.A. ._ A.'.} 0 q _ _ C.H _ C.;.V e.2.^ F l G n.%._ I l q z *.I } _ l q 2.A q 5.C.L h j U =.1.6.5.z :.T.z %.K.$.y P :.I 5 h s z L C.} l q | n.n.;.F x.T.m h.z.z 5 _ _ n.B.5.I %.;.G  .F.l 1.pX,.A | 4.T.m.f *.} q m.m.z ).].z ; s T N.6.4.,XY.I m.=.f ` I m z.#.P 4.N._ x +.T :.Y * f j d j >.d & d z z j.} H 6.6.} z & } 4.G $.;.1.2.r 2.4.n.:.+ : G j.l C.1XN._ l 4 _ ;.& } ].,XT s j >.J.>.} C.5.%.I m.5.4 P Z.k.H } G :.z.z ` :.T d d } d 5 f T F.F.{ B.} #.U g u m j f n.I.m Y :.I f l :.:.j.` s z P 0 6._ * F 4.A H H S 1.| q n.| P 4.x.:.Z.F ` z : x 5 J.7XqX| H z L } x.%.n.;.5.f ;.:.l f 5 z Y u * 5 %.1.] l z & d j.$.l f j z ` w 7 H 4.I } I.5X` = =.` 4.'.m.T.%.1.4.I s U g i g g - : 5 P 4.f x.5.A A G s 5 : F C.` h m j h #.j.=.#.0 s z d : m : : : j Y + Y l.L h : s ` T T : } =.F G ",
"G ;.l ` F I ;.f F ;.=.' I q ,.3.N.1XY.k.;.q } :.} $.z P ; y - + : 5 ` z j z 5 & s s ; ' :.>.5.m.:.: ` +.- z ;. .q l G ` ` m T u F 1.Z.6.N.[.=X'.4.z.=.5 z z & P P z z 5 + * z ` m +.:.Y ` 0 P j.P 4.%.f P $._ Y._ w } C.7X_ I n.;X_.T I h i =.5.G n.xX4.G w z F T z _ F $.'.L : : - h h +.+.m h + s Y T z 0 z l F Z.:.l | _ l [ N._._.1.[.;X .6.C.H 1._ l l z F l q I z 7 1.H 0 P | f ` ` $.;.G _ G P F F l = G w ..6.I } $.j : u * 7 ] $.L *.$._ 4.T P h ` C. .l } k.4.N.B. .] n.l G Z.;.C.<X;.q ' ].4.s 0 q :.4.} G ` :.P C.N.l 0 ] B.X.G 0 d s * d ` q $.j.s #.:.: y m h } } ` 4.j.I.T.:.5 ' ` I j.` 5 w ] H | f = j.$.& 5 L j j.' '  XT z 5 + _ 6.F.N.l H G $.Y.;.H 4..XA.G q | 4.0 d ` | m.j.j.I F '.A.S 2.2.A A n.%.& 5 :.$.n.J.l d 5 l d z :.' G T l } Y.| ` T 5 #.z z q ` m._ %.L.c.P =.} 1.| T.#.+ #.m.P z L.'.Y * d z & n.k.I ` } ` T.j.%.%.f = z I ] 6. .;._ f } j.>.0 ` m.J.x.T m h * i j 5 | F.S H $.P $._ _ L..X4.%.T F F K.Y.#.:.O.* P | 6.n.;.m.F d ' Y h P $.=.2._.4.f 0 ` ` : #.` T 5.Y.j.C.4.k.4.V.6.I ` &.y 2 i p v s z '.K.z .X=X4.4.=.T & : T :.F : L 5 I d L P s h s =.I z d f L 5 ` L m L =.m =.j.j d h j P ;X[. .I ",
"5 f | j.l G G 4..X6.F | 5._ _.V.^ D n.=XY.` l ` ' T x s *.z.y M *.j.:.T L :.z.P i h s.4XI.I P n.:.T.5XM x s _ L._ + z >.m d j T q . 4  .A 2.5.F I d s : 5 & d L #.z =.#.z x x : h U G.P.$.l z =.f >.K.P ` | %.Z._ w %.4.4._ G A  .q G F O.L * 5 w 6.Z.1.=XC.6.F Z.C.G _ .X| L s Y Y x ; h y U h - h Y m #.4.<Xk.` f q & q l | %.A l _  .=X| q = 4 ;.] [ n.} F z :._ s d H 1XA.| q I.:.: L :.} f $.I l P T.j.%.L.Y.l f s =.j.5 I P & C..XT d + L m.I 5 z 5 h F l * F ).q.e.2.D [ ).N.C.C.C._ k.l =.P z T T m F _ H Z.7Xk.` ' ` d f I 6.0X0XP z * : 5 ` oXm.z s j h * u #.j 5 z l 0 _ ` d q 5 d 5 f * f 0 5 4.| H 1.z 4 f d s h u d I | %. X` 5 5 + 4.n.} G F 5.5.1.0X<X] G _ n.%.%.qXL.} z } F } $.f | ;.Z.].] & ] B.X.r 4 z q 5 q } } + 5 d =.I : =.$.d l l I rX]. .` *.z z =.z ` x.w H 5.| d 5 f 4.C.] G P d F 0 + I :.h d j.` I L.n.l C.T.$.f | ;.] %.f d ;.k.Z.4.F q 5 k.} I 5 * 5 h M m h M P : j l | F.q.).s.: F l } L.;.l F ` l ` C.:.G =.m d l _ l N.'.n.$.s d m U T P f 6.[...& & s =.F d 0 k.| w f & q P | w 7 _ #.+ < , # < ; : h.'.= z x.f =.n.6Xm.j P T d $.z $.j.x.=.=.s d d + =.] } ;.} $.T #.P L P #.s : z L j * = =.).] P c.",
"d 5 f f f _ $.=XZ._ l $.n.C._ q 4 1.1.6.F I I.I 5 P *.h.qXs.- :.*.m.m.f ' T.5X*.i ; h s.*.& L j.*.*.f.-X*.+ F :.h ; z.T.: o 5.=X;.I G f l G |  .q ` Y : 4 l 5 : s P.T.I.*.: x m Q s.h ` :.T I z 5 ` n._ *.` `  X4.4.T G n._ w | 1.;.| C.G q F F q + A ).C.%.H 4 F ;.G f H F ` ' m h - +.` i h M 5 ; 5 m K.C.8Xm.=.j.0 0 6.Y.n.;.= 4 L ' I d 5 d ;.;X^ B.F.] 4 + q I n.4.^ B.;.l q d m ` d F 1.[ F * = I 4.T..X7Xk.,Xz X 5 = A =XT.* :.| T L ' z z m.4.5 * m.T = _ _ 7 w [ ,.] ] ] C.k.q I & q 4 5.#.h y M h  .q.3.%XF.;.} d m : * 5 I C.=.z s.m 5 P d m.K.h m h 5 ` n.T ` $.Z.Z._ q 5 * 5 L 5 j =.q F 4.l ;.A.F 5 m.J.T 5 5 : + d G N.6.l _ 4 & j z I 4 + u ' $.Z.q.n._ F C.=XG G '.Z.x.I d O.:.5 X %.=Xn.5.Y.A.,.F.2X<X%.l ;.j.G I n.L z z ` _ * 5 z d d $.z C._.[ '.oXm d d K.Z.G = l 5 5.6X} ] [.0X).2.4 = z z.x.= & z ' ' z } n.` 0 j.Z.:.j.P 5 ` $.T ` T I =.z f m.| 5._ : * + ; ; h + m M h d %.rX2X>X[.L.s u d f A & 7 = = F 0 n.,XZ.F s u : d F | 1.* 4 l 5 L J.s.u u 5 K.:.` ` d j.m.P z G N. .} = I ;.G f T G F d * L #.h *.P T m.4.I oXj.G = l } f x.P.` d K.` z #.L =.m.L ; s : %.k.H A.5.l 4.} z j j s z L f $.P = F L.C.P j #.",
"z $.F = l T T l ;.| l N..Xk.n.1.G _.A.H w 0 F z * + d m L + X & 5 d 4 5 f F j.` 5 h & h u : Y j.*.+ j s.d L :.*.X @ h s : z 6.q.1.Y.%.C.-X.XL.G G T.m u } 0 P m.j.P.5 z *.m * h i 5 : P 4 G $.` f T | z $.*.=.K.5 d $.j.n.` 0 l C.].I '.=X| G | 6.;.;.| G l _ 5.%.F l 0 _ 5.} z d : Y m m u s s I #.f d d 5 d d : & 5 F } ] } l f z O.M M h P 5 G n.| B. . .'.Y.P $.'.I H ;._ 7 4 z m.z f | ] ] j z '.G s u P 5.F h.L T = d ;.Y.$.0 4 T P z =.d d 4.d d : ` ' d '.'.G 6..XA.] H _ _.'.f q _ = G _ q g p i x Z.F.V.~.V 6.=Xz 5 u 0 d 5 * 5 *.O.u F H 0 f & I P 5 P $.F } | } 4.Z._ & T z m ` Y :.#.T :.k.;.F F q + O.x.z 5 d s } oXn.8 o.F.G 4 q z z | F + O.:.| A D F f f :.[.] 4 0 q f L j m #.* 4 l 5.G F 5.A.6.X.;X<X| z P %.z q z ` z s f q _ m.*.z * z *.f [.N.f :.:.C.4.} l * = 0 z ;.4.1. .V.B.D ] G G 0 *.cXI.T m.` 0 G I C.;.$._ k.:.j.P + 0 d $.$.: h m y z lXZX6.I P m x b a ; O.T h d l o.tX3.{  .l ; h d P  .H | x.P x.| f ` j * & s z K.1.A q n.G _ I :. X` u * j :.s.z L : #.I & l n.=XY.I.4.0 l } 4.F = j : h O.oXj.d ` P L P C.m.} ` P F d 4.6XP.P d d d * & ` $.T ; & #.I | 1.] G 4.| 5 - : 5 u + d : T T.C...| k.k.F 5 ` ",
" .).5.5 5 & 5 z G _ _ 6.2.=X_.Y.5.n.%.H l & & 5 5 j : * z 5 F _ T l T ` l 5 f z.:.#.s I m P J.$.: d m s d XXm.+ ; m d 5 F ;.G | 4.0 * ` :.J.kX=.f F d m.Y._ $.T.uX4.X 5 m.Y h z.s d * = G _ | 1.l = & d I z *.d * + d P L F d F j.z z :. Xq _ | | ].5.F l G n.4.n.:.m.=XL._ 5 T I T I.:.h d z 5 5.T.5.z z & h : 5 u d l G l A 4.} s s L #.h m u 5 ` A.=X2.[ N.N.I q G F S 6.6.7 I l C.5.%.'.5 s U ` P.*.T Y x P $.f [ ;Xk.G z h d ` F _ x.T.` X 5 j & * h h m z :.;.m h 5 _  .8 * G %.N.Y.4._ _.[.5.h v , *.J._ ~.&XV._.=Xn.d z l z d 5 z ;.F ^ ;.r [ k.l ;.$.0 ` G q l _ f l 5.q l z d m s ; y * L :.` _ $.z s h u * m j.P s j.e.[ w A 1.3.q.6.] ] 2X:X6._ ^ S 1.8 l z d P H q. .4 4 : z x d _ l ;.6.H d s z F } %.} j.'.P T f } } ` #.u * l P :.XXP P d L *.4.^  .f L T T ` 4 w 0 + _ n.] A 2.F.%X] | N._ $.J.F d >.j.m.I ` :.I | Z.C.} 4.` =.z 5 j j j.|.*.: @ i Y uXxXX.6.,X:.h T - i &.T s.-X5.S D 2.F.).f x m 5 ` n.C.G G j s : s #.h i T u L C.n.w _ n.5.l _ n. XkXm.T ' L *.T :.K.'.` o F k.| } P z 1.0 0 j = L s.O.: P =.L s s d f = = d :.x.P I 5 s s.l.T h P '.4.Z.-X=.#.; O.P.} 5.]  ._ I :.: & d h h L L I } :.'.5.l =.5.%.x.| ",
"C.,X.XP z *.x s 5.].} I | k.} 5.;.n.4.f q } j.I 5 ; 5 s z =.].Y.| q d | _ f q f j.` z 5 j 5 I | j.| :.` 4.-XP 5 *.I.O.& f } %.F ` 5 x 5 x P :.` #.*.5 ' ` ` P $.k.$.d u s : 5 u I :.G I _.n.H _ f z q z :.d + * P s + u 5 z d z L F z } Z.Y.%.z 4 G 4 ,X'.f _ f ` :.T.Z.5.0 d *.:.4.=.L j L I 5 G ;.} f z j s u s L j.f _ Z.Y.} f * s j s U ` L ' P n.| S 1.;.G w ;.l H 0 ] 5.F 4.G A ;.6.| - < - - : j Y Y &.u F | D ).A.P : + + %.G k.-XT.5.5 f I s 5 Y u : m $.L h b u z [.:XD l C.6.H H w w _ 4 5 M Y h 5 } e.C V vX_.4 d } L d s h z } X.6.D ( %XA.n.n.P z Y.6X;.4 } n.5.6.} _ f 5 Y ; + + + + L #.*.z X T J.m Y T.Y :.` & A B.oXd A A.pX_.^ 2.:XfXe.H [. .H 4 0 P ' T H Z.F.l = * s L z l l B.).1.u h s 5 ' I s z.*.h L ` _ ` z.P.z 5 I ;.` L x ` z j h =. .X.F I ` '.| w Z.Z.1.N.A.w | B.2X[.] L.} 0 0 j z d : 5.Y.=.m.=.4 _ L.n.q l q *.z d L * =.O.` T < a L Z.[.2.n.Y.L m j.O.G.:.u P m._ 2.q.,.[.L.f #.5X#.z f w l l f : * $.-.L u =.h *.K.} I Z.H C.A.C.4.| '.P.m.d L j L $.` I.m.x.<XZX4.f 5 : %. .& s L x.@.v u U j d x.I.0 d '.F j T.=.- s O.#.h ; h h.:.=.} =.#.z : : l.L | L.L.N.7X.XT z j z.J.XXx.-.z f = F :.;.] | H 4.L.",
"*.j.>.m. XuXZ.x.` T d : 5 5 d :. XC.:.;.5 :.J.` m =.z + d T | H _ q _ L.%.F z ` m.>.` :.z z z 0 ` T.T.z 5.Z.f q d T.z.d j.6Xj.d L j.z.u y : z.5X4._ | x.*.z 5 } f } P : h h + s ` G Z.Y._ F f P *.T.j L d : L Y Y s Y #.P m m j O.P :.J.=.].C.& 5 + 5 %.j.;.} G 5 l l F I $.:.j.5 F } | =.` ` + 0 l l l + H | ` f z P.| C.=X_ 0 d 5 5 y T *.O.* 5 I C.n.n.6.1.N.).[ w 4 q n.G Z.0XH H ).| $.f.b g g h u - : s : =.4._ 0 * 0 L z F * 4 w | | 5.T _ I d #.` =.s s u a n N y l w.yX$X| 6.f l I 0 w G * #.M i < y I $.F F T 5 z *.m h ; y @ - d Y.n.6.A.q._._.L.5 d j.5.| C.| * ;.k.:.:.P d s 5 i i h 5 T x.} d s s.m.z.:.*.d P.Y X F L.M N  X:.P f 4 f 5.4.A n.%.l 0 d : s z.:.:.A.).l q & *.#.f j.6._ | 1.` u : T =.Y j.*.5 I G m.I $. X:.s F n.Y.I s ' L m P * P ] ] %.d #.x.z f | 5.1.N.'.C.2._ H S A n.x.T z 5 P I :.P.} f $.G G 0 l _ P F z z >.z j 4.` L 5 h m s | | 0 = q * x :.Y x.:.' h } _ | ;X$X3.3. .G `  Xx.:.P P w l 7 5.%.F P I 4.} h T.m.= n.'.l q '.5.*.z m m i h h z L z : z *.Z..X1.w 4 s T 5. .` d $.P , - < O.` I.=.} } x.T.4.I oX-Xs L T j z x. X-X` L ; h *.U g j P F =.7X].%.C.j.T L s T.x.J. X5X$.z d J.I.} 1.4._ } 5.",
"T h T L C.T.m.I.J.L 5 : z x 5 5 z P.J.d * 4 5 F T -XT.* d d | ;.L.k.'.<XG 0 f $.m.T ` m.$.5.T.%.q _ %.4.C.n.H 0 ` } O.u 5.:.I #.x.m.Y u s d O.$.d = n.n.' L L.'.4.` ` I Y O.+.` C.| n.;.f z q F =.z 4.4.` x h d O.E.:.*.*.*.:.j d 5 ` P L f 0 d } I G q %.'.C.j.j.` l ]..X} F X | Z.5.j.qXlX4.P m.5.C.l l G 5. ._ 4.P F 4.%.A 4 T m.m h O.&.u : z u + F n. .9 { ( S A.| 4 5.=.C.k.:.=X| } L.T j T.z.< m d 0 + ` <X..4.$.P 4.<XxX4.1.).q H | L.| 4 _ l l $.*.0 & 5 h g h T n.~.&X_ q F l } 5.5.f * G I m y + 5 5 $.l F z d z z z ; - < ; < s d F 6.A.=X| l L.F d | G l G = + ;.n.d } '.T *.T i +.4Xj.f ` 4.d s T h O.-X*.d m : z *.m + y P z & * P f d 5 _  .l 5 *.J.Y i T L & _ pXk.5 F s * z =XkXY.n.Y.L m ` ' P 5 ` L $.f f Y.5.%.#.d u T Z.$.j.#.m $.5 T 5 0 H n.Y.5 T s } 4.F q = | ).Z.k._ q l F uXI.m d ' z z #.' z 0 ` } F d ;.C.} l G 5 : & d ` z m d z ` d l w 4.%.F L I I f 5 * l ` '.n.]  .9 V 7 _ m.j h j j j P N.Z.N.Y.6.I I ] uXx.d *.d 5 l ;.:.T.` z L *.U < y + m j.=.j z o d f * 0 ] 6.z 0 f A s ` 1.F @ % , u =.,XK.f s K.oXP : z $.j ` } T T $.x.C.` ; x s b +.h m F G 0 _ l f A 0 } j.Y #.z $.j.x.C.j.f d $.P %.F f G P ",
"` 5 } F P T z :.x.P s m s z s d 5 %.;.w 0 f } n.d :.I.z z z *.m.C.} %.Y.=XY.Z.l l | ` z l } k.Y.6.n.Z.).1.n.5.H N.` 5 s.T.:.z.:.C.n.d j.F q F %.I G 5._ 5 5 4.5.} j.4.m.` &.XXm ` F ` #.h * s m.I.z.` =.` T =.| 5.:.l z F F z 5 5 ` J.=.5 T T & } m.F 4 F 5.k.` T.-Xf f = * q ;.C.| 4 _ 4._ } Y.A._.Y.Y.<X1.q F 4.| } * ;..XY.G z z.*.h P h O.#.m :.5 0 j.A.) y.{ ] 6.5.l l z G $. Xj.& z C.k.H .Xj.L L %.'.T = 4.} 0 z x.].1XY.A.A.6.1.2.A.q.1. .tX1XN.C. .] 2.H n.C.T.;.| A.X.A l k.H G L.:.I.L d s h P *.#.$.5 0 H } w 4 _ _ ` ` z z | z m x Z._.n.z = P G z T %.I & d F ;.| 5 ` 4X*.j.O.y T T.m.%.).'.F q * s z P Y 5 * 5 h m d =.F s : 5 X =.m.j ' 5.G z f =.:.z h x 5 = d _ :.'.Y.} z O.z.5XZ._ H d :. XL.} q * _ L._ = ;.%.& & d * F =.l | 5 5 5 L j.:.4.A.<X=.= } z I ;.4 0 q 0 q = | H f L.P j.-Xm h :.Y d f P ` | } I G q k.L.%.z F ` * 5 L 5 L P d s v T L & 5.<Xk.Z.m.F G z 5 T 5.5.n.).sXF.r w ;.:.z 5 ; s ` ,X:X[ G f 5 ` I.} T z u s *.` l l _ =X;.f G ` s + j d j.K.L L T z d I #.6.N.V.=.-.%.G I ..$X[.U g U ` z L.5Xj.P J.:.d =.P d 0 : 4.j.0 = & z d j P + O.Y - h.4.%.Z.x.F } ;.0 T 4.j P } I.k.0 5.-XL * $.P C.4.f 5 L ",
"I 4.oX` L =.4XP.P m.I.m.h x d P z l l G 4.5.].=X_ T J.#.#.#.5 d z F f ).)._ l 0 H %.q F _ I n.Z._.Z.1._  ._.N.A 4 $.s u ' F s z z 6.= $.4.n.Z.C.T Y.uX,XL z 5 z * = d d d d m d 0 :.P j i y O.P *.=.F * & }  XK.C.l z ;.n.'.} q z L L x : d 5.G z 5.` z } F 4 j.Y.%.I I j.} l 5._ ;.n.N.1._ ] G ] A l N.C.G q q G f F 4.w 4 5.} : T M + : : #.:.oX4X#.$.n.;.:XyX>X6. .Y..X} & L d z * . j Y.).J 0 j h s ;X[.} f * I P f l } 6. ._.r | N.] D A V ^ Y.Z.6._ q w ^ q.).1.| l  .I _ 4._ | | 5.l & $.d u h Y G.J.j.P | 4.H | ^ w S  .;.5. .1.I F m m d z 5.F 5 I z ' L C.5.$.K.C.d F z.s 5 h s.m x ' m.n.1.C.5.G $.I * u O.oX=.& 5 d s J._.Z.'.` d ` z 0 5 z.L.6.` + d d ' Y d * z Z.q G Y.<XI * m x d _ _ I | | H 6.[.Z. .1.Y.[.A  .H q q 4 d I I =.z * 5 & I ` j.oX;.B._ 0 F q 8 A %.:.T.I f 4 = f 5.z 5 T Y z Y P L ` z ` =.T.x.} 5.I L.L.=X'.Y.$.5 I j.d s L z z i T I q H  .X.] 6.} 5.k._ ;.L.4 = n.DX2X2.1.Y.:.L * Y z 0 4.| G x.I.` J.h.j.z h h s  XqX]._ >.z G =.-X` Y h P m j.>.' $.m $.d * s 0 Z. .l } m.m.n.N.~.=Xj m :.$.$.:.s } j.d P T ` x.jX:.= l ` 0 & : : :.j.s F :.h s :.Z.C.=.C.J.x.Y.I.f 5 = ` F G L.%.7X4.: z '.k.5.k.z d Y ",
"d j.].` : z j.>.` ` m.#.L T z } n.n.I n.rXY.n.'.$.*.T : 5 5 f l _ j.| A 4 | 6._ G _ G F l ;.=X| l w q ;. .A Z.C.l T L h * q * d F d 0 d Y.| | G L.=X| 4 I l z ].*.x.:.h : d $.n.'.0X*.h g i I.*.5 h I * u L d 5 l ;._ %.} n.Z.$.` $.z d * F L.K.L.T.K.].=X[.5.} 0 q _ l C.n.4.n.D F.1X .| pX] l ] | 0 } z * $.'.Y.| 0 z T.$.s y y - y U h m L L m *.T d 5 & _ Z.^ A l 6.k.4.:.P G l ` x.z.} =.d + =.*.=.Z.,XY.].;.A l ^ 1.6.6.N.[.| S H S ;.H S w l l H 1._ ] n.A N.| o 4 z z z 4 I 5.).;X$.5 z h : 5 f ` ` 5 l Y._. .).6.X. .5.;.6.| F L.qXT.d P ;.x.:.P ` I * j z } T.j.d - h i x ; h d & * f P ;.| ].%.` m j.5 - m z.=.G 4.6.| | ] %.m.` P J.j.$.f T K.n.m.>.L _ d z $.4.].N.0 | Z.=X1X:.i y Y T.tXrXl * H 1.{ B.;XH q A A 5.4.I.n.I ` n.n._ z 5 j.:.j.` P T H S q P F l ] B.8X8XcX$.x.:.#.j z s d x s s : X z.T.n.%.q q H q G k.] Z.1.2.6.k.k.K.:.0 d j =.} z f G 0 ^ [.yX>Xn.N.] G _ w l l l l 7 _ A _ P F z s L L > + G )..X#.5 I.XXm.Y u m ` ' z x P z L d d ` =.s.O.+ I =X$.5 T *.d 5 : m z.5X& o :.m.C.).1. .5.O.L d G G } ` s 5 d 0 j.K.h.| :.} $.f f 5 x : z x.L.'.C.=.d } C.z 5 z j.T =.=.0 & = * : $.| F G F =.T 4.] { l F j s ",
"z L 0 * F =.I ` $.f j L m :.>.f | n.q H %.%.%.` T I d 5 I F F z } :.G q | ,XC. .] 6.%.$.K.9XZ.f 0 5 G Z.]  .[.| _ n.T.x.P K.} ' =.T.Z.0 F l } Y.n.4.l _ } G ` z.I =.m.m.d = k.C.N.;.T.J.T h s.G.*.#.d s z : d z z z 0 + | K.` _ z = f L z ` P *._ n.` F _ 4.G _ _ Z.A. .1.D 7 [ r ^ X.A ;.4.l | 1.=X` d } :.m.Y.A 4.} f *.O.+ y *.N i *.s.G.#.Y * s '.Y.:.d + 0 = ] l H } G z 0 C.I.-X,X,X*.:.L :.C.z j ` 4.| I _ w  .1.2.^ G $XN.A H _ ;.n.H G n.Z.F.[.1XY.| _ N.n.| P z d ` F 4 F 5.A.Y.l ` x.I I m.C.z 5 f F G ).A S  .q.n. .w w Y.I L.Z.q = 4 n.:.j.m.L *.j.` O.' ` ` I j U U h * 5 z 4 l x.Y.'.5.6.l q 5 P m ; * L f Z.k.5.A.n.G + 5 z ` *.j + 5 =.} T I } qX<XI 5.=Xk.;.} 5 L.;X2.[.iX#.P :.G 6._.Y.I ] 1.2.%XB.0 w ^ ] [..X>.I ].'.z f 5.T * m.*.5 f F ` | ] 4.$.G N.^  .Y.Z.} d ` #.:.d 5 I L h O.#.5 5 P '.iX} q L.H q G ;.5.'.5.w l | G q $.T z z.=.` } n.%.l r V 2._.n..X| l q 0 k.L.H q 0 f l '.n.f : L : L 5.L.5.f 0 * * O.J.O.m u s.*.h * m ' *.z.I 5 5 * z * & ` Y.%.x m T 5 5 m.J.l.s o z :.P ` [ ] = : z.l.=.s f $.P ` j $.=.: x.h.0 :.Y..XC.F P Y T T T $._ G %.: T =.F } ` z z z T T T d 0 | L.=.4.G $.` 5 6.2.2.G G z L ",
"L & = d T m.Z.$._ =.z d :.K.:.:.j.j.l } ` 5 ` K.m 5 5 ' :.` P :.Y.I.P + d 5 = F l G 5 T :.| _ f = 0 f 5 1._.A.| 1.5.'.uXZ.Z.| %.N.]._ 4 P F m ' f G F n.5.I l m s O.&.P 5 I 1.4.Z.%.' s * j.j.5 h P x j :.m.h : d * h z Y =.I 4 F F $.0 s L h T G $.} ;.| :.] Y. .q.q.X.1X$X7 D ,.2.B. .A _ H Z.].C.j s h I ;.6.] C._ d u : ' T *.M - - m XXT.P : h 6.[.9XI I q ` Y.n.Z.;.C.;.f I :.f 4 d 5 L ' $.*.I L k.d 4 q w G 5. .S 5.6.H = 4 d m.*.*.>.#.j.=X6.n.N.N.N.r _.Y.} } T :.d ` m.} Z.1X .& ;.qX].C.1XxXj.f | B.X.V w ] ,.2. .^ B.F._ q 8 w H 4 * } ;.$.q '. XT + g P d %.G z j L :.z k.| _ ;.Y.C.` ' f = f %.k.k.G j.:.0 _ d | %.6XT.l L :.T m.z.& z K.f q T s _ ` G | N.;.4 H T * x.].Y.n.z =.;.5 P $.%.;.q & | rX%.q | ;.q.3.F z 4 | 5.f z  Xj.L z 5 L L * * _ A Z. XZ.;.).3.,.] w = f L h #.=.5 z d I.#.d 4.m.;.} _ x.n.T * | ,X.X].| P '.4.I 0 P =.m.j.f 0 I ` _ 7 8  .V.^ r _ 0 0 q f T z + * P I k.Y.k.I f P 5 } L.N.I T T 5 u u * ` $.m.s h j.$.:.*.h M T u h z } G ;.N.).] 0 4 4 G Y P.O.& 5 & ` j $.I._.Y.s u h Y g s :.T * :.m.#.:.d T.XXj.=.Z.=.C.J.#.P s.x.z f f s P O.T #.J.C.=.G %.} L j g z } n.I m.iX| z ` | -XA.] 4.1.6.k.",
"G 5.| _ | n.C.| n.j.j.L ' T.T.*.d F d 5 L =.T.*.s d ' :.F 4 l Y.<X` d L I L z I N.n.0 f ' z f f = 0 _ G C.0X=X} | G I m.5.4.].Y.k._ 4 f *.: * & f q q N.<Xn.f P m j u : f I _ } | l d Y :.` L s ' *.$.d z P d L m ` } z >.T z I 6.| 5.4.j.*.*.5 T 5.1XsXC.z =  .] [ 5.G N. .G B.2.,.N.H * P 4.F =.d z h h O.k.G 4.7X*.* : d 5XqXz.i h h * : u s X F Z.rX5.* P $.Z.;.G I l T ` n.T.` ` 4.` f + m.:.#.j.G z F m.6.w 6. .7 5.6.4.T.j.L : x s s s z q * = 0 ] A.;.7 l 1..X5.5 s 5 T 7XN.[.1X5.G _ L.6.N.[.tX| = 1.rX$X .B.;X1X<X).5.Z.HXxX1.I '.n.C.L.l l %.d :.Z.z u + * f F _ P : P f = A.Z.N.;.G f * d =.5 l n.L.n._ G P :.d 5 ;.` n._ z 0 z d :.m.= 0 & f G :.J.$.d 4 F } H ]  .#.* ` qXqX| _ 1.f 5 m z.} 4 d 5 l I z F m.6.X.{ 6.m.I 5.;.* I ` T z 5 5 d x s $.).1.| z l 5.(  .{ V.6.%.#.j ; h T m T d d f d 5 5.} H _ 4.4.0 q %.5.5.0 0 d =.=.c.f h.m.` d F d H Z.;.H 5.e.>X).F + F j.=.P * d ' I ` $.j.F I F = l I q 5.4.T Z.j.s Y #.: O.|.oXz.f L ` ' d >.f.M y M :.=.;.B.] w G N.Y.q.6.j o P $.=.z } j 5 f 4.<Xj.< < g h ; Y d f |.=.T -.d L L ` XX4.= 4.XX=.u 5 #.T d $.P & T =.j l.-XK.: 0 $.T d : : ` =.0 0 F ` ` z $.T.| I ;.Z.Y.V.",
"} } 6.| l = 4 } J.s.*.s i *.j.h j d d d P s P ` L L ` G I I H 5.f + #.h.s.` P z 6.| z } j.z w X.2.H r q z Y.j.m h 5 z h d z x z P ' 5 =.oXZ._ | ].I G ;.k.Y.G 5.] P Z.$.' =.h h h h f J.Y.5 5 j #.*.u P 5 z P C.,XC.'.C.| n.q l 1.l 5.4.' L L 5 z = 1.;X` 4 ` G T z ' P : d z G C.%.l 4 4 P F } I } x L z =.F q h *._ } l = L *.L x x h y i ; s s $.;XwXN.| Z.m.G 0 F ;.G l ` n.} I j.oX$.d z _ ` x.4.4 f z $.>.4 '.n.4 G I J.P.j.I.Y T O.` ` | :.5.n.H | _.w q w A ;.G P : z & $.6._  .Z.C.n.| A H [.).G | | 1.5.5.$.C. XK.T P T *.5X X$.j.5 ` z _ G G n.oXj.P :.;.] A.| 5.#.x m & & 4 G [.xX;.z z s s = f | G l d & 5.6Xf 5 P P.:.f z l = l f 5 d l 5 I L z *.L d I _ | H [.0X>.z z 5 T } ] l & & P z.]._ T z 5 ` :.Y j 4 [ V.n.` } m.$.* I L.n.l d & 5 q l } pXvXY.I 5 } 1.( V.~.8.k.'.#.< d : *. Xz.T } } ` I f l _ $.` f f G =.F P } 0 : 0 ` I I x.} d $.} $.G I n.).N.3.X.l z d =.z.` $.$.L.6.;.n.G ` P F 4.x.,X=.G F f 4.I.j L s s 5 L * z z.G l z P J.z.y u m I _ 6.2.D X.^ 1.^ F.$XT.x x.oXj.5 0 f T G f } d ; N h U L d ` j.T L z.=.* j z L :.j * T I.=.d s d T 5 z x.F d s.*.M b g < h *.I x.C.F + j j z 5 =.L P h T d k.=X_.6.B.",
"] 0 1.F.;X;.l | :.Y y 5 h &.T x h z j.J.$.P T $.L z G G 1.).| n.Z.z z z } ` G L.4.| $.:.j.q l >X`.2Xe.4 z 4.Y s y s Y x h =.m s s *.:.' j.=XN.C.iX<X| 0 P _ 4 q q } Z.m.` - X @ M ; : z d F $.$.$.z.x z d z q z C._ I 4.C.<X_ ;.| F k.6X#.d z P I l H 1.* %.,Xm.= * u s 5 h z * : T d + d _ 0 L.7X-Xj.P : + G P s y #.5.l q 5 + 5 z s : i h i x :.k.^ q.Z.} G q 4 F Y.Z.} 4.%.f Z.].oXC.F *.=.d _ 4.f G 5 + & + * } :.n.:.5.` s ` x h P 5 q _ _ l 7X].| C.C.6.4 k.L.;.].$.d h } m.| = G %.n.C.l } 5.[ H } *.F q f f * d I L + X + 5 h ` s ` I z 5 ` I I T T G f ;.4.).).H 5 * s |.j._ l = N.]._ $.f z x.T T l l z q = T.Z.5 d :.J.z 5 d | :.$.| $.4.} L z ` $.j 5 T m.lXY.G S H 4 m.*.x 5 | G _ ] 4 f z Y.C.G = 4 ` =.: I z N.;X)..XT.L 4 z q l l _ 5.G ;.G 4 6.wXF.H 4.I.n.A D q.] 6.4.P F : Y L F F l G %.` I ;.0 * N.$.` L.:.%.=.f I ` P s f =.j.j.T G 4 f = G 4 l C.A.H 4 A z m d j s * d P } [.k._ T f d $.].4.4.} l f s : L d Y =.*.5 u m.:.` z _ _ m.6XT.' d 5 & l N.).$X~.{ N.;.q.[._ 5 n.L.z = I c.T } 6.1.T s Y d.M L :.x.4.z -X8XL s s #.Y L s h Q Y s : s 5 $.| 0 4.` L b h < , , ; ; #.'. Xm.z s ; Y l.` j x T h P :.uXtXV.B. .",
"1.7 6.$X;X[. .N.` z 5 * L =.' z l $.T.=X-XT.C.T.4.I I H 1.F.6.[.].].x.I 4.5.| ;.C.].4.=.I 5 G N.N.). .q } 5.P d I P j T d z P G | 0 5 f f '.n.'.j.j.P P F j.k.f G } ].T.z & P z.v i :.I.| ;.Z.f :.j.I 5 + P ` d & * 5 z :.:.P =.m.P k.qX*.+ F _ G Z.Y.} w _.6.4.].$.5 * u ` j ; + ; + 5 ' _ Z.;X).n.T.s.h s P q : x 5X>.5 _ | } ;.l 5 *.U - X T ` l 4 %X=X_ ;.* k._.| C.%.%.| _ Z.5.n.0 L $.$.` m.5.} } $.d 5 5 P $.*.= 0 T z z M - s 5 l F.`./.A $.5.)..Xn.C.0 5 } j.I.*.j u T z |  .l o l f f * } .X4.h m d d = z 4.` 0 = z z f F C.H | | C.T.I P ;.* * F T d ` ;.q H q.N._ I :.M j.$.d m.-X} l q I.m.d * * *.%.& 0 =.5 * y m h x ` T n.n.n.;._ P z m.j.*.9XI.z j.5.,X6X .).).] q.:.Y P & d 5.;.H [ n.Y.I f D ] w P s 5 5 L m.qXcXCX:.* K.'.| ] ;.1.r N.Y.] $X;X`. ._ F = } k._ k.1.f G f ` C.;.| | } I L.j.F Z.] 4 Y.L.4.C.n.4.0 z z P ` L j j.I.XX$.f G I 4 ;.I Y.Z.1.^  .Z.C.z z * : m j : z  X%.4 ` _ f V.:XH = l f ` Y ; ; 5 j $.*.s z j.m.L l _ 6.;.].Y.m.$.z } n.<X] ^ <.t ^ I X. ._ F | k.} 6.4.T = 1.rXA.T s O.z.h 8XqXP : :. X=.F f f =.T $.*.b u + - + & d F =.'.T - v g , h u @ X T XXoXL P m.:.5 j d Y s j P Y h ` x.'.L.[.4.",
"] ).D 8 | 6.5.G P C.*.d d * 0 l ` I.m.n.j.$.z T ` l _  .Z.l l 5..XC.` ;.C.5..XC.5.} z z f l ;.S r ] D 1._ l q n.` I j.#.d Z.j.f } f z C.` L *.T f d z 4.#.F j.:.$.G d 5 d x :.P.v i x _ N.A.A.G G z *.F s.:.*.z Y s 5 #.-XL d 5 z ' G Y.Z.z P 5.G C.T.4 4.Z.A B.=X;.l :.` q & : - @ X ` C.6.-XH f 5 s Y z ` 0 5 + z.-XL q Y.).1.B.5.` J.U h y L ;.q r 2._ H qX6.H I q %.'.4.F d l = & j : 5 q *.L.G * F F d L T #.j.f 5 f d 4 * i @ $.=X_.sX&X<.A '.A. .C.;Xq.* 4 d ' L : * u 5 C.].G = q | ;.*.* I z f 5 : & z P q ].Z._ _ H L.| ;.| l H F } 4.6.q F q _ k.T d f 5.'.).<X1. .| :.m * 5 d h I L.} 4..X_ l l *.j.4.q l | F h h M i L s : ` _ q F 0 f h m.j.* d m 5 I I T %.4.q.<.] Y.T.x s z l _ ] [.V.1.l _ ).;X;.= z Y s d x = L.Z.P.L 5 I.x.C.I ] H | G 5.A.3.).6.5.} ` z =.| F C.5.0 l 4.5.k.[.Z.'.Z.n.<XoX` ;.A. .<XL.4.Z.%.5.5.Z.} z P ` s f } } j._ | 5.n. .A Z.qX=X] 1.%.q z L L s Y j s ' ' ` n.;.%.N._.).J = k.h.$.: i O.L L z P ` |.u d J.Y.;.X.3.w G =XkXC.].4.} 4 r B.F.1.q l N.rXZ.| w I qX].F I Y.6. .f #.E.x.j =.4.=.h s T j z T F =.d z T M b - d Y F T d j h.z h i M @.m h g u C.C.: * P x.z.u * f Y XXJ.h *.l.d F G H G f ",
"%X:X^ [ | | } #.:.s.z F L * z $.n.n._ = f T 5 P 0 G G H 6.q I | I z d f q G C.;.& * f 5 0 5 1.[ N.[.q.A.] q ;.L.h v m.T ` qXP.5 5 z ` 5.d 5 *.#.m =.d x : d u >.=.=.F s *.m.G.h m U * G Z.).q.[ r _ .X| I.h 5 h u : ' Z.` * I :.T j l _ %._ 4.>.} _ s * F G r  .w 5.6.C.<XN.= l * h i h %.=X*.+ +.u P :.G l 5 4.` ' I.n.4 G D [._.;XK.T h T T I.,X).tXe.7 F ,X.XI ,XG G A.] q f l f j d d j m z d l F _ ;.q d P L qX` *.` z 5 * y u j.qX]._ ] w A.'.;.^ A V.q.H n.P.T m - j ` I.'._ q ;.].C. XC.$.F d 5 5 : 5 x.F q l  ._.6. . .H r 1.l S F ] xX5.l G G z F 0 G & _ 4.] l 4  ._.uX.X'.L i h L m.j.C.| H _ n.Y.F 5 } G T j.*.z s : m j h d l  .<XT.s Y u + : : ; h < < v z I  .D  .` T y T j.A 7 S 6._.q.* ;.F.N.=.I : 5 z ` <X;.+ _ ` P ;.F l l 4 I d d G w w w w G w _ T.4.J. Xf & 5 $.} k.<X2.N.=X=X} %.K.=.= %.;XN.n.C.| Y.Y..XL.=X6X$.d d *.L } I z  .B.N.n._ ] l f l _ f H :.#.T T & d h #.T L Z.` q ;.Z. .n._ = P I * u j Y h.x.z } I ,XT j :.} N.6.8 4 | L.5._ q = + d 0 1.n.l f w 1.;X[ <XC.f T d : z P 5 : h T *.l.Y L :.P - ; b M < m ` f * j ` h.L d j.-X'.h.=.I f 5 #.I d ` m h u : Z.C.F z :.l.- < 5 5 ` m.K.z :.K.d P P F f s ",
"2.,.2.1._ j.m.=.d I L z $.T.j.=.,XT.z _ #.z s P 0 6XZ.G H q %.'.$.d : & l ;.;.G z 5 Y d P } } } ;XY._  .^ 2.V.1.s.&.+ o l *.m - 5 d T l 5 #.5 + 5 z T T.*.=.h 5 I ` *.5 z z #.G.J.s.* F 1.1.3.,.2.;.A f 5 * d Y h * z z d s T I d z Y.4.H 4.T.z ;.j.=.z l n.A.[.D ).[.;.)._.6.L.T.J.j P C.I.h + s.C.=.5.z = l } C.5.Z.qXI ;.q.).Y.N.z : u Q *.*.6.2.q.1.l z G %.,XkX%.;.N.G G >.F 5 h s h h :.qX*.;.].6.| d $.x f d ` J.P q 5 ' U O.J.0 5 5 0 7 f | | [.S ] e.6.z h s u h s x :.n. .| k.| G F d d z d ` =.' z.m.Z.5.| | 5._.Z.L.Z.;.[._.;XZ.] C.0 4 f q } I G z _ C._ _ _ 0 _ n.Y.N.m.` ; y s s $.} | q.| 1.l 5 o + $.:.P d d m y h i j d _ 7X=Xm.=.` 5 : m *.- h *.; i i F ] D 4.z.* + x G  . . .H Z.iXl = A 5.P.s.s *.I =.L._.5.I.I.J.'.| Z.k.5.Y.#.u X l e.1.[.).| F $.q F I s L j.-XP l _ 7 = l 4 q $.:.f * C.<X_ H  .0 ;.'.5.:.;.} q = f } #.I & d [.;.| Y.N.X.;.= 4 ,Xx.f m.` P : s j.L =.I * L 0 ` n._ H %.K.j.` + j m s z : } T.x.T K.: L h.Y.<XB.A N.k.n.l = = 0 d d d z P 0 q A A.rX .N.mX4.X s Y + j *.h : s m u : s =.f 0 5 : - < M P f P ` } F $.G =.-X=.P K.T.I G .X.X4.'.jXY o j C.;X=.s z m < N T T K.I G $.4.G q n.C.` F z ",
"( F.$X^ * * 5 z z * 5 u h x.n.l 4.j.T =.I 5 h : 5 n.%.} z I 4.4.d ` :.#.d l %.Z.z ` =.d } C.m.T.-Xl m.n.] q.e.^ 4.d d d } ; u j Y P $.H * :.I & d z oXlX` d : f d 0 f P J.K.j.E.s.5 z 4.w [ $XV.wX3.7 6.r _ %.n.L m U Y f 5 4 _ P ` I.'.n.F d 5 G 5._ j.n.l 1.N.6.] _ 6.Z.;XY.j.m.m * ; m m : } F.X.} %.5 * 4 6.n. .1XuX;.C.C._ G l s h i h ` 4 q G 4 I k.z L :.` I A _ d I I ` $.d 5 d h z s Y d f f = o _  X*.I.x.I T d 0 5.qXG.m z h s s 8 6.j.O.` z } | C.| 5 o u h u h m z k.1.w l 5.n._ f d 5 * T =.L K.z.=.C.m.$.;.Y.%.;.Z.| _ | k.| ;.Y.| & 4 _ ` Y.$.0 F C.L.;.%.n.%._ q 0 F + d T T h j.I | B.$X| = = j z P :.d & I x.O.h + - - h ` ` O.P.*.+ U U O.: s j M m @ ` T.K.F z z d 5 :.Y.rXZ.F z $.:.d 5 z 5 5 L ` d ` F ;.<X} x ` | 4.4.` | Y.:.` F S ).[.A.[.P = } ;.} s j O.:.=.I I 1.| q Z.Y.} j.} #.z d >.%.} 0 $.m.P d ` L = w G G n.=.* : d | 1.6.%.6. .r A A k.} d h : j -.4.XXI.h.L j h.j.m.4.| | z ` m.P } I.x.T.h.= 4.x.F F 5 o f $.4.1. .S 1.A I l F 5...4 0 4.c.F } q 7  ._.Z.] $.z L $.m ; ; < i u : u x.z.x.Z.D r ] } x.:.0 = d f o = f =.` : T #.P |.XX} ] V.A.n.k...$.} T L.Z.` :.P L z.x.$.T } 4.C.n.Z.6.] N.1.l 5.'.",
"[.F.N.<X;.I j z $.T 5 T :.L z I C.G P L O.O.m *.=.0 %.5.:.} C.5.& P I.T 5 F 5 } F =.T j F :.>.m.m * G q r ~.yX3X_ $.>.4.m.z.' : d '.Y.w + | G f ;.n.| F | z ` m.j.q F l x.j.: d 5 * f z w w ).e.~.V.r.F.D H w F j i a G.T.l ;.=.F z $.=.5 G f q ` z q q l H N.).] _ l ;.T F q f 5 y j +., X G ;X&X) A  .4 _ 5.=X .4 5.j.d u * d 5 L T + + m m.G & | L.=.' z 5 o : j._ 4 5 d 5.l X L u * h O.h h 5 * G n.n.| J.P d >.= q } } 0 j.5Xu * ` m.} 8 _ Y ; M z.m.z ` K.L 5 h *.: h j.I.;.l _ A | Y.` f 4.z 5 z T * P j & 5 d 5 ` P & d } 4.z :.4.Y._ G L.m.q %.:.` q 4 | C.n.;._ } n.} | =Xn.%.5.n.m @.oX;. .1.F.H | = ` :.d T $.0 } J.G.@.i M *.*.; y i &.*.T M - 6 O.L Y J.L m x O.*.5 d : $.} l 4 } P L L 5 P P d d L ' d d z m.j.m.6.& * } H ] z 5 F L.,XI ..).1. .f %.Y.:.q x.| =.j : d | P w ] N.F %..XP I L T F *.$.z >.=.:.;.z X ` T 5 4.N.].Z.I 5 j T } n.Y.A G 8 6.N.n.Y.0 d h d : -.: 0 L :.-X$.` ` I F 4.m.*.d ; z j.4.P x.L.I j 0 F P ` -.G F l ..6.G 1.6.q %.=XuXG f ;.5.L.;.%._ %.7 0 | 4.T * j.T.h u ; + ; j Y j m L T H ] ( 4.Z.L.%.I | :.} I T.'.XXh.s : 5 : #.C.L.I 2.1.H A.5..XC.= s T z =.=.O.J.P & f } x.5.%.N._ [ V.]  .5.} ",
"<XY.5.=XZ.l } :.d ` I d u s 5 =.I.P $.' *.z.$.J.>.` $.;.F :. X` 5 d Y d L x.%.;.m.` f z L ` O.h 5 x z l 5. .r 6.n.d j *.` Y.5.F q _ A.1._ '.n.G Z.).5.].'.5.qX7XL.G 4 & _ :.5 s d P *.5 * ] 1XrX{ V.<.,._.] _ L.:.m g a z z f 0 q 0 ' >.T.,Xf 0 ;.Y.| 7 1.;.n.n.m.4.$.T.0 * 5 * h d.Q 4X@.M l _.`.o.`.V.] H 5.:._ I $.P 5 u j z T h.h &.P L j.l * } n.` j ; h h 5 $.L.} s u j T z T P :.z 5 m O.m ` n.).1.} ` L $.f 4 z P ` P d U h d  XlXvX5.L ; # ; h h + 5 F z z F h s d z G H ] N.l l I 5 L ' I z 5 ` j.z s z I I } K.L 5 L I I 5 P j.z 5 5 _ m.l ;.%.} I 5.<X].l = l & 0 _ ;..XZ.'.$Xl h i.` 5 ] 6.^ w ;.F z I 5 } >.z I *.` Y g b N U i.a b g y Q O.# p XXG.x P d d ` : ; ; z d q } _ G ` h m m M u y 5 d L 5 d 5 d  X X5 f q * L [.].P L f z ].*.F J.z * = | 8Xx.f x.x.} T L j =.G F 0 F f P $.` } z T I f f = z T 0 z } w l %.G G :.T T 5 5 }  XC.F 1.A.n.^ e.).5.k.s : O.T d d #.4.} J.-XT :.K.k.%.Z.` :.:.x *.f * F Z.Z.=.f & d $.'..X5.k.L.C.4.q q q f k.'._.w w N. .n.G 7 L.c.F } q P } s =.O.: u : : l.Y T : s =.` C.6.| } 5 L #.f P '.].%.=.6XXXY u L Y 5 : C.Y.;.C.f | N._.).A f 0 G k.P : - : l A k.N.%.f f z z x.=.P :.F h.",
";.'.l H } G d :.l 0 z 5 5 5 5 l ` ` $.*.I d m 5 5 G I 4 0 l G f z * * z :.:.n.| C.-XK.0 5 j.m.h : y d P. X_ S N.;.G 5 I F n.[.tXq.D n.B. ._ q.n.N.;.A %.k.l ;.5.z = f T ` m.| f j.} _ I 0 w G 1.^ _.,.q.tXY.I T z m y 5 *.Y.4.q 5.I T j ` L F 5.w n.[.N.| } :.L * d |.x.d d : 5 @.N M z.m j G B.| Y.wX_. .l T L z #.L *.*.Y h 5 m *.h +.` T.%.| 6.=.5 j m y - y ; + P z : s d z O.*.T :.h h u h *.x.;.;.l _ 4.=.#.z.*.z 5 l z * y m 5 %.1X1XL.-X*.a p h ; j.` } -XI.d L j.` _ _ ;.Y.N.H I T * d z :.j.d #.:.z 5 :.#.#.x.x.f f I :.j.& 5 5 z P d P T _ 4 l x.| | j.I | Y.Y.F %.,X| f 4 4 Y.T.y m z 0 q.B.A 1.6.* P.9X:.f f F f j.=.' * h T f.P.M a y h < - - ; @.+.- 5 P 4.z s.m.i *.>.'.A.] } >.L m T U h ; x P J.m.j.m.L x O.: G C.#.+ ;.] = L 5 q z T j.s h h h } T } 4.} 4.C.I.x.f F q l F 0 * z :.6X6X%.* = _ G ` 4.F :.:.C.N.A H G 0 :.' s *.5 =.'.0 4 f 5.] S ^ D n.j.z z L #.T P -XI.=.=.=.F $.x.} | I.j.d d z j.:.= = } 4.P & F f $.5.]  .6.N.} d 0 q H C.[.;.0 l = H ]  .6.] F G | F z P 5 = z s : + s d } L m.T.I.$.F C.%.T ` d s h * #. XI f T P h.z L x. Xh.j I.=.$.4.F F f Z._ 0 L._._ H :.L * h.P 4._.n.| j.$.T P : d L s : j ",
"f 5 5 ` G ` %.5.} 5 5 * F d F =.j.P 5 z ` d + d $.m.:.| l + F f = l :.L ` 4.;.k.q 4..X} z z.` m h x L T G f f Y.;X[.%.l = 0 Z.>XA.N._.n.H 2.1.| _ q G C.'.q 0 l 5 I 5.| L } l z =.I I | q & 0 l _.[.N.6.6.%.$.z h s d #.m.j.5.Z.Y.` f s : 5 T Y.n.n.F.%Xn.& L z s I s.O.5 x d j v N i x ;.| 1.;.l ' L G = l '.qXx < x h.I ` & + 5 U v u *.P + l 4.XXP.z.v M v : h u y M :.m.O.m h i T #.*.O.*.E.$.f 4. .w 4 & d T *.` =.' *.I & i j * $.[.N.G I J.y m *.:.` G } %.4.$.$.j.I H Y.Y.n.;.;.C.P.I L -X|.T z P =.} z -X'.-XC.n.G 4 $.=.G :.5 : z F Y.k.f z 5 5 T f ` G 5 m.xXqX;.| G [ xXk.& *.J.m :.` I _.q.| 1.,X*.#.I.$.` f f P ;.'.5.f L :.J.s.i ; h *.h p f.#.@.v 1 U :. XY.$.m.i h $.].q.Y.,X=.T I L h d =.F z $.x.j.].` 5 + : f _ $.= q %.P d l 6.6.X.N.f m L P F 0 0 & z ` 0 L d > F n.6.[.4.q 0 z d w 5. .;.5.5..XL.] f G C.L.z f G 5 ` ` :.*.T =.T d ` 5.>XF.q.^ ] I z z =.L z d P $.` I 5 d f f T T n..Xm.4.f 0 q 0 f m 5 5 z ` $.` z | k./.) 7 = * P } z k.[.1._ [ e ] 6._ _.1XF > j.} d j I :.m ; : * 5 j : I XX.XC.x.Y.n.%.` L j h g + j.I.q f 5 : I z f } #.j.m.h.* m < h L : G :.f k.:X).%.` L T U < f ] F | '.Z.;.P F #.T j s Y ",
"z L *.F x.| F $.q = l I T ' f #.z 5 f z I q & $.=.| Y.4._ = :.$.d I $._ d z d z & q _ n.6.0 u m #.*.j f d z d j.N.5.1._ 5 I | ] ] H H | 2.sXpX5.Y._ P j.G f ' T _ %.;.l Z.Z.0 w l 5 z } L *.F f G f A  .0 f 5 5 d 5 f q & & _ ] ] q d h P.8X` G 6.H * D =X4.d h z z u u j ` s.#.p c ; 5 ;. .Z.=.z 5 5 #.$.:.Z.:.x u 5 5 z 4 %.T.$.z h s s + A ).z + *.l.p < m : m z m h L :.z - h M u ` z.*.*.O.5 I F | Z.;.f P 5 M z m E.C.:.j.+.*.u 5 5.Z.5._ 5 m } | q 4 Z.0XY.` G Z.%.H * q C.1XZ.k.m. X` : #.*.F z z :.k.I 5.m.` F 4 f | 5.5.5.P.I h & z G G l * #.0 d j #.$.z I ` f 4 ;.] H Y.n.d h + z C.T l A.2._.H } $.5 ` f F 0 4 4 0 I l | 5.=.T.m T j L O.i 6 z.T g c n i.d n._.C.} u Y P q = G 5.d #.L 5 * x #.I =.:.:.5 z T u 5 j 0 l 4 T Y.C.' f n.0XV.$X1XL.; m s = z L 4.$.$.I.K.j s G Z.Y.H l l l 0 = 0 ;.rX$X .G k._ F T = F F ` d q 5 L F *.P ` P.z s z ;.=X).2.H '.n.P } f s P T #.` F K.oX,XL.f f %.=.5.4.T } 5.0 4 j.G.s = :.:.$.l o $.<XF.[.j.=.m s P f | N...4.%.q k.A.4 [ N.C.G z z x.` d L L P s.h ` I.z C..X'.| .X XT :.x.T h L Y : j C.Z.%.q 5 f 4.$.f 5 z Y j s h m T L s T j 0 f q.A.G d J.P.OX*.` Z._ G %.G H k.` s j z & g ",
"s.L L } -X*.5 *.| | ].5.F L L d d f 5 4 %.q z P F I l  .G G ;.f %.Z.Z..X4.h v v * 5 n.;XY.Z.:.:.` #.d 5 z :.I + * * _ .X;XX.[.tXY.F } } A 1.[.1.N._ * d 5.` 5 _ $X_.o.[ ;.q ;.=X| $.T s O.*.h.I $.T n.'.:.P z m $.;.A 1.n.G _ [ ;._ = d J.'.q f ;XA.+ 5 z T ` L.f s m +.j x I j.u ; x d 0 _ ] I H ` | *.f %.4.q _ 5.:.} $.` ,X.X` 5 & q P q n.[.O.g X X y   y z _ F.Y.5.* G j.h + M s - * s =.T = f 4 I A._ :.:.u M T : x z P P i &.m * j m.C.L.d T.1Xo.] 5.x.cXmX:.#.$.1.1.r r | n.| F | 4.q 0 z z q d = | L.5.q 5.n.0 & A.sX!.[ G $.P.' P _ } I 0 H >.T * + d L d 5 + 0 _ n.A.` & 4 5 d & 5 z f :._.B.[.N.A l d F %..X| = ;.:.f f ` :.P ' d J.-X' I j h P m g 1 y N u $.C.5. .l q l l ;.] f d * s M ; + * s.&.P z T f l z : s _ 4.l G L.K.T T :.6.H B.1.Z.h h j * >.=.} T.5XT.#.' d I } l G | k.} l I C.N.[ B.] l f } f * ` z d z G z f u z J.z.a x s h x F %.0Xn.Z.[. Xz.5 = 5 f f 4.| f 5.6XL.H f w P I :.I 5 f ]..._ ;.Y x z.:.5 d 0 q f H n.*.#.` s h m P z = | n.I n.).] ;.H N.A.A.<Xj.z.h.j 5 P J.h.s l.T.f 5.K.C._ %.$.& } j.F z } L $.m.c.'.%.f 5 : f L 0 & & s T Y Y Y O.#.L T f } F 0 ].j.d ` F C.4.G C.n.N.G w H ..` f | ` j + ",
"j.5 h =.:.O.=.m.n.5.Z.Z.=.` ` J.T.$.I ] A 4 I } n.'.w 7 H ;X'._ _ %.n.5.P u 1 2 u 0 l  .] ;.d 5 z $.5 d 5 z z } :.j.q ;.Y.1.;XY.} z I 5.~.B.[ _ =X].j.d n.m.4.T  .V.6.;.q._ F Z.j.d u ; x O.J.#.= z P C.'.0 :.J.$.1X<X_..X| 1._.Z.;.q q :.%._ Z.].j.L Y h T =.` _ P s Y - ` J.:.* L >.=.I ).Z.%.;.n.G L.n.} 4.H ;.Z.=.j.L.T.G 5 I 4.5.A d ` N.5.Y ; N y , i U m. .F.xXvX;.4 P d O.+.h X s s *.'.$.o ;.Y.| l I I - @ h h i u h z 6 m *.h - Y 4.} >.=.{ #X0X=Xz f * f L d C. .} '.k.;.k.d T K._ l _ K.5 q q =.<X4.| _ d 5 F 1.) V.V.| } :.4.} | H | l Y.L.#.m 5 : ` j.d d F } ;.N.$.m.F ` j.$.C.:.s.F ] 3.5. .4 | k.G *.'.` P =.d =.j.P * + & 5 : z 5 :.T h y T i.N N v - ` k.| | n.F = F ;.4.I z 5 L 5 - i s h ; ` ` z ;.=.Z.j P I.} P I %.z d f 0 4 _ 1.f n.` i x L ` l I T.f L d x * ' m.k.n.7XxX5.5.%.6.Y.1.[ [ ] = } ` z T.#.d >.=XK.5 s z P g p s 5 O.L : q I H N.Y.' ' | 4 T m.G 0 =.} =.l H [.[.A I Z.d f d :.C.L.].f 5 T 4.m.` G | | } 0 h j j T.z.#.x : I $.l F '.,X_.6.d | 1XY.N.'.$.I.kXm j j.` s s P j.K.C.C.L.x.0 z 0 z.K.P f F F F F f _ 4.:.& - d :.` d d O.5 - L ` $.z =.T.T f z . T 4.F F G G G P .X7XZ.4.N.4._ 0 z '.Y.m.j.",
"s d ' :.z P ' G d } '.j.:.s m *.J.| ] A._._ x h j.Y.Y.%.} ;.%.} l * G f ` Y # M #.:.G 6.V.1.P 5 z z ` L $.z z Z.=XA.I * d 0 4.} f d m :.n.;XX.A x.m.-XP I.].m.z | A H z C.:.z d *.m.;.w 6.n.Z.| _ G L m x.z.z T I | 4.l f F q l 6.[.6.| ;.| [.1.l = 0 d F $.| } 6.x.Y h 5 J.5X$.5 P 4.Z.'.;.} 4 4 } z | m.F } G G n._ z } x.d 0 _ =X%X5.: j f d #.s T i # @ h U 5 d ` z z 4 _ ` ` O.O.z 5 :._ C.4.=.C.Y.'.].,X` o h &.+.&.O.5 z ; h P d h s & 5 $.'.2.B.F q G F f z f j ` 5 x |.n.| uXL.l ` f 0 :.:.P } l d I 4.rX| 5 M P l { ^.N.H 4.=.x.5.A.=XA.* _ | l z m.P s.T.} } = 4 4 _ %.5.6.:.: z j.M < P l D q.{ ( [ I d L ` P x P m m h s M u u : s h 5 i U N @.n y y +.O.s j.$.f L #.j = d L ; + 5 h 5 : h E.$.z O.I 5 z 4.G m.P m Y u #.].C.1. .l w | F.$X| _ Y s x z J.m.'.5Xz : h ; x ` T L ` P Z.m.$.4 ` C.1.G 5.pXF & F $.P m O.L m.'.5XT #.Y , y P k.].4.5 L } H Y.5.; 5 N.5.n.$.P 0 d F F = H N.1.7 f 0 G I 0 F F } ` d z l %. .S I ` P 5 * ' =.j.XX,XF z 5 m.m.k.4.6.Y.<Xk.y m J.m.G q ` |.K.I ` z : z j P } P 5.` _ C.} F f 0 ` | $.F q q G | } P $.z #.` T T P.z.` d : * F d P j.4.I G c.%.T T :.I ` s l T G C.G G I ;.x.G + _ ;.} m.",
"} T I z P 4.j.z d q d L x h a h 5.] * [ 1.5 u 5 q _ N.| ] ] H } %.I 0 :.oXY - y *.F n.B.1XrXm.` ` | oX X:.d d Z.N.). X#.+ Y *.0 f 5 h L N.^ * ] } I ` d T >.z l ` I * j 5 m s.s.#.T.<X1.A _ H %.5.` z * z.m.` k.4.$.z z $.5 l f P | G 5.1.X.] 4 ] l q 5 G 0 _ | 4 P I.s.; ; z Z.x.j.C.| L._ f w ;.Y.| ;.= d $.:.5 l ` G f d ` T _ ;.;X6.+ ` I ` C.4.d + - a @ g O.i * L F l l T : u ` T L j.H 0 q F 4 4.n.I K.z + M s u s.z z z L j.d m XXj.z T T l ).6.z 5 G %.H C.).$.* - h m =.k.C.Z.} F G P ` d f f _ F F 4.Z.A.5 Q m ` ;X`. ._.'.;.F 5.| | w r  .6.G $.T.h : 5 5 } _ C.` q + 4.:.$.L z O.*.a P Y.V.o.D /.A q z z *.I d 5 L #.5 5 P 5 z *.m.O.5 : - i m N # , p ; u 5 z $.#.+ s m.|.i @ u * d I & * z f d 5 5 z | | & P :.m h h 5 m.,X).A.F.>X6.6.Y.1.` s 5 m 5 z m.4.=.j h z.O.h s P x d z $.` L 5 ' :.F G ;.1...5.: : 5 : + 5 z I =.O.O.L p # 5 F q.k.5 d ` _ ] I d z '.Z.4.4.G & ` $.4 l _ Z.Z.n.H l | I I T.` s Y m.I = f = l _ z 5 5 ` G j.-X} l *.=.* L ` 9X.X%.;.[ f ; < 5 d j.#.x : * P.J.: : z jXkX$.s n.P $.].} F 5 } ` C.].$.4 q k.} I } 5 P s.z.XX:.:.$.T z f * * l | q l 6.Z.rXY.d F G z P 0 d } F :.:.x.T.F =.` z _ 5 d z ",
"P.P.j._ ` ` 0 = f I T L =.T i 5 $.1.6.2.Y.P h s P F ] ;.Z._.] 7 | l _ m.` + u x z ` n.r _ ] $.m.| m.} =._ G 5 G Y.5.=.-Xi j ` :.=.:.d d Z.q.N.A.T =.m._ f d :.z :.'.>.h h m y ; + 5 L.;XD H G F f I z ; h z } _ P :.T *.#.x P x s d L z P C.F d Z.1.).n.1.^ 0 * G 4.m.s.h O.P %.C.;.F l I k.z 0 | _ q I $.;.x.K.l z <XJ.F I u * * 5.tX5.q ` | T.=XC.z 5 h m M @.h s i L =.` G I T 5 & d %.k.;.I 0 4 _ H w 5 & * * h #.5 z d I L.j.4.s.s.z.T & h ]..XV.6.l :.Y.N.[  .3.N.z : ` ;.H | %._ P T z P f T P z ` = & = 5.N.u M ; ; } Y.%.;.H N.} 4 ;.H B.A.1._ %.0 5 d 5 m.;.] Z.C.' s 5 s m -XqX.XqX=.X i Y.B._.).) V.A._ _ q G 5.A l  . .n.;.} _ _ ).).4.f & *.Y y , 2 1 p h + | $X'.*.; J.T.m ; 5 5 5 ` 5 d d 5 5 4 0 G _ I 4 5 I.m.%.l P T C.G | 4.| k.B.H  .n.5 : 5 5 d * I.z.s i O.h < i Y d 5 G G z z z d f ` P l l 6.1.q 0 = h.' : m ` F C.P.h y p =.N.X.1.* 5 s 0 F.6.} = f = I 0Xm.T uX XT L.4.Y.uXC.n.5.w k.,XC.Y T O.5 q f *.o 4 %.0 $.A.Z.5.L.n.* ` :.4.| >.$.} G 5._.>XY.` O.} F ' j y y : j : L #.+ $.j.} m.` f I.-XC.4.$.-Xx.z ` F | 4.k...j.m.=.* L *.z.P.L z 5 : F } :.Y.5.q _ C.n.f T l I G 0 * = j 5 L =.:.oXC.` |.C.` _ z I T ",
"l N.I.4.l 5 I I C.x.F f T L L z ' %._.).A.5.m z Z.=Xn.6.| ^ Z.;XI q #.=.+ 5 ` z j.5.;.k.l 4 F j.f d _ ;.C.I _ $.I P : Y s.j ; j.>.L & d _ F.A.n.T. X` q z L :.j.F J.J.5 T h - + z T.qX'.;.4.w * z 5.P.d h d z z j *.h 5 u #.T * h d L * d ` 4.j.|  .2.1._.q.2._ } } d 5 x >.q _ _ 0 l 5..X} + j.Y.0 0 I P f 4.-XF I I G m.$.#.T 5 } 6.| I _ G Y.C.| 5 P *.d j *.m 5 T _ ;.k._ _ ` z z | } q 1.=XL.Z.Y.6.F I P T x P j P ` z = n.Z.| s *.O.` ; 5 :.C.V.2.| H =X5.] q.`._.n.5 l l F 5 $.5.| K.f 5 $.C.` $.P 5 + d L.Y.I O.h f.J.x >.F 7 Y.pXN.G ] [.>XB.^ H f H m.I ;.} l } f s u : X 5 *.f 4.%.5 + P A ( 6._.:X>X2.F n.1X2X[.).2.N.<X;X6.] _ 6.Z.pX=Xn.l z.h.z O.c N M + o 1.$XA._ u ` 5 5 s s.T.` 0 F J.<X5.f _ 1.1._ F z I ] [.A.l d = = } =.d I 6.q.A w :.O.u O.:.` d *.:.=.s i 5 ; P *.$.I 5.L._ f T I ` l F  .1.(.A.k.l G C.:.+ ; u z.$.T h g i =.6.6.1.q L * 4.bX:XG f I } f | T P } ` $.$.C.G l G 6.] H ;.C.} #.L h X Z.Y.z + 5 & & C.[.=X;X'.F %.iX5.H _ 4.j.$.d G 6.B.Y.T.>.| I _ 5 @ @ X : T } #.T f P :.4.` 0 ` I.:.x.:.z F F T =._ G C.=.4.L.=.P x j L P :.=.P z J.J.C..X,X$.k.lXx.%.$.l q P L s } #.=.j.'.#.z j P #.} G 5 z } 4.",
"A 4.;.;.G } k.=.L.;.l l f d ` P m s F H ;.5.I ` 5.Y.1.A | | ] _.5.5 5 h ; 5 ` F l l L.uX:.G C.C.P 5 f G 1.F  XoXm h : h  Xj.u h f * h x. .D H f G L _ 5.L d 5 ` C.P 5 z *.M :.h L ' Y P : j l z f ` -X5.d f s 5 d O.T.` 5 $.5 5 5 0 4 ` C.Y.I ;.G N.e.) V.%Xn.q f F 5 y #.T ;.Z. .l & _ $.z 5 =.T.>.%.P *.s j.| I n.%._ 6.5.Y.].5.L.F.B.4 $.-X*.: u ;.5.L.'.L = 4  .Y.;.n.j.' f 5 $.C.:.I H [.Y.| n.1.= I n.I P  Xj.5 :.$.| l ^ _.G o *.L #.i ; u f F.e._._ j.F * * ` :.} I _ l _ f 5 d z =.J.K.L z >.` z ` f P z f l 5 x T N n m 0 w N.F._.f 4 r o._.1XY._ Z.n.5.] = >.z.T Y ` 0 0 = = & z q d h l ,.~.).^ 1.A & 5 l n.x.5.n.d F %.| w 4 0 A.%.F I T *.+.h g N i y i ; + 7 _.Y.| _ $.f 5._ z } z $.m.j.C.H f 1.0X).n.H l w _ A.6.l q 5 ` T d & z ;.Z.%.l $.#.s O.*.z d 0 5 5 5 d I *.T C.} G ;.k.;.%.4.L..X .H ,.V.{.B.^ 4.L.} d h ; +.I.f * i m m L f n.6.} | :.'.[._.].` ` N._ =.| I z F =.P z =.q l w  .=Xk.Z.| T * d _ 6.ZXL.l 5 4 I 1.] k.4.A ] } Z.;X4.T.oX` T } _ | n.%.5.l 7 f 1.q T s o #.x.x.` C.:.f =.P P } } * } =.s z z 0 } m.=.l P 5.T f d m ` : z z $.z j 5 m.:.5 j x.F =.h.j F T T 0 F Y *.4.= F } =.d : - j j T k.L L L.Y.",
").2._ '.[.A L.-X5.A %.5.F l $.Y j z ` | 6.N.N.F l _ Y.=.} F 6.N.;X%.= + * :.]._ I q G f z $.:.F T :.| Y.4.;.| ` s.Y *.4.G 5 L K.#.j.=.d _ 5.1.* 5 x.Y.} 5 5 f 0 x.N.G ` O.z d 5 & 5 + x s I j.G P =.].0X} x.#.z x *.|.L h J.T j. XI.j.j.-X6X| j.k.n.2.V `.~.^ ).Z.I d d d z 5.| 1.L.z j.:.d d + ` =.%.T.m.P z 5 $.;.;.] Z.).Z.Z.,Xn. . .%.P G f u z %.;.1.Y.n.k.| F.6.Y.n.z j. Xz d l } 6.Z.%.I 4 S X.] C.Z.4.4 T ` h :.Y.Y.7 4 N.| z x T *.h h * 4 [ e.2.G = * * - d.E.$.uXC.= I P _ 4 = 5 T 4.z 5 d z I 4.$.=.h m  X| z o p v ; & 4.).V.1.4 ] ~.e.D 2.;XZ.%.| C.kX'.z Y Y P =.n.uX;.T ].d 5 L d _ >XtX2.4 ;._.5.F z z & s 5 = z $.n.F f 0 l | | & :.oXU h ; T s.z.m z l l Z.Z.;.I F P 5.5.f 4 l j.5._ 4 l  .4 ] N.vX6.| ] ;.] [ ] 0 5 h :.oXx.= ` T.l 4 d * j h z 5 & d q h * L x.L ` C.F.pXiX'.6.| } 4.=XA.{ 2. .[  .S 6.4.5 ` m h z.:.d m s.O.y z x.5.L.n.;.I.=Xl ] mXj.N.L.G ` P =.=.$.j z ` f q } N.n.1.w f & F x.4.L.G '.ZX=.& } ].MXC.T %. .Y.=XD N.'.K.F = d q 5 } } l 5 4 7 6.B.H ;X} d j.T.z * h.=.F } ,XL.P ` & 5 F z L T z P 5.Y.k.N.c.5 m u u - 5 d } L * - - O.x + s : f j h : : G Y.=.} s : h ` f =. XF s T =.* z I.J.=.} q ",
"F. .4 _ ).n.m.x.q 0 | 5.f 5 z 5 Y :.} =.} G H n.L.' s m d 4 _ 6.1.k.l 0 ` T.0Xm.$.m.0 d P z 5 j.5.f I _._.7X5.o s F :.| l 1.1X7XT.4.L z & _ 5.L.1.0 %.I P _ _ 0 I 5.n.'.T h 5 T $.* I 5.} G G l q.1.0 =.P I T ' u m s m x ; z P k.=X;.F T.=.x m h.J.F A B._.H <XY.l 4.` + L $.l 5 F G $.:.u 5 d :.5.I :.T s.P 5 F f A 1.q._ G T F f f H C.` * $.:.` F 0 G l H | S 6.Y.} z P x h.h 5 f 5 l q 5 5 _ Y.Y.Z.).1.H %.Z.` u ` C.| 4. .0 G I z } z O.:.` d q D ;.A.1.n.j.X - M G.s.: * d } I = P ` * P ` P :.L _ _ ;.` h ; h #.m.z.M v - * F  .~.e.3.F.).%XC 3.N.F z >.:.j.m u L P f G 5.Z.;.G k.0 * z _ H ^ w 4 5.A.6.N.k._ %.P J.J.d | N.k.G %.I 7 H .X;.6Xj.: x ; u *.I.=.C. ._ V.1.4.-X` & 5 | Z.I = G Z.'.l q H 8 { ,.A.Y.Z.C._ w ] ] z * + I .XlX|.u j f d + d >.u h P.| * 5 x O.` _ T f Z.;X .C.S ] I f F .XS A [ 7 = | [ ] _ ,X#.s m P d ` T +.h u h #.J.T f f F 1.=X1._ F 4.k.G 4 F oX-X} = m #.d I 6.;.;.] ] q 5 | Y..X;.X d *.#.I f 0 _ } L.5._.;. .;.%.Y.l 4 * f l _ f d = f x.4.| ;.'.'.F n.,XoX` z : 4.I f I z z } f $.=.T P x.j = =.G F 4.} : s.m s =.T.L.x.P P z z L Y m O.h L #.Y u s 0 Y.0X-XL - $.T.:.=.Z.k.=X .] e = f Y ` } } ",
"S A.5.l 1X0X$.4 q 4 f F q z T I z =.=.L 4 q _ k.P.P M &.s l A ] [  .H k.J.oXK.:.` :.#.j z * 5 J.m.F G ,X_._ f n.` 4 I L.I l } T.j.5 z 5 4 H C.Z.5.| + 4 $.z ;.:.; : C.Y.Y y P n.} * n.A.F._.,X1XF.8 f 5 z j d s u m ` U h h : d %.l C.%.| _ m P : d ' d G _ w _ F _ K.d d 5 F & z | T.'.5 s L T C.L.} ;.O.L Y x m.F | Z.;X| 4 T z.=.5._ f l 4._._ _ 4._ Y.N.).q A G ;.L.>.z m x s #.:.P j.P d f _ k.].6.| _._.;.5.%.` u d P Y.k.l n.' I d F z z m.` 0 K.4.H ] F.:.h - T s.; + P I 5 4.4.F f d L z s s j m.L.%.f U i s #.*.J.T N y s d Z.[.V.e.q.wXA.) B.$.z z P.j.+ s h z  X5.0 l %.q l %._ I * P } = 4 S  .} } G ;.] A d :.J.$.L.5._ f Y.4.7 } rX,XZ.I 5 h h h x T L T _ =XpXn.I *.d 5 f ` Z.I l 4.Z.} F l w G N.[ ] } q %.C.0 | ..` =.: =.Z.rX=.+ L j * & f m X G.kX=X} f u m T $.x.I Z.A.S w 7 ;.| 0 P I G ^  .4.T =  .2._ f ' z m s 5 z d : * P s d #.z d _ ;.A 1.} F * 4 f F = ` x.4.s h *.P & _ '.L ` Y.N.j.d f F 4.T T P 5 =.:.h d L L f } 1.H l 6. .%.6.%.H | C.m.:.P : P } =.1.I =.A 4 0 4.Y.` G q :.I T = 0 L.m.:.|.$.d 5 s x.=.G k.'._ P s u + s j.K.C.T 0 #.Y m b m h x Y Y T ` T =.N.6.N.G h u *.oX4.K.'.| 1.D 1.%X1.5 s s f | ",
"q.F.5.G 1.0Xn.= F 5.j.=.z *.>.T #.O.x z :.` m._ P *.s h s _ H A 1.] G n._ P :.d P z m.z f :. XXX` & 4 [ 2._ P C.].5.4 Y.*.j h X : u z f q N.4.7 Z.4.& ;.].F n.x.u ` j.L i p O.:.q 4 z } } 5.n.uXn.q d u ; ; y i i ; T s h L s #.'.G ).<X_ %.:.s s s #.z 5 * d 5 4 f :.f l G G P n.N.:.4.0 z %.'.].q A * & * s 5 : d 5 F } 5 d m P.$.} j l _ _.B.0 T :.=X.X:.| I I H 5.6.,XI 5 d 5 x.T.z.` #.*.$.6.A.].f * #. X.XN.[ O.x m.T.*.` F Z.j.*.*.z } *.G } 5 O.4._ A B.J.m h M O.s h :.:.T P F ` d z :.*.d L L :.oXY.4 ' *.` =.| G & O.' d T G | ^ ) ,.F.[ 1.6.z s 5.-Xj.d f _ n.N.] G ] | H Y.|  .l F l l N.V.$X$XG d s q 1.[.j.j.} G } 5.%.q n.G } L._._ G I.s L +.y 5 s d d =.G q d + : j P } n..X4.l 4.L.$.+ 4.'._ I | 4.` j z d L C.` =.T.I ].xXY.` I x.x.F 5 + j v L T n.<XY.m * & I z f G Z.] l %.=.:.T P l ..1. .] q I C.[.} T P T P 4. X| z P $.n.5 =.j.L z P %._ m._  .V.| f d s j > 5 * T qXj   : d * y P. Xj.].k.l $.Z.-XT.=.| I z m j.* * T d k.=XL.H _ $X;X2.S  .` P d d F } 1.1.f w H 0 = =.].[. .0 f = s L f 0 & d s : 5 s $.:.=.Z.'.N.k.$.s j ; s K.4.* P =.s : : ; + h j :.x.: z T x.oXq l G s u Y h.L T Y s A Z.[.:X[ P 4.0 [ N.",
"B.N.$.4 w ;.l f ` } P ` G d P x Y P s #.T.$.;.L.C.*.j $.P F N.2XwXA.G F q F '.I $.I z I z #.P.$.F f %. .] A.k.G $.;.* =.F * + - y m j.T.x.k.6. .N.l I qX,X;.| z z m P.=.i a 5 I P | $.x.P = 0 0  .;.z M Y U L m : s.P * L z.:.' m.m.} Z.H = *.z I Y P *.O.` P z l } 6X'.4 G C.Z.;.| ;.5.H L.n._ _ w A | T L T C.f d 5 o 5 j.P.z.4 d s & 0 = 1.B.n.I m.uXJ.z f G $.C.A.I | 5 =. Xz *.` T d d ' j.%.Y.].' 5 * j I B.[.d s kX Xz h z & z C.} z f 4._.Z.L s u f ] ^ f d z * u d z m.` F f 5 d z I *.T z 5 f 0 ` G G T.K.` $.n.` = 5 d $.J.x 5 F o.~.,.1.C.T h s = 4 q q z I %.5.B. .;X).1.;.1.H A } L ` ;.F.1.;X-X' & d Z.;X0 Y.;.[ q.6.6.k.].Y.6.| H f q K.$.h ` u u m f z j.:.I ` Y x O.` _ k.=XC.5 f } ' } x.| G f & G m.J.T : x O.j.z ` F ` C.] ..k.1.;.-X XL z.*.s 0 %.| 5.I m ` %.| } l Z. .L.;X%.4.T ` } %.=X6.4.6.= %.k.4.5.l _ ]..X5.5.L.N.l | j.5.F 0 K.,XiX%.$.n.F.tXL.4 T } } -.=.f j ` s d 4.P T U L =.j.P P $.T.K.z G z T. XI L h : 5 d $.P G z | f N.[.6.S | ` L j :.|.K.| 5.P ..c.q : G G 6.Z.A = * T T s = :.$.z #.s T XX4.f $.c.T F d j m L #.:.$.L =.P O.z * : Y s.P j L 5 5 * s L 5 | 2.f ` O.h ; g u * f 5.P f ^ H _ k.=X`.",
"q l 5 f D [ 7 f } m.` & d #.h : s u d P :.m.$.:.} d f 4.H  .V.>X$XN.q.n.f 4 ' d } m.L I d T ` *.P l A.sXq. .A I | ~.e.6.).| * I Y x ` z. X4.w 1.;.1.'.Z.4.l q 5 & 5 ` d m h d L 5 :.G =.>.P F G e.^ H m.m T P 5 5 #.*.j z h d L m d *.` * T I P #.5 + z P s s ` m.,XI.5.| 5.%.I L.0XI F 4 '.xXP } G 2.Y.q | vXxXtX6.5.G f _.mXrX5.| 5 s d F L.F.z m.T.*.m L j 5 O.m.*.x 5 : z T.d 5 } j.d L ' z i u s 5 q L.m.:.).6.P y Y #.d h ` & | m.d ` f F 2.D P T X >.Y.w F z * & z s : _ 0 x.6X= = n.oXT.G z :.d 4 z *.:.,X9X5.| 4.f f F z T *.O.*.j.} q.n.P j y P j } C.j.d G ;.f 6._.6.A G l + 0 n.<XI.L #.= } w & ` d & l  .5.A } N._.F.w 4 5._ Y.Y.| l f } } T I P z T L & o :.E.' u x m #.s P :.j.F z d z E.SXoXd } I F } 5 T Y + ; s P f f } 5.F H  .6...& Z.,Xd ` O.d z j.m.Z.d J.P k.C.;.G } n.<XA.] s d ` =.F 5.] ;.=X;.f q _ C.l 2.Y.5.A G Y.;XF I uX=X| ` 5.;.w l w w G l } 5.:.T T x.L.h.h.` x..X[._ >.z q ` I.5 z :.z d L ' d 5 z h z d :.d f _ | _ l z q Y.} l G L ; + - Q K.k.4..XN.'.4.q T P A w N.4.d 5 Y L s f 4.L z I h.T.j.} ` s s d - : h * L ` h : m s m h.Y : : d s j j s s d s : s 5 l %.T.I.P L T.XX*.s -.j.Z.H `.B.0 F $.k.",
"l f I l 6.;X$XN.Y.oXZ.z z #.I L x u z j P ` 0 * = q w A [.>Xq.1.D N.%.n.4._ L F ' P =.} ` ` d F d q 7 2.2.2.6.| _  .2.F.tXn.4 q d s : z l _ 4. .7 G H G H F :.T.j.T.} z | q P j.F f + F | _ | [.B.S 1.$.I z f P $.P L z.I #.s.P u : ` m ` $.d x.=Xj.z :.h h ` d 5 ` | f z } f d 5.f 0 l %.` ` ` f w B.V G H A.2.$XF.G + 4 l 5.5.B._ =.` j.z.4.G L m.d u u Y U y < < + : z =.d = L P.m.x.` #.F d g ; * P T _ T G <XA.#.h u 5 z ` j.G d G z F I | q.o.q j u L 0  .qXT.T f P $.| ` 5.0X8Xf 5 :.I.'.Z.-X X` 5 #.} * 0 z h Y P : 5 I =.d m y h s : $.qXP a i P.j.` ` #.P j.-X.XH _ _ } T F ` 0 6XAX-Xj.m.>.#.* s z m.f  .o.~.[.8 D F.VXrX_ G _ _ ,XNX[._ q & T ` h x  X%.l l j m.m.' z 0 ` P T.T.:.` s 5 u M P O.P s } =X5.f C.P.h & s f P :.'.| } ).N.[ A F 4 4 F T z m.x.I L d z z = z 4.Y.} f P _ l l P : 5 I H k.5.%.Y.Z.$.x.'.5.;.1.^ l ] = q._.l G n._ I N.0 * & _ n.1.I $.k.l %.4.| F f T 4.L.1.1.3.] z s l x.n.d z =.T :.T.xXO.* *.h & $.5.* F P.-XI.` z & l ;.L.-XO.i a X + } l F 5.5.| ..z | F 1.5.A 4.} =.#.=.#.f s 4.=.0 c. XF 0 :.#.j L j L T ` d j s h u h U *.` d s j : 4.z.=.T s : ; s s f ] I z G G j.#.L f =.4.4.N.V.6.G z f x.",
"F ` 9X$.l F.;XY.%.P L ' T z *.m T ` x L *.:.=.=.` *.;.V.`.,.1.] l w H C.6XT.d T ` d #.} K.P z l L $.6. .q.7 w 5.5.Z.| l H | H q * : 5 d P Y..XG F _ 5.uXn.} ;.'.=X0XZ. .H ] q _ C.| 0 Z.k.F | Y. . .I + z s d m.'.} $.L z P.h.u 5 m G.` 5.;.l _ 2.5.5.4.l :.z.*.j.4.5.j.z P m.m.F 4 f z m.' s L 5 I 6.6.=X1.~.( w w : j L 0 =  .$X_ w q Z.qXh i O.` u * s u j Q + 5 5 L  XL._ 5.oX,XP.I 5 ` I F ` *.z P.E.Y : 0 4 0 s h L ` } T d _ q w 4 l _ _ Z.q.l j.d : + f m.j.0 _ G 4.I.Z.].j._ l F %.q l G q f } d 5 q d O.Y g @ @ - h s : d #.` z 5 ; T M p i u j.Z.' : y i M :.=.5 f ` T d d z & 5 x *.4.m.z.a < 5 P Y.V.r.w.3._._ r X.Y.1X%..X<X5.n.5.)..Xn.` P m.&.s w D n.qX%.f | ;.n.k.f F j z m + m y ; h h M - h L._.H 5.k.} ` d | F F } ` & G <X1.f 7 G _ | | 5.G T.CXI.5 z } $.m.;.5..Xh.h.:.L.N.F P 5 & ` %.1..XuXF.N.K.} ;._ n.;.| w l _ ] | 6.] Y.;.%.n.5.C.| } L.=XY..Xk.f z = * z = 5 ` l F C.] G 6Xs.5 L G | I O.O.z I %.n.j.P ` z T d * * j.T.:.z 5 f G m.T.-Xm.m.G.s d T q 0 q I } G _ k.G =.n.` P } $.T ` O.: h.P.x.F I %.= 0 F z : u : z =.T I d ; h g - : T P.j.F 0 0 #.: : T s Y #.L x F j.j f A.[.` 0 q I  .4.B.rXV.;.F d d | ",
"_ F 4.%.| B.[ _ 5.z 5 *.j.x.:.m m u s h z L x.-XI.z n.1.%X$X1.[.;X[.Z.n.} } I j T ` l z C.j.;.I h z.0X[.F.D w C.$.5 ` z q | 5.}  X*.P.m.P f 5 l x.$.| n. .1.|  .6._.5. .;.q.4.Z.5.4.'.I.:.z q | rX].j.I u :.` ' P z T s T :.x.$.P.` ` 4 I k.] =X6.r _ | Y.,Xd 5 =.=.f f z f I T 5 = z.m.x h P ` ` k.] 1.] A ,.F._ n.C.$.>.P F [.F.N.$X[.n.T y i 5 + d F $.d ; h O.P.h.m.T.5.q. .4.F 0 5 & q 0 %.F C.:.5 u ; h z.$.T h y $.;.G } q G F ;.;.=XL.;.n.7 C.,Xn.L :.T 4 * f 4.z z ;.k.F = q q N.l f 1.4.A z T 5 = 4 = x *.+., @ a s.O.I $.: #.z.d ; y X < ; m.Z.C.l 5 y m M #.} & ` :.: : s.*.T s @ i & + ; 2 1 g z n.1Xo.( { N._ Z.[.n.} 0 %._.A q 6.Z.F Z.T.F j.-X;.^ B.2.Y.'.l q q  .n._ q : ; + + g @.M T i y T 5 m.1.A 5.c.d P x.L.1.=.} : h = A G * f L.n.iX'.xXY.4 d s T P.,XT.=.F I x.$.#.x.'.,Xk.o s j.=.F f } } | 1.#.d f ] n.5.7 4  .).1.A 6.} A.=X XP G J.5.f 5.,XZ.1.N.K.z d s F q } } q 4.k.F } j.O.O. X).| T T i P n.w G Z.5.F l 5 l m.P z L *.z & 5 0 G ` P $.=.` T ` f ` C.C.-X;.] ;.H | :.%.j :.XXx.&.h x : $.=.K.oX| 6.n.G f d m h Y -.5 f $.P - < u h m P $.x.} l z z Y L d 0 $.$.} ` I F 5 4.rX~.| ;.4.k.N.k.6.6. . .P 5 =.F ",
"Y._ ]  .^ _ Y.C.I 5 ' j.m.J.' z h z P ` :.P ' j.P : z $.n.Y.G j.4.Y._ 4 4 q d d F x.} G | k.n.C.` h | ;._.>Xk.} 5 * I z ' :.j.x.'.Z.1.n.Z.k.z s ` d & * 6.n.G 6.] q 8 } '.A.} Z.iXk.Y.k.5 & z h n.oXj.d * :.T l f 5 :.=.L ` m.oXZX5.l F Z.1.D A.C.5.A _ z =.m.T m.=.` j.z d 0 f %.C.4. Xm m j.j.'.oX4.q * H B.[ ] ).<X6.;..X5.;.X.n.Y.;.| d * o L P n. Xx.$.: s T.oXz + 0 5.;X2X_ z f $.C.5.7 7 %.,X-X5 z d I J.:.d d d P G G I 4.N.w ] A.Z.5.4.5.l } m.T m.T.d d F 5.C.*.n.<Xk.=.C.n.n. .q | C.j.L d s * z k.%.: i h 5 u Y x.=.` *.j =.=.5 *.P.M y y I.oX} I * 5 m h G.Y.0 F ` f T J.m.I.l.; v i g s.p , ; y s : f f H F w H 5.H _ _ 4.q A 7 D ^ '.4.z *.I.Z.N.).q._.4.` | G | [.Z.| } z - i < ; Q Y u ; i z.h 4.%.} n.Z.5.| C.6. ._ :.x u d ;.uXn.f F z $.P l Z.;.F f #.>.;.$.l d & d O.*.x.$.z = :.m.I.} z ` ` ` u j h =.$.4 H  .H 6.N.F q k.[.1.1.=.} : + g M u H 2.r 8 _ z L L L } G | 5.] Z.N.I P 5 : L .X). .#.O.+.$.[.<X1.1.1.q ] 1.~.>X4.L x.>.J.j.= o o & o d f z 4.T + d T :.=X=.f 0 & I %.f z O.#.h u m i ; : j #.` d w f | I.` z z ` =.` x.T.P.< h h M &.T ` ` c.x.z j G.*.d 4.1X{ H } 4.T T I N. .k.N.4.} '.[.4.A 1.1.} } %.G ",
"} q ,.V. .5.0X;.& 5 5 j *.#.h 5 z s s ' #.z z F m m T m z T j.` 5 & z 5.4.=.f ` F ` 5.5.q = k.-X#.z P H [ q.4.* & ` m.m :.s.#.m.=.z G n.n.4.I d h d 5 5 z G 4 1.6.N.).n.n.z 0 = l _ } f d h O.m z | ` } C.l 5 ` l = } j.P * P I ;.A _ A n.B.| C.%.F _ .X%.G T.m.m.j.=.5.z z :.z :.j.` T.P.' d L 5 5 I $.Z.k..XH A l ;.C._ C.;.w _ w o 5 d I $.4.=.m.C.<X].*.d z q l } 5 0 ;.F.;X} d _ n.;XxXY.A.iXiX4.d 6XqXj.#.L d 5 m.j.0 Z.$.H n.>X1.^ ] ] G m.n.f 5 * P #.: o f 5.1.` z L.;.I | ;.[.| [.k.F I s h h * L C.'.*.x *.:.j m.T.L + m : * d z E.SXs.* 5 z G G  .6.z : s j 6.N._ } G z.9X_ F I x M M d.&.5 P.z.m h u #.5 P P 5.=X_ q G F | r 1.X.w V..X$.z -XC.= F.rX5.f 4 $.| H ] 5.5.l l m * Y j.T U Y s u d T 5 f 4 5.T.$.m.z 4 G S _ '.*.:.m.Z.Y.C.q d z j d P %.7XkXT.P | _ _ $.P T h j h d d z 4.j.d 5 * l I *.z : ; h x.T.f ] 1X=X;XG d ;.4.k.` 4.| z h N v v i H 2.{ 1.G #.T s z P :.;.n.).C.H j.` d ` 5 G 6.Y.=.i L z r 6.B.X.]  .G [.nXF._ j.-XI =.=.$.d =.x.I } G _ z z $.T T j.I + f :.P _ P 0 s : s h o : Y 5 : : f f F = =.'. Xz = 0 P =.T =.P.=.g g Y o h T L ` 4.| j j *.Y 5  .B.,.] l z L P.:.q A H P Z.4.P _ l f %.A.L.'.4.| ",
"} %.r F.n.d k.5.0 l F 5 } >.L j P z.` 5 d = z 5.F d z x P j h y u : $.Z.5.` *.m 5 x.6Xm.I d 5 $.#.T $.6.Y.l f } f n.kX=.* L x U m + M u 5 d | I _ *.m s * f 6.D  .N.k.6.$.I | =.;.k.Z.%.f F j.T.$.4.Y.I.n.0 _ I l %.C.Z.0 %.%.f G A Z.[ 7 q l ;.$.4 $.Z.G 0 %.%.n.| 0 4 * ` ` L =.x T $.F f $.].$.5 ` jXXX=.:.: x j ' ' | } I ;.).} * 5 j *.T.,X'.l } %.5.4 P 5 & ^ } d z F = H C.I G _ w H H Y.C.j.f & :.m.:.l T P f P F ` C.P w | ;X1.A _.;Xm.$.P ` :.I 5 * $.F f n.;.l l q G _  .3.e.1.] 5 x h s i - - 5 %.n.'.| 5.K.d 5 *.O.i h 5 d d P ` T x.m.C.I & 5.tXN.I T.I q F.~.e.Y.$.s * F ].0XG & G | L.5.4.4._ z z z T | T f  .| H w  .G w n.B.^ q.^ n.z Y s 5 F N.8 z '.m.Y._.w q 6.L.$.* z z.h.:.T.xX5.I n.G & & f l $.T z =.z l 2. .6.O.Y m.T j.4.F z.m.Y z z d _ ;.r | n.q = 5 j :.P.J.$.F L ` z l 5 L >.` n.'.J.u : h h q | Y.C.q = F h.L d =.j.=.=.T K.T + i h I ;.F._.` ` L j z x.Y.'.1X_ 5.%.x.:.` 4.f l Y.1.Y h u j 0 ] D 2._ G _ | C.} :.} $.d $.f f 4 4.;.T.kX5.%.= H C.'._ ` P * z x.'.].4.0 = & : s b s s d f 4.C.G ..] ` '.k.q _ x.f * _ =.P.P h h i ; L #.L z l = ` f z #.m d C.Y.6.%.z d =.4.w w l =.T f 0 0 d $.G } s z ` I ",
"uXuXr C.:.=.T.n.G | F z _ :.8Xm.'.-X*.z z G N..Xn.| G 5 s s - u u 5 z =.L } T.x ` m.G.#.5 * 5 } :.P 0 q 4.| 4.K.l z j.:.h h +.J.x h L M h Y =XT.T.j.: * d 4.Y.;.[. .G ` 5 z & z qXL.l z 4 P 5.L.=Xm.l } k.C.;.| N.Y.5.1.5.1.6._ | 5.[.NXS 8 F & o Z.7XK.= = l | I.} 5 q z 0 d m.L u s 5 5 0 %.=.$.j j x.j s T h * s L : P ;.z ` j.T.-X+ s ;.| :X;.4 4 z k.} ` 0 [ %X1.& ` P.f G L.4.w 4 4 f G G q + z F 0 m.=.d :.'.| 5 5.:.z G l q 4 ] n.L.G _ 0 q z j.` P 5 } j.} 6.0XoXT.d 0 ].0X2.V.>X .` I d z i + @.*.d 5.H 4 & 0 F * & ; 5 y * 5 ` d 5 ` K.I.Y.G %.1.5.0 ].,X;.f B.yXV.| ` j 5 x.Y..X_ ;.1.Y.tX).n.tX .} = ` j.Z.4.Y.A.=XL.6.Y.| N.tXA.w B.5.` 5 :.=.:.N. .l 5.=.' =.] l q ] 4. X#.z L d K.7XZ.| q F n.I P q d z 5 z I.l 0 5.S f o 5 L z P d s #.j.s * o 5 4 = [ q.| l = * $.d I m.z L I T & G T m.:.l G [.Y.` m 5 #.x.n.L.A = z $.d j P s m j & ;.7X| = : u 4 q.$X=X5.f 5 P | G _ ;.C.q _ x.} | ;.} P q _ %.I Y O.z .XV.).[.H H l & * P x.Z.=.| 4.} F f ` G ..Z.| %.7 0 | $.} f d s * z ` n.].'.C.d - l.XX:.$.= 0 C.[...k.C.4.'.c.n.,Xn.l f %.-.T d u - i =.J.6XJ.T $.5.k.n.I.z.s s x.%._ ] f f z j G l 0 } P T ` L `  X<XL.d d = = ",
"j.m.n._ P z.J.T ;.L.4 l C.5. X X-XL L L.4.H ;X).$XF.[ A G 0 ` G F *.m P P.5XO.5 =.#.L x 5 z z ` l f } :.d 5 L L d : z s d $.x.=XV.).H _ m.` L..X$.` x O.5 | [.).A.2.q q 5 d h u T ` q 4 q ;..X=X].} | ;.} L.4.G k._.[.6.| A.N.G 5.4.2.r.`.] 0 F } -Xn._ 5.l $.P j.` 5 _ m.} 5 s h 5 d 5 } I.:.` ' d h m u m =.u 5. .0 _ x.T 5 :.I :.m.* 5 ;. .q.| l 4 ` j.f 4 ;.q.[.5.l J.-X5.F 5.Y.;.G .X<X.Xz q q z z d z d & j.x.5 ` '.} f _ f 5 =.n.P G f * + s I d =. Xf z F f f jX-X;.l * f *.6.X.,. .Z._ w | z u =.I.=.4.B.Z._ _ Z.5.T T x T z j O.` x d F 0 d 5 j.P.*.d | G G = o.`.0.| : 5 x Y P $.| ;.1.5.n.] ;.} :.=.z F T z 0 5.5.B.| H H 1.;.[.k.= H P j u *.=.1.1XsX1.F I ` f H 7 ] 6.;.x.j.z + G k.1.] N.] H Z.G q f _ P z m.:.` 0 w X.l 5 s d * P u *.z 5 F T L z F D 1.D r G G =.T G = z z q $.$.P G n.L.} G _ Z.} _ L =.4.| %.5.7 q f 0 d L i T l.T f | $X;Xl z ` 0 ;.n.A 0 %.n._ q + = F z z $.Z.} G ;.P d %.| ' u m h 5 m.G ] ;.5.5.F + * L K.-X$.P G :.Y.5.l H n.1...[ N.5.F s L d _ n.n.] G ;.k.P.P u s m 5 O.#.= q | '.5.Y.C.z :.5.:.| l l %.T L J.O.s L h $.T h P m l.'.A._..Xx.Y h * T _.;.+ & s 4.} f 0 :.=.5 f j x.<X[.A.4.I H A ",
"s T ].m.m u P G %.5._ G I 0 f z *.I F } ;.q.`.[ { q. .[ Z.5.=X4.L.-Xs.y m m.=.` d P m.L T I.z $.| H I T j + m I *.=.m * L K.n.1.6.] I G l F n. X-XL *.4X` * A 6.B.D A j.x.z j m * x L z ` 0X,Xk.H ] n.I G } m.%.& | <X].G F l = F = S ,.F.e.;.' =._ F %.Y.G F F f ` 0 T j.` 5 F ` d L z G } $.P.T x.m.z : z :.z %.Y.Y.K.oX} s m h s + O.'.L.( `.A.I z d d = _ Z.$XN.q 4 T f G 1.A.Y.6.A _ ;.z T j.C.>.z j.G * 4 l n.T.z z :.} F 5.:.' x + ' :.f 5 z #.:.'.F z z q G d Y.I A ;.d * d ).).$X1XY.n.B._.4.0 5 d } } n.n.B.Y.F } l z F ' P L x O.T z _ ` f f x P ` j } ` * q ).&XB.;.G 5 d s 5 5 _ %.w _ Y.f * & G P L I z 4 _ A G 7 5.B.;. .= I G G P * z u 5 5.).e.;X6.= 5 I f l l D ;.%.5 s *.z f q 7 Y.<XA n.N.| _ _ ].I f z z._ F | V.4 T *.5 d h s h $.` z Y.$.q ;.4.;Xq.F _ n.6XZ.` '.4.H %.I q | | } w H Y.<X .q q 5.I.P q  . .J } _ F d s : z } } _ G 6.yXw F h.G l l l  .<Xn.A 0 0 } P P f :.K.].Z._ _ =.m.' ` ` h ; m L z 5 %.C.k.G 5 5 d ` f 0 =X.X| L..X6.] ] %.).;X[.| f h P z 4.=X1Xn.q _ k.x.F $.s u h h - > =.m.F 4.%.$.q I G q f 4 k.n.4.=.P.O.s T s m $.j & + + z _.D q d d u : F Y.6.T f d T Z.n.I $.P T ` P.4.n.k.2.f ;..X2.",
"U L Z.T * x x.$._ I w 0 G | I z h :.P 4.).`.!.3X1.| | 0 ^ Z.6.5.x.P L h h m F $.f P _ ;.Z.5.l Y.A.S %.:.: 5 I L 4.z.} ` *.d z.h.& d f f k.J.I h Y f 5 ;.%.;._ 4 w 7 ] k.T.L + y h ; i m Y f q F ]  ._ _ f & j.iX$.4 z d f ` _ d d & [ `.e.rX Xu } $.I P T.T.j.F 5.qX%.l z d 5 q 5 4 G P z j 5 d z ` l P T j.F | u i M h Y L h : * ; y #. XY.3.o.B.C.L h + z Z.n.| Y.;.L L I A q.X.V.tX).= z P ` ' L J.P G Z.$.= I k.F * q l ;.,XoX` =.5 ; ` oX:.u z + :.5.+ F F '.4.* * w ] %.T ;.F S e.B.6.} Y.&X&X>X .f F G %.Y.k.F Z.w & l ] F F z 5 z T & 0 5.] 4 _ f 5 O.m P P x ` n.).=X1X6.l z s : ; z ` %.n.| ] 4.iXK.:.m.m.m.I f Z.A.6.2X).X.| d T = 5 C.I + & P 5.[.B.] H f d + l 2. .] G l | L.$.F 0 l ;.Y.G } l | C.} f %.I f _ F 5 ;.Y.N.q s h f P u m Y f l :.4.Y._ f H } 4.l I n.=X5.w n.C.| 6.Y.F C.n.] 5.] 1.).H w 6.Y.Z._ J  .F.n.6.5.= F P z _ ] I 6.<Xq.$XN.L.#.f } n.6.H Y.A.;.] A G f f 5 q F 5.n.j.T $.m.m u m h *.G.: s h z L I l P x.l z z F =.n.C.l _ Z.1.A 6.;XtXJ 0 f l :.T $.` ;.| H Y.k.= s z : s m g h ; *.-X-.j.I.} f q _ l _ w 4.k.4.z 5 d h ` =.x.$.& :.L u T n.Z.l & s * %.k.0 L.-Xh.L x.'.C.Z.P d ` $.:.P f 0 w f f } | ",
"P L 5.f O.J.z =.5.n.=X| I k.;.m.z d 5 l ] o./._.I F _ l n.<XC.G 5 u - u M P z.| + | ;.| 5.Z.| <X1XB._ F L ` } m.L.Z.:.I L j.J.P.i u 5 d z =.P.j.u f l Y.Z.;XY.f _.n.I 5 f = ` Y x a v g i P q _ Z.G = = = F P x.} = d 5 T L f 5 * * A B.,.n.:.z *.=.5 l d ` m.` * G ;.4 f m.G | 5.n._ f #.x d z z P Z.Y.} Y.5.$.T a Y m + f 5 d 5 5 J.I z Y.~.3.[ F d O.T.:.=.} l q s j.oXZ.1.0.( 1.tX[.0 z m *.#.5 z z F -Xx.= l ;.n.5.n.%.4.F F 5 m h * h z d z 5 z T.} _ z I 4.= 5 L _ 5.4.$.5._ H S ^ = q _ q.&X2X).].,X].,XI.G l ,XN.Y._.5.q l } I L.4.G q 6._.6.D q J.:.z 5 z u d ;.] I H  .G d * h T z z Y.1.;.1.l %.K.m.' m.' F I '.Z.^ { [ =XuX_ *.' } I q = $.J.f 5.Y.l F 4 F _ %.>X;X6._ 1.6.Z.;.z 0 I Z.G H <XoXC.l H 7 A w P J.T f G ] 1.H & u F :.h + 5 %.} I q n.<XG G T T G | ;.] A l 7 l A A.,Xf k.Z.C._ C.| I n.[  .k.;._ 1.6.V.] J H | %.l q q k.%.).=XI G _ L._ 4 f | q H F.N.Z.1.* & z l f ;._ f $.m.j.*.z u s s : O.*.h M T m s d P $.} F } Z.f 0 = q w | G w G ;.N.r S ] q ;.4.j.P + 4 = ] 2.f A F z m.s.g u < h h h.:.h s 5 = 4.L.k.0 Y.;X'.L.$.#.Y z $.4.T.-Xd 5 Y U.E.C.4.I s K.=.=.L.T j.T z ` L.5.'.%.P $.s : = G L.<XZ.4.` m.} ",
"=X| l C.oX=.d F z P C.n.l _ | $.h j G l ] ).:XN.q H } 6.0X<X*.5 : 5 d U m O.#.G } } %.Z.Y.n.4 4 1.).0 0 d L ;.<X1X0XL.G F T l _ M y h s d F x.P F | C.n.I 5..X=XoX:.*.d #.I ;.C.:.v v y h :.j.H N.).F I *.` 4 q 5 T $.=.I + z z z * 5 f 4 & z P s f I T q l ` q z 6.Y.A d P _ _ A.[._ f T T $.x j F 5.F } | } T.#.T P.h j I w [ 1.k.z = ;.).V.r r l T h .X0X| o & l * z F =  .1Xe.[ ] k.f 5 5 m.-XK.0 T f f F $.Z.[.5.L.0X_ =.L d 5 x 5 j 5 m. XJ.:._ %.| L._ = f '.:.P T 5 f z X ` =X5 + 5 : & G ).].} | k.].m.: ` 4.| I n.C.Y.;.;.=X1.2.6.`.`.Z.vXtX[._ f z m G l Y.n.} | | C.'.G & d T.$.4 z %.] ;.G 1.C.$.l z #.L  X:.0 7 ] 0.e.B.n.z 5 5  X.XI l T.=.5 x.%.G f 5 P m.1XN.q.1XA.C.n.Y.5.f f I 4.F 0 } =X;.A ).$Xq G F 5 z f F _ _ q 5 : w ;.z ` l =.<Xk.P l k.} P z : z :.= %.Z.H D D ^ | I P z 0 q G ` : s }  ...;.%.f f e * [ ;.] A _ } f 5.;.T ` z.' 5 0 0 5 F 5.|  .q.X.q _ 6. .f h.-.%.5.A.L.L.K.} L #.L s f & * s z d & M *.z d 4 = A A A.F 4 $.H 1.1.l f ;.F | Y.6.H ..[.C.G } z I A ,.e.,.B.B.C.I.j.z.g U O.; z j s s j ;.L.lXMXk.l ;.Y..X%.T *.* : s I '.=.j L U m : d ` f 4.C.f } P s L 4.x.=...} } I.$.d I ] 6.6.T.x.z x.k.} ",
">Xn.N. XJ.d z z } >.G } F n.$.T z j.C.j.P q ;._._ } ;.n.%.G 5 : d 5 z L 5 I & $.T w _ %._ _ H n.[.N.| 4.5 * $.C.n.Z._ x.<XL.).m.M ; < m ` I.C.5 *.m.-X} G ].>.T d z *.z z 6.;.%.#.i , # * m.7X=X;X5.4 Y.T * G H ` ` x.T.j.Y T >.P d d *.Y Y 5 d P ` 4.n.n.} n.5.} _ )._ & q n.] A | 4 d z *.z : 5 q & & ).Y.q d : * u 5 0 l B.V.V.D _ n.n.).=X^ = 5 + * = 2.C.0 ] ;.4 } ;.4 = 6.tX2Xq d $.' z ` =.L l T I d z I 1.2.F ` ;.I m.m.Y h f 0 5 5 O.*.m.L l  .1..XC.f d :.=._ 5 ` Z.P f d z 5 5 z 5 q z I.=X4.4 ;.5.q d z.$.= l f * T I l ;.G N.wXB.sXN.G N.[.q.f ' ` _ } Z.Y.| H _ k.P l 5 : m.z.5 G 4.A.5.I 5.;.l n.=.m x T z P | =XdXt.H I h h d z ].oX:.` P =.G 5 P 0 z _ | 1.1.;.1._ q I 4.n.f %.5.'.<X4.` z 5.G ^ ).N. .| ;.| F l Z.xX-Xu P ].A.P oXI.I P L.x.} P q F : L | 4.l 5.].5. .L.Y._.L.*.f 4 f f + s T d 0 f %.1.P I = l Z.k.4.] Y.5.l P 5 j m m d d f _ %.l Y.A.C.N.7 0 ;.[.Y.F =.'.F | N.;.C.;.& s } h.z B.| T :.n.| * *.j.:.f $.,Xk.5.[.k.4 f P | I 5 l T q _ ;XC.Y.%.7 0 H * 1.).).F.X.( _.| I T T Y u L *.T u j j * :.k.[.1.n.4.: f Z.[.%.& j ` =.j z T I.I.` + ; u =.` f 7 | z d * j m.T.j.5.G = ;.} : s T .X~.e 0 f * 0 j.=.",
"N.;.=X$.T m.f l j.$.j.$.F x.Y.j.;.F d d d $.N.1XC.I d : f q 4 4 q |  X#.* I f = f } G l F I P n.n._ n.l G 5.} f :.z * h z 5.'.Y s y * * j :.m.s & j #.T.j.j.z.i 5 * : d =.` P I T j i ; u F %.n.l * z d 5 | ).F.%.d 5 ` j.:.z * z ' T.oXz.F = f %.H ;.1. .n.'.uX_ F | ;.T x.Z.[.2._ ;.$.z j.h.L _ C.2.A 2.A.%.F q G | l 1.q.`.F.A ^ 1._.X.A A q & 4 z 5 ;.=Xl n.xX;X .Y.L. .F.A.[._.1X%.z 5 F * d I G 5.m.I. X;.A ^ l l l * s L z.:.5 f C.K.m + y 5 %.n.l ;.5.z * - i O.*.T :.6.0X_. .H l l 5.xXA.;.<X;.0 n.Y.n. X].P d I m : d f z _ F q >.q s z q q 5.C.q * :.$._ N.5.;._.N.=X X0 I ` L z X G '.].Z.1XZ.= w I.+.a O.M M ' 4.Z.V.,.;.f 5 s : P >.Y..X$.F z + 5 5 z 4.n.;.| 5.] I } P G Y.4.0 j.` ` $.d l n.'.,XA. .| A.rXY.$._ } 4.].x.y z.T.| 4.5.j.z 5 & 0 ].k.q T f 4.|.` q =.G = F >.5.5.G = J.:.5 P z * %.qX=.} %.%.C.x.] 0 Z.L..Xn.6.:.j m s.Y 5 . =.k.k._.] w F G * 5 0 P G q C.:.o x.G H ] P Y.` f $.F F N.[.rX} F _ 1.} n.| d d L j.T } :.T H G q I #.z =.L d 0 l _.,X).Z.G ..w G ;.k.I | I f : - s u ; < m s.P.: : j f 5.=XF.S G T j h $.I = 5 _ Y.n.P.I.5 z =.s L h s j F ] [.iXd T L #.=.` F T w l 4._ 0 L $.[.1.w 0 f $.Y L Y ",
"} %..XL.l T 0 P $.F 4 :.K.$.z j.Y.4 f L ' } 5.=X;.5 : * d $.H ^ w H } >.-XC.j.I _ } } l l f Z.].5.k.5.0 G n.| f d u * 5 d ` h 5 s 5 5 ` 5XqXT.z d T m x.-XO.j i : 5 F $.C.C.x x j : i y P C.'.n.%._ d ' 5 ;.`.3.%.j.d z z z G d 0 q l _ =.q m.C.n.4.q _ ;.H | Y.l | 5. .G 5 } _.[.1.5.j.} z T.T.} Z.1X .;.1X1._ ;.L.C.] ~.`.3.B. .D q.Y.| l 7 | 4.5.MXY.l 5 4 I } | P l $.L.k.].5.P Y.` = d I $.*.$.z *.m.m.-XY.[.[ & * C.k.*.@.h u G ;.N.Y.J.h ; m m. .r H 4.0 m N - y U 5 5 5.n.] ;.rXN.] _.xXrXY.A G | %.I H n.f $.$.#.h h s :.m.*.z z m x - 5 s f Z.=.f L =.n.$.C.;.2.N.| 5.m.d :.T.<X` d Z.5.F F Z.A A 1.f z s y W.z.X P ` H 2.] z ` : * 5 d 5._.1.l _ f T ' z q } I %.N.| ;.$.4.:.j.f z F P $.f f l I %.=X'.H f } k.G I G $.5 * Y T O.=.} 1.4.z 5 : $.4.I F _ 5 F F F f I ;.;.z * : $.5.q 4.qXP + #.5.S B.,XF G 0 f Z.I 0 4 H I %.l _ I P z L T F m.=X4.1X'.q G F } :.' ' T T 5 $.:.j ` $.q f q l 5.F F I I N.)._ ] _ Z.>XY._.Y.T ` m G.P.P 5 F l H | d x.E.E.j.I.z = 1.A.k.| L.C.1.6.6..Xk.G f P m : < < j O.=.z.O.Y T 5 4.A.`.B._.,X#.m u 5 = H P I N.L.T #.j.L s + j O.#.: | ] %.%.s : L #.s 0 K..X1.] A ] ` $.5 0 J 7 d } x.:.d j ",
"z ` z f q 0 ` G n.T.P _ 4.} ;.} = = } 1X_.F d ' _ d u z L n.[.H 4 Y.G l j.I.Z.K.n.z 4 5 } 4.} $.0 _ T.n.n.L.} * i x I H F & ; s d l f 4.5.:.:.z *.#.: O.*.m m j z 5.A _ 6.C.' d s * Y T _ _.[.4.I l j I.].].B.q.H n. X` P 5.-XI z 5.q F I ` | I.C.P } *.} P j.j.q | _.1.d P | B.;.;._ *.T z m *.d f P P j.| G 4.G G ] ] o.q.[ 9 e.A._ ;.5.;._.).'._ 5._ G q $.z 5 Y 5 z d & * O.s L $.d z x.` } = l F m.` ` d G A.Y.I * P P m i ; ; } q q G 5 + y u 4 B.N.H k.;.f * Y Y h h X u s 5 P 4.I '.C.I G | } _ ].qX| 4 4 0 $.` ` z : + ` j.d h x y M N g : d Z._ } I F ;.6.;.1._.[.0X;.x :.Z.tXvXG *.T G w = w _ _.1.A ].T.f 5 z j.P + n.].| I I I ` * 5 d  .q l G 5 h z d = T | =X.X.Xl d T * P :.P ` P }  XoXl f l l ` :.f z = l 0 G n.z - Q m * I ].5.%.} P =.-.` q l 0 P d T | f G 4.m.` s * ` J._ n.:.+ 5 s F %XvXN.F f q f x.n.Z..XY.G * G | H | w  .=XGX'.} z n.#.+ 5 d :.qX,Xn.=.F : * P 5 s j z ` F 0 5.f I %.F } ` P x.k.I | ).I ;.=XT.J.m.I I '.1.{ :X>XF & & o z z f 4 A )..X] F | 6.k.I 4.C.` d x u m i < =.f.O.s.O.#.Y :.4.0 J S ..4.=.J.L.N.B.N.P s f : X =.E.T : - m T L } k.%.q & : j * : j z = F Y.6.A  .} z * 0 _ %.;.n.1.G } F ",
"C.m._ ` $.| l w I %.l * f 5._ l 5 f 1.n.I 5 *.:.' z ` ` q q 1.n.n.f 4 } l 4 H G ` :.$.;.= f ` z 5 q G ` ` $.:.` u d n.6.z d L I C.F.] q & G $.z 5 ' z P u z =.$.n.iXY.Z.=XT.' + z ` :.4.%X%X_ l _ G l d j.qXfXF.* P m.f T Y.=.z } P f T _ $.Z.8X-Xz } d : :.|.$.z L.1XA q T 1.0X$XH l 5 d G.s.5 z j.z d & ` =.F l F H N. .7 X.^ D n.%.f G 5.1XZ.H F 4 q ;.'.T.d y ; y O.O.u y h j *.L ' L.T.4.z l } =Xm.0 ` f f f q d j d 5 - ; h O.4.0 I :.5 5 * j } '.[ * %.$.G T *.T : ; + @ z T z 5 %.j.=.G _ P 4.f 4 ;.G 4 4 + l ` #.d d z Y ` d L P.Y z.M - + s G q ;.z f :.H 0 _ | G ] l P 5 $.MXrX0 u T 5.1.| 1.G 0 l l Z.=Xn.} f j.=.m.#.G F _  .P L x m z C.F.S 6.T.j P #.f C.Z.=X1Xn.= 4 f :..XL.` q = 5 Y.K.F } ` d z d * z.K.& F ;.l z y i i ; : 5 = n.6Xj.F z.I I x.} I.} :.=.T.} T z L 5 5 j *.l & 4 = f G l A A.| F 4.P 5 4 :.,X;X'.f * 1.[.| 7  .1.q.| f L.5.d T : d d * ` j.P P P m y 5 Y T j j $.F ` q & I 4.G | T m :.5.d 5 ' C.$.q j.z T x.].[.^ ] F.q.I 5 5 ` d & T _ I ]  .%.A w F P l } } oXx.s s h p.m X ; ; u x : s T z f 2.r [ _ > s ;._.1.= s h I j.#.` #.s Y x.:.:.F P k.4.k.k.f * z $.m.F 0 6.;XN.V.n.0 d s z ` %.4.'.4.q L.:.",
"j.* 5.-XqX_ * ;.=.F l f I l 7 * I Y.Z.| F 5 >.4.` } } G ;._ & * | l |  .q 5.;._ _ | n.5.z z Z.G _ n.C.-X4.>.6XqX1.| I 5 4 4.<XA.).q.|  .| d 5 ` } f l $.l w _ $.C.].'.j.m.*.P s ` T P _._.,.n.%.r 5.1.5 5 L.0Xn.T.,X} q G %.5 z l q } 4.G | <XlXZ.:. XT.%.} G f n.n.N. .G G & D ;.[.| + z XXj.s F T.T.%.G | n.n.4 f P 4 l w :.l A 7 1.%.F pXC.r 7 4 & = 5.4.q 5 s + : :.x.Y h y m h x I G } } q f :.=.=.T l l I } d 5 m T z g v h s f P Z.m.P * T ` I.4.6.A.Z.z 0 P f 4 f T.| 4 f z z 4.'.0 5 C.T.f 0 4.5.l 0 I s + j m.I & z z.m 5 d ` I.:.z #.x s ` 6.[.rX1.G 4.* _ 6.| X.[ A l P ` z.h T j.k.4.l _ =X;.4 l n._ H 4.d : - M *.Y ` w A A.` z s.M ` ] =XrXq.I x :.T.:.Y.Z.n._ _ ] & 1.).5.A.%.l k.I =XC.0 f + d h s : #.I.4 | Z.4 & X n i s * ' f f '.n.4.7XL.0 T C.4.L #.z =.5 * : : 5 d L T x } ;.;.B.D G l P f 0 T T } T G | } I q .. .1.& d #.m + * s d 5 d s ` j s h #.G.T C.h.M < j I.p.+.j T XX$.= 1.N.). .n.#.: _ F.,XP ' :.l z G k._ Z.=Xl 0 5 * 4 | } f F $.f } 4.A 0 H ] 4.| ;.).L. .l x.$.I T j $.x & + T T h #.E.m.s P w 0 G 4.F 5 * x.%.Z.:.* l %.Z.#.5 - O.j.4.h.: z C._ I $.z z s T -.:.k.L.).:XtX:X%.#.s j f l s s L ` $.$.",
"h j z *.$.4._ Z.].%.P z :.C.n.S ;.0X,Xf s ' x.4.m.Y._ w 1.I ` _ 4 Y._.H n.6.l H l 4.%.0 z f ` Z.G = 5.Z.0 0 j.K.6.B.j.* + _ _.$X .] l * } n.5.4.5.0 } ]..XH l | n.$.I P m O.=.x x z q A.3.2.| F ).;X;.l d | _ F -XuX,Xl 0 z #.j 5 T.6X$.G '.;.l d G '.Z.6.k.4.%.n.C.] 5.%.f | S 1.[.L.0 f T z.+ f %.n.C.;.;.C.5.I ;.` 4 _ T.$.P Y.l w 1.N.n.| _ n.k.f 5 L.0X%.I m h : j.XXm.P i i +.*.f w _ G 0 5 5 >.6X| & l 0 l f * P x m h y < m 5 = Z.T.` z :.z P | 6.C.T.#.z ` 5 5 n.pX'.0 G %.f 4 z f 5. X'.=.` | | 4 d G z 5 d 5.A.;.1.F + 5 ` l T l G q & f f A [ $X[.1.F G m.%.6.).).[.<X.XL + @ x l 0 G q f k.Z.| = 4.` 5 5 5 h - o - d l 1.B.n.f h.x : u 0 X.0X .& f z l f n..X;.S F.A.A A.1.^ 6.} 5.rX| l Y.1.w 5 + i y & : d G w I 6.z @ N &.s x x d & 4 7 S ] G 0 d P m.j.L x.$.P m j.x.d $.J.m y z.;.).>XS } ` :.} L :.:.` } '.,X%.] ..'.Y.4.4.P + i M i m & T 4.z d L z *.z m m z 5 ; ; z } Y h i j O.* %.Y.Y.[.[.Z.P =  .:X0Xf 5 5 d =.Y.].1.A.=XC.>.f & & G I *.m.n.-X| w G 4 * I ..H | Y.[.4.4.f 0 ` L z s T =.P L =.d.v.oXT - : 5 F =X<X;.f =.I.'.C.I h.c.H =.:.+ g < s $.I : z kXxXF F F ` d z C.,XC.k.,X4.).4.K.j.j ` F & 5 u + j j.h.",
"m.z.*.d & k.` } j.z 5 5 k.C.;XL.H | C.L j T I #.C.cX5.| 1.] $XF.N.;.A.rX,XT 4 I G } ` } L G 6._._.4 f d 5   : G z G * z * *.;.| 1.;.| I ).[.].=Xn.| m.P 4.Y. .q 0 $.T.m.:.*.5 P z : l ^ [ ] q & F _ l z l + G :.C.z d 4 4.$.d - g s.#.d d F G C.I q I 0 l Y.=X5.%.'.] 5.I 5.0X;Xq.A _ ] 6.H 5.G l Z.k.* %.;.l | '..Xm.z * P 4 = ] G G 6.;X1.w } ,XZ.x.` N. .| m.s 5 I :.:.=.O.m f.Q.$.C.Z.N.} } 5 5 d T I P Z.A.H Z.z + ` P ; y 5 m d * %.,XC.h s + o G _ x.I ' T 5 5 } Z.4.| w | G G } ` | ].n.j.G $.=.z 4 5 F T I :.H 6.>X3./.D _ xXn.4 I 4.= G =.I f S  .6.l f j s o G ).`.;XV.%.0 & Y d : d = P P F q q = f d h i i m y 5 j.[.~.F. .G | 4Xz h u ` 4.;.N.1X5._ 1._ } q 7 V.3. .F.r.C S [ I d H l F ).] I 0 ; j : u & l F G Y.n.5.s.h T h d *.} I  .A.;.H Y.m.+ * Y m z ` s.P ' *.:.| } >.&.y L | n.A.X.G q d x.j.I j s T C.4.F ] _.k.G w T L : u x j.C.f L.I.T = 4.'.Z.Z.` j d ` l k.| _ ` d : h & & %.n.;.l 4.G ` I H [.n.l 5 + G _ 0 q n.Z.Z.].Z.0 | w 0 K.,XK.z 4.$.0 P H 1..X%.k.6.%.%.'.C.s G =.#.d I C.m.x.Y < g - - u h - : f 5.5.I _ ,Xn.} f f ` h 5 F P j m P Y x.'.F 0 %.T.I 5.4.=.} =.j.x.;.%.| = I } ` j 5 =.5.P f h : s L g ",
"$.$.} =.4.` 0 q 0 = 5 0 l w ;._.G = 5 z =.#.z z P L ` =XZ.n.$XB._.^ _ N.z 0 f } ,X-X_ =.d = m.lXZ.%.$.4. Xm s z h =.5 5 d 0 4.I 0 G _ %.Y.;.G f |  .P + 5  X| _ %.` z.:.` m u T ' z n.H _ } n.T.h.:.#.P :.=.:.P l 5 0 7 l d z x h ; y z 4 G A.n.f * z 5.| Y.;.G _ F l ;.* _ Z.2.] A [ A l  .Z.n._.=X1.;.| %.w l | ;.G I ;.$.4 0 w F G N.I G F } ;.G I P 4 4 d d 5 ; ` * u G.s.i , M f ;.L.5.Y.P 5 L z j.=.} _ k.=XlX5.$.z.j x =.T h f G =.I m.' x :.P F ;.kXT O.:.T 4.F T n.C.A.I & %.n.f } P I $.z _ } P $.` l | | 0 n.Z.N.&XeXN.] Z.I C.n.%.4.P.I.j.5.] >X1XG : Y v < G  .N.1._ 7 5 d #.T.: X d I G I ] } I _ P m.P.N Y a 5 _ { r.;Xr 4 = & s O.z $._ 4 w n. .e.V.1.4.$.].$X6.Z.>X( ,.:XA.z %.] | _ N.X.).` y u M h.=.d d 6.k.q.N.K.` z d f L.7X;.n.N.;.;.Y.-X=.d 5 m #.h h P Y z z k.0 ` 4XG.z l 4 1.F.A _ 5.Y.| f d : P C.C.f =.'.6.w ] 5 s Y : d x.C.N.I F T P C.K.C.z.j J. X%.=.7X| l x.T f d =.| n.A.;.r 7 q G [.pX=X'.'._ | Z.k.H F P Z. XY.6.| A.7 = _ 4.T } ` $.4.=.4.=.q P =.:.%.f P & j j.n.h.j 4.].:.$.: u < < - L m U ` } q = w | Y.G f T d j j : $.x.d : : 0 f | F : = %.%.$.P T I.I.P d 0 | L.f = } 4.} : f I %.I P T j : h ",
"m.%.| $.T.} P P d z 4.;.5 _ G G $.` d #.I.$.z 5 5 5 4.L.4.G H [ | f 0 4 l F F z :.k.L..Xn.q >.j.F 5 I 4.P.oX` h m s.j.j.G 4.T.L d I 6.| l G n.|  .5._ & j + H B.;.l O.u j s 5 Z.Z._ ;.H 7 4 ' *.m s.m y x m I z 4 q H q l Y.I.F 5 & z.Z.| | Y.5.G ` } ,X].l _ G ;.A.n.C.I = 0 _ C.1. .6.[ D [ [ ] w ;.6.$XA.l 1._ A q 6.0X1X4.} F w %.5.F P 4.C.4 + : T #.d m L m @.Y - X g Q , # ; + : d I :.m ; ; P } 5 4 I | ] | z m.z d j.4.5.%.z q } ` O.- m z.5.%._ j.h.G.m.J.z.P f .X<XN.l C.uXG l ` q z ` C.m.f d F f I 1Xn.G s ` 6.y.,._ j 5 m ` F m. XL h.j.m.n.<X4.0 5 - i u } 6.H ] G | F h.:.*.m L K.Z.N.Y.>X2.2._.).,XJ.*.Q - + 5 8 ) B.1.I + + s L $.4.f 4 H } w 0.`.A.n.z.:.G %.Z.C.N.L.1.4 D X._ ).] S ,.1X=.; 5 U z.j.G } 6.H Y.MX| 4 4.6.B.^ l F q * 0 z L *.I.' + h #.z 5 m m x } $.].| j.kXn.N.] ] 6. .Z.B.Z.;.k.} 7 %.]..XqX%.C.6.%.k.} f P L s ` 0 G 0 = = L m u g U s :.'.j.` h 5 5 ` *.f :.L._.S ^ 2.2.B.B.6.;X;XZ.n.} '.%._ k.L.n.%.4 z 4.F } N.=.G } } 5 G P F 4.$.F d * * 0 P * s j + T x.oXJ.T ` Y.` : o ; h OX&.s j L h.$.z 0 | ;.,Xk.4 } :.*.z j P. XT z T I K.oXP T F F 0 0 0 I j.5 * o = 4.4.f 5 ` $.z } 4.C.).k.[.C.I F G ",
"j.G } 0 q q f 5 5 x.j.%.6XoXl 4 :.x.d :.j.I T ' d *.T.4.P l q G q 4 f q P } =.%.| N.1XrXn.z j.L m.x.z f I T ` z h I $.Z.L.6X:.* 4 | 2.6.L.` | n.=X].q f } f _  .0 f m.x J.|.G j.;.j.x. Xf 0 I u i a ; ; M ' z = 0 N.^ G 1.5.0 f * s j.XXn.,X.XH | n.d } I } Z. .N.2X1XZ.` f d I %.l n.N.6.6. .N.Y.1.A._ ;.G H  .w A _ | %.].k._ F q l f 4 T n.=.s 5 * m O.y U T &.+.M m i y i v v h z $._ j.m.j.& #.m.d F 0 ;.'._ l = 4 z $.5 & G '._ & * Y P 5 L 5 l A _ | 5 5 d j L F 5.;.| l H 5.5._ F f l f m.C.=.f z m.$.F q.n.z f 4._ A ;.h + ; m *.h I s.j h : s z z F f d h i s _ N.%.Z.H 5.-XP j =.*.m.;._ G ;.] + A _.5.I j h y s I l V [ S Z.;.l P q 5 ` _ _ Y.4.'. .) r.| P h X u L :.P z P.l * H _.[.| 7 A D _ 5 + s u d F 5 | L.k.| n._ 4 _ [ [ A G 4.' d m O.P s d h d :.z *.P h s.j f j.7Xn.H ] f w A & D 6.V.F.;X[ %.6.V.1.| k.5.P N.).] G f j.j.P =.I 0 =.f 0 4.XXY M n < : X 0 P P Y x s h L j.F * 4 4 B.2.q.D V.F.1.Z.} f 5 m.n.I.xX5.} f $.Y.C.| H =XpX] %.5.G ` ,Xm.T =.P L L 5 : L z ` ` m Y * 0 0 0 T z j O.v < h h $.=.h =.$.P.:.= I I | } z T T s L d z T ` =.XXm.} T L.} = = 4 f f T : P T._ I 4.j.#.s z z 5 | | 1.N. ._.'.N.6.n.",
":.:.| z q z T F %.%.%.I ;.4.` 5 z P.j.L :.:.d d z I z d ` G.G.m.: z d q G H .X1X3./.yX$X;.m N % +.=.d ` d P XX-X*.d f q P ` d E.;.7 f 5.[.n.F l q 4 q & q [ ` f d f n._ .X).l l :.uXm.:.j.=XP.5 y h +.s.T L z q _ n.5.N.;.A 4 Z.G.< +.T ` L } q %.L.| =.q Z.m.Z.A.] 6.qX].f 5 L T G } %.;.f _ k.k.C.5.).B. .;X<XH ] .X;.Z.=XG 6.C.5.n.f G f d f L z * ` :.h ` j h x ; &.*.# ; Y h 5 } 6.[ G 5.$.` h.d ` j.L.6._ N.C.Y.].x.P 5 0 } ;._ F P m.m : L $.<X). .f d s T T.>.P P 4._ G 4 4 0 l 4 l 4 %.n.f m.n.f K. X0 q $.G n.F._ >.G.Y m U m b @ i Y a + j * : = f I j u + - q A | 8XY..XC.P d :.$.: * z *.F z l z K._ I 5 P *.j.n.$XB. .A w q 6.5.I 4.6.;.F F d $._  .B._ ` h + i y ; + ' m.n.l _ Y.1.S %.5.A k.h ; ; s : & d f | T 5 d z + * %.C.;.G z & 5 5 z z m I * 5 m ; m *.s.:.u d ` T k.Z.| 2.] A l w ).V.q.).q.A [ 6.w G f = 4.H ] ).L.` m.L.T ` z f P f h.4XP.W n N @ < u j * $.T.I $.4XG.O.i s 5 0 m.4.] } l F F 5 x 5 : } :.= z d l q .X=X_.qX} f ;Xf 7 | f 0 L.cXx.T z j z f 5 P O.L * m #.j : = = L 5 d p.m g - s J.x.T L $.8XT.$.j.C.L.P 0 s z F 0 } =.F 5 } } $.T 0 F d P } ` d f P z K.T.C.k._ C.P.z s : ; z 4.Y.].P 5 j.-Xk.'.",
".X<XL.| F } 4.Z.].=XmX.XF ` ` z 5 I m.F z.J.d 5 d & 5 P h : +.*.z d 5 l } n.N._ { e.~.H z J.M @ 5 5 : ' T.G m.-X'._ f _ G d I  X6._ m.` N.;X5.0 $.5.z q A.).I 5 5 _ _.1.[ A ] 5.$.4.f 5 L L =.>.5 i T j j T z f 5.6.j.` G z H | Y M O.+.s.L ` ` _ A.N._ _ =.=.Z.n.l I L.f f l :.G l G T F | %.I 0 ;.Z.1XY._ Y.Y.5.4.;._ 4.| I _ k.F } %._ F ;.*.$.s `  X*.P T j P :.; *.j.Y + Y O.u }  .D r I _ F L 5 m.5.:.I _ 5.] N.C.#.s L *.C.].j.P z ` 5 * 5 G 6.;XV.w F P ' :.m.m.` k.n.L.} Y.iX| f f 5 4.z F x.z 5 z T F #.z _ V.5.f - ; s Y x i g v ; ; + - x h =.C._ G T s s j } Z.n.d k.;.l I * z O.m z #.J. X` d f d d 5 + m 5 %.;X$XB.4 S ;.N.1.l H ;X1.G F 5 s * 4.).B.G u @ y - < M U T s.P.F ` T.l q.5.7 A | ` ; h ; *.m.k.| %.T.*.I $.:.w 4 :.=.>.C.C.T q #.` L Y x 5 d s h *.j.=.d 5 s 5 f _ [ [ Z._ f l k.5. .S >XF. .r [ $.d z.uX4.I 1.%.k.=.= q ;.C.F z 0 j T x h b < m =.=.h * 5 _ F I :.O.m U &.` L 5 f = F 5 x s j x T P.J.m.5 d f d x.C._ } %.F ..H _ 6X` z J.8X:.} P d f F : f ' j d =.T Y : P P ] j.=.s s h - < =.XX-XP * L j.P 0 P $.$.s : * P } F x.K.x.L * = F F = * f F } | F C.:.} =.:.5.} H Z.=.z Y L s ` :.6.h.s u j d F c.",
"f %.4.Z.I F } 1.6.} ;X=XC.=.z 5 I j.s * j.I 4 5 | %.4.z + s + h M u d P l _.;.* 1.N.l j.` z j.z.d = & + j.=.=..XqX} ` F d 5 =.;.G q F q ;.-X;.m.5.Z.;.[.rX2.l l 5.].Y._ G ;.5.A.6.| 5 j s 5 m.` d d * j F z 6.1.l z u s : ` '.4.& z *.jX4X` f ` G G _ H %.I x.` F 1.k.A l | A w w A `.$X^ ;.Z.=XH l F $.} G l } k.F } l 4 _ | A q F %.L.F G 5.:.j.G ` 4.<X5.G z } j.} q :.Y.| z M @ m j._ f d z d Y P.-Xm.q 4 l _ H f l j d z z L d & 4 5.F 4 $.;.0 ^ 1.] q.;.z ' z C.:.F | _ n.'.k.].=.} %.` =.f = j.j.` ` j.'.=.} ] ;.I d i # y m i ; 5 i : s L *.L 4 4.;X4. .Z.F * F I.Y.4.f k.n.A = 0 = z z.=.0 ` L.5.%. .| 6.| G F * %.=X1.[ 1.n.[.tX).D ;.2.X.= = } $.* j.m.z * - a v Y j j.` u g ; g z $._ A.N.w q.Z.j.s u m =.G G G | lX].Y.<XsX2X} f O.j.4.].n.Y.].4.z #.z s =.*.x s z ;.n.z + s * d 4 G l z u + 0 z 4 0 H G Z.n.} T O.#.P I | ] _ Y.'.0 f F ;.| I.F & s z * P I T f & ` m.j.f * _ z 5 L d T P.,XY.2.| ' h j O.m.P.j.:.| P + z j z 4.C.).4.w 0 ] H 5.6Xf f :.:.q 4 T '.<X4.f $.$.F n.L.j.s + =.4.5.$.s 5 * Y i < - : Y L d T s T $.G f h : j T d f 5.I.5.=.T s 5 #.=.F = } %.G f %.L.5.q .X6XP 4.].8X,X:.d s =.4.G 4 * : h ` s 5 L ",
"f 4.;.4.G | )._ _ w A.;X} n.m.=.m.K.' m m ' 5 f Y.C.T.*.* + h M h y P ` ].lX5.;.;.5.T :.P T ].,Xl F } z 5 I :..X| ;.Z.f 5 = 4.k.l 4.Z.F _ } I L.l 4 Z.N._ w f Z.uX;XA } _ ]._._ n.n.z Y T z j.L._ $.` } N.%.C.Y.} * : u 5 :.C.} n.=.5 #.#.T.J.F A 2.5.] H l z 0 4 4 A f 5.A 2.2X>X<.sX>X( N.e.q.q d F T T _ ` ` 4 f :.4 n.;Xw 7 ;.L.F | n.6.| z z q G _ =._ G F j.%._ 5 z G G = & u s #._ } L : s d } } %.P =X[.A F I = z P u Y J. Xj.z 5.%.n.iXY.I 1.B.).tX].Z.=.O.u : s & G %._ %.} f l L.'.x.z :.n.I.qX` P } z $.l n.j.s O.z.` L Y z : j L : L ` d T | } | :XtX'.0 f k.I f m. X%.%.I :.C.5 * = q Y.5.` =.5 | =X} z $.=.I I f w N.n.%.1.A. .q.r w G 5 P ` 5 x Y u + @ W g y j.qX#.y < , l.T :.Z._ ;.4.=XuX} 5 ' ` o = 4...l %.l ].pXV.N.I T j.l G 4 r )._.n.4.m.O.#.=.:.d *.:._.Y.>.s s h f Y.6.f d 5 * 5 l q q F & G H F P : + j 4.C.6.A 7 ..4.)._ 0 | P 5 f C.I.| 4.L.$.= = f T.qX| | Y.;.5.G 5 I m.:.5.=XqXT.u 4.J.m.T * 0 0 F s j O.` I G w _ G 5 w  .l 0 ` C.=.` C.I _ 7X.X` F | =.G _ z T : U l.` } :.I.m.s m O.+.+ X g h L :.$.C.C.0 ` =.z T j.5.4.k._ f F T s F d z ` z x.Z.} l d $.4.I | =.f ;.k.Y.j.d + & j k...G q = j L s O.z ",
"| H ;._ | 5.A ;.1XB.2.;. .n. .5.` G x T m L %.%.} | G 5 * s U O.h h m ' j.T *.*.h L :.| T 5.H Z.].n.T.` ' :.C.<XI _ 5.4.I 5 ;.| l Z.C.} G | ;.w 4 d I l * | C.4.n.-XY.G f L.;X1.G H l j.#.* l G w T P 4 %.C.Y.4.;.4.O.: 0 5.$.} z.T 5 $.Y.T.#.+ ;.2X2.N.).6.N.5.= G k.H _ B.B.2.N.1.6.3.V V.V.V.;.d =.f z d 5 5 j P } G _ C.%.k.Y.5.P n.n.n.=.L 4.K.,X Xq 5.n.n.<XT 5 ` L m %. .] ;.=.m * :.$.I m.C.} ` P f ` L.1.%.4.| f L x.oXh.J.x.L C.K.m.G f _ G G A H n.f z T h < i y P F G n.l = = P $.L 5 } $.I ;.:.L * d f I j.m.: T '.].4.} z q ` G 0 = X f x.` G G _ Y.6.G 0 0 f l #.5 ` <X} *.:.I.F o F | l = Y - N s.u Y z 4.5.N.} q 1.k.f =.5.H A.%.P ' P  X.Xm.s Y M g a W W v N Q h X @ *.O.o T | = z } G _ :.T.8XC.f } '.uX-Xd l A N.B.r 4 5.L.= 7 ] ^ X._.| x.I.I L s : s F x.;.} L h d P Z.Z.2.A.] f j z f 1.L.[._ <XC.7 _ 4.I z z _ ] F N._.5._ G f P | =.J.T.I.x.s.O.m.5 & d $. XJ._ } _.].Y.m.d z f z T ` | I k.5.P j : :.-Xx.z u m h.I.f 1.k.} q q 1.'.j.* j.| z ;.| C.%.5 s T Z.7Xx.n.P P z m Y } z.h.j.x.O.s ; @ g m u T 4.T | C.F f P u Y T 5.;X_.C.f F m.T s j * d #.P C.5.;.%.n._ ..4.G w = f f } T : z : #.4.] l } =.F f z } =.",
"G I n..XZ.k.[.Z.q.| F.1X6.N.).)._ ` j u s m ;.| _ l ` f q G d z h j L #.j d m y Y m.K.f l I G Y.C.} z h h I l } %.f } } I m.k.w } I f I 4 k.1.4.f I uX| _ '.P l l _ n.Z._ q F l G z q x.I.4.z = q %.H & F Z.N.$.T x.h : 4 ;.K.L 5 u l n.%.:.d 5 C.q.[ 5._.4.<XZ._ k.G J k.6._.[.H r { ).[.q.fX6.4 5 ` 5 =.m.=.*.z 4.5.| '.N. .=X#.5 5 z f l T.5.P } } P d } f l Z.m.L m P L =.1X[.6.C.:.x.j.I 5.T.C.` 5.Z..X:.} f d T :.* & m L g T O.O.s z s 5 l _ N.V._ l  .l T h N p p M =.q I l + 0 s d * * F qX Xl L.} z T f P =X<X$.5 z | | 4.k.%.;.;.l q f f $.G 4 F w & G 1.N.4.d q 5 & & 5 P x.J.=.;.5._ G N.Z.F ` h X - &.J.5 4.T.} 5.5.| ;.` T..XG | 4.I M M 4.Z.L - i y m y + a M i Y i u : m.qX` = & l G f l q I | .X.X4.x.C.'.&.: _ H | | G $X1Xq.7 ] [.;.q.Z.;.= ` I 5 z ` j.` $.#.Y h 5 d 0 _ ;.I Y.,XA.P h m.N.4.uX1.Z. .A 5.Y.P j $.| G | ;X=X .0 q d T I.C.-X$.d h < ; x f q & : j P l F Y.n.d _ * d d J.#.L 4 | [._.x.j = o | I j - + s.,Xn._ } :.F G _.'.} 5 z f z n.1.n.| T #.5 = 4 :.oX$.L u ; 5 s #.L o h T g @.W ; h h T L x.=.I q C.x.+ z h.L.1. .5.4.s T 5 s ` s j s 0 T.kXk.F ..5.G = I I | | f %.K.j.=.u Y C..XP F qX,X%.%.G :.",
"N.1.n.Z.H N.=Xn. .[ S 2.9 { ~.N.;.4.s m T d d 5 5 f z } 4.%.I } 0 f 5 z P *.j 5 5 T ].l ` n.5.4.l $.j ; u 4  .| _ L ` F u ` #.z ;.4.} H l l 4 k.5.| %.n.[.n._ %.z _ %.4.F K.5.z -X'.0 } =XmX,Xq l I _ q z } 5.` 5 5 5 x P z ; u j L z ;.* $.=.z ` q C._ I f l ;.=.I _ N.L.H %.<X'.w 4.].C.*.C.f f $.>.l *.oX9X-Xd P :.k.].5.] L.$.+ ; - 5 $._.sX;.+ * * d | z 0 = 1.n.` ].%.w  .q.` x Y } k.2.).| q = l K.6X8Xx.: d : o m L - - O.E.z.b < b h j 7 A 6.).1.^ B.} O.N y v g P Z. .0 = A 5.P - z h 0 I.P | } $.P.j.F oXj.:.Z.l T  X0X0X[.B.[.A.I ;.| P l F f T } N.A.L.rXvX,X0 0 = 0 L.z F n.).| C.'.5.$.j.` s 5 *.*.d z x z T G 4.].j.5 j *.z.T z. XP.U X * =.j y T m 5 d ` C.z 5 L z l 4.n.:X>X3.;.d 4 $.N.} 4 f C.x.} z m z T j 5 q 0 _ _ 2.B.N._ C.[.n.C.} x.T z u z z #.P s T m z F F _ 4.1.h.U M #.Y U ; P m.G | 1.D 7 S  .4.$.:.m._ _ | w f _ C.L.n.$..X6X} z ' L - - 5 u } z 5 + 5 I G 4 :.P z 5 s d z Y :.s P.uX=X$.z [.5.0 * j j h Y ` f f G T.| G } z 0 ' 5 P 5.;.C.] l G $.:.I o 5 m 5 h - - j T.#.z j < m d.z.m : : Y h P #.h.#.I I.P.z * I %...H I K.#.+ - =.T.=.-.d s $.:.4.] 1.6.1.6.] L.kXkXL.k.C.$.=.u : 5.N.} 4 Z..XZ.Y.=.5 ",
").6.Z. .H n.[._.2.2.^ S e.e.A.~.n.n.j.' >.m.m.} %.` q I | A.Z.;X1.k.z j P I ` x.P F =.F | L._.H d L L *.5 l B.[ :.j._ _ P d n.4.I G I | H w 4 4 f 4.4.k.1.} ] 4 = G } } q 5.n.| :.$.l f F Z.4.5.G ` | l _ 4.T + d s s M M m x *.M m.'.0X,XI G s 5 ` z I _ ;.0 7 } d G I f 7 7 ..H 4 | 5.& F d * :  XoX_ & 5 P.9X4.= } n.=X| A m.m i y ; f H 8 B.6XI 5 *.-X X=._ _ 1.S ] $Xn.A._._ = u s = 1.B.[.;.0 I F 0 F $.5 P : o z E.P.T u ; v.&.; u m T s | [ J  .q.=XX.4 + + < N T j.1X .q ..[.=XT s m z P 0 :.F ` $.I } } T h 5 ;.F z =.).rX). .] [ ^ ;X1.q q l d ;.I F q F =XmX'._ f 4 _ _ L C.Z.5.;.l 2.] $.' x 5 :.L. Xz 5 ` #.z d l G ` d s Y I ` Z.Y.$.i m 5 z 5 x ` 5 I m.%.Y.l F & z j.%.q.o.e.>X'.:.:.} G P G 4 q 0 P 0 s z.z.M z F 4 l A [  .1X=Xl } F %.=X%.q f d L z * 5 5 s i u 0 0 w ] f F m g g h g < u T d G wX%X{ _.Y.C.` } $.;.-X].l 4 G n.n.C._ F $.= j u O.z z h #.z z d 0 4.Z.} 4 z 5 d >.T #.` m z u z :.'.K.P 4._.Z.q P d.Y s.4.| Y.m.P L ;.l q d d L K.x.l 6.A.H l 6.n.C.T + ; U L L j s : L O.- a < h + m : s ; s J.L + z 0 : s z * -.%.C..XF = j.4.s #.C.$.4.0 + 5 : q n.[.;XB.rX6.] 4.I d F } x.Y < * P H _ I w G x.5.f z ",
"N.G q q A [._.[.0XF.3.] 3.2.B.B.N.;.%.*.P T.xXC.:.=.q f '.6.] 2X1X<Xj.d * 5 Z.T.:.z z q l I H | q + u U s f 6. .%.[.B.A F F | G ] _ } ;._ ;._ 4 l %.'.} I F f T I j.5.4 4 } j.T.4.| -XI F l G n.:._ f f * = T P d + u h h m h m d m.1Xn._ 7 5 d z ` T _ f ` q l I =.F P P * P _.6.V.6.G L.5.q d j d d F L 5 G :.F F l l ;.} * : a i - f Z.;XN.| =X9X5 ' | j.q l _ q r B.F.5.;.;XL.x.` s.} =Xq.1.| l _ q 0 F h.f L s : h m P m Y s ` J.P P.=.x.L.F q 0 = f k.5.F F 5 s 5 : s F 6.| N.;X5.s s x L z }  X$.=.J.P 4.qXj.h O.k.| * & w  .2.] A ^ 6.).Z.4 w q 4 } z | l + f | ] Z.1.w l w ' Y.0XtXY.5 w l $.*.` $.Y.n.'.4.m.m.z f d %.;.} z } uXn.5.[.2.| 5.x.).rX).Y.[.2.5.).5.F 4 d =.f j F d z 4 _ =.:.C.P j.` f f %.m.L * : &.Y L P f 4.Z.Z. .F.N.] n.<X;.4.xX'.w r N.q.6.| 1.;.0 u x :.} * A ] P P L..Xd O.O.L L l w 3.B.e.;X$X;.l I f F :.j.} d 5 z I l I 5.F =.' u z ` #.*.j.d x.T G Y.K.0 5 I z I m.| d h j 5 5 d f } T P ] H '.} s O.U : 0 $.m.} ` m.Z.q | z.f d 4.l 4 ] pXxXH 4 5 j.s.h s m |.&.Y =.L Y h u M g ; ; g g < + T J.g * L s h Y $.h f $.` ..J w  .=X'.c.J.s z : x : = } 6.>X%X3.[ w = = G | I ].=.< + : w w } T * 0 4.%.] | ",
"5.l _ l 0 ;.;. .] S 4 D ^ [ S r S _ H $.l %.N.l q F j.Z.k.} l 4 6.4.*.' s j x.T.:.z %.| %.G _ N.l 5 m &.s I A.N. .2.V.B.l f _ n.=XA.| 4.%.} I G n.q '.,Xz F G } m.:.T _ G n.Y..X,X Xj._ z z } | -XI.4 G f x.8Xj.x =. X*.+ p.P.5X} I  .1.X.5.n.l 0 5 l q | f 4.C.f F =.P z s f P 1.L.1.w n.0Xm.f :.m.>.z z ' x.x. .1.6. .j.| T P.Q v h.| Z.6.q + *.P.z 5 * P >._ d 4 [ B.6.6.w 4 4.j.m u } k.w H = F %.k.$.` F j = * j j - z d : : -.6XT | $.k.7Xm.f 0 z f ` ` G q | m.d ; T P f H 4.k.G & : s j #.z o 5 & z z z 5.` s f I 0 5 q D | B.[.Z.Y.[.[.tX_ S l %.%._ x.l %.5.= = Z.0X;._ Z.:._ H } f = G 5.$.F I H ;X1._ Y.=.q & * d | n.5.& G K.,X .).V.;._ I V.fXX.1.).N.G ] m.* + 5 #.u d z * I d * z =.5 5 Y.;.` n.4._ f L h.h.m s 5 : I :X_.2.;X6.4 ;.` F m.].;.4 D F.B.B.2.q.B.5.d ; F } G H f G _.pX .f l.m O.5 q L.[.F.;.6. .;.4._ _ =.j.C.$.+ 5 ` I 5 I  X=.z * 5 *.9XoX` + z :.G I m.x.z s ' P ` m. X:.d s E.P ` n.q d f ] | ..z > h h - d ` j.P P ` _  .F z I d = A l  .).X.H l & * 5 * h O.m.j z s.s.m T U g b + p.l.Y - + h s.&.Y oX#.T I.6Xj.* T ` G X.B.;X$X_ %.G 0 T #.5 : z ]  .2.r A ^ 1.=.P L.L.d ` T h i L | I 5.I 0 f l N.). .",
"Y.H Z.H A | } | 1.1.3.[ 3.wX:X2.q. ._ 0 & 4.F. .S  .Y.5.z ` z ` u 5 5 0 *.:.I.*.d L G _ '.G 1.;.5.F L L z :.| ] %.G ).=X_ 5 * j.=X1.Z.1.H q 0 F l 4 n.;.q T =.j.j.` z 5 G .XT._ } m.& j 5 5 z P z F l = f | _ l ` qXMXN.P O.z.$.F 1.5.>X[.>XN.;.} 6.Z.| _ q Z..X;.f z s L d s ` #.u s P d :.:.f s x.=X_ d * q w )._.| } 5.I 5.I.I.m P L G I d 5.T.>.f #.F 5 #.z.x 5 G | 7 f m >.N.A z : G G _ q = =.Y.4.K.=.5 f : s * 5 T L #.=.0 ` j.5 * f } } 5.Z.Z.G %.uXY.;.;.6XE.5 I j.7.,.[ H 5.G 0 :.P & : s j.#.= P f z P $.` | 5 d 4 n.0XS A.=X;.G | Y.tXN.r q.F.| l _ j.j.:.l l  .6.] G %.%.5.0 4 f q ` l q  .,.q.( 9 w %.4 q z : 5 d l l j.` 5 d n.$X6._.m.l o.).A z 5 5 d $.:.l z 5 + 5 o O.-X*.` ].Z.f l F _ G f | 1.4.] ] T.=.d d | =.* ^  .1.$XF.q.5.F m #.P H ).] A ] w = 4 ] n.} 5 5 0 x..X| .XuXF Z.L.: 0 I | 1.%.%.1.n.,X=XA.[.Z.| C.=X:.d 5 s :.=.` & 4.zXT.* 5 } 5.} d j z l _ F z m.O.L h : d $.` I u Y s.' 0 4.} j 5 F _ | T h L L T 0 G 5.:.* : N.n.z I z z f } ].A.;.* T h * j z h d T.P + j s : s L O.; + - &.d.; < - i j h j #.j h ` T.=.d d P 5. .N.] 0 7 Z.N.H 4.Z.f & G 7 = _ 4.k.[.k.4.x.-X=.F z G.OXi.f.'.'.x.4.Y.).:XA.6.] ",
"4.1.N.;._ %.G 4.Z.n.n.N.o.`.%X[ _.~.5.] _ [ Y.5.A.Z.| } P #.s x L s * = :.-X*.+ & z P 5 _ G G w q * f z L F 0 4 = 4 q w d s s j l = 4 Y.Y.1.F l q '.L.l 4.| } m.P 0 } F ` ;.` I l L z d 5 j.#.*.T.z j.Z.l %.} * 0 F Z.k.u u z f } Y.A.S  .1.} _ l  .[ H I } | } Y.m.z d 4.P + ; u - u L L j.m.f z f f 4.P.q w n.] D 7 I $.q j.q P P X z P.m.J.` :.' d >.P z P s P Y G 5.| f T m._ 2.x.5 L.,XT f :.I.x.z } T G %.x.%.=.5._ 0 C.m.F } s & T #.0 = F L.=X| I | P + T :.d L I Y.`.).B.F f 0 _ '.5.F : d h.4.d f =.:.F G .Xm.d : f H 4.1.q 4 & d z F C.q.^ ^ = w 1.<XJ.x 5 $.C.n. . .0 F _ G F j.x.=.L $.;.A D rX[ r | N.l f 5 z O.d ` P =.m h 5 ;.] q _ L L H H L.I.= I I.:.=.;._ u : i - =.qX=.F | I 5 l x.F 4 & H [.V.;X .%.= & f G F _ 1.[ = e.[.q.Y.P z h T m.Y.5._ Z.<X] 7 q I 4.F d & 5.L.%.Z.4.} 5.=X0 z %.6.).l & T I.9X,X1.] ).Y.%.T ' $.s.z :.T T : =.|. X#.d 4.;.n.} F 5 } 6X=.F : u *.d o q l H F j s j L T ;.$.` u u s #.z * h s P d l q T F ` Z._ d 4 & f 7Xn.= | 5.l m s : x j  XT j.P 5 - j Y : $.l.J.s.j j m U h h j ; o m Y j u : } ` s j h.5.A w f f _.:Xk.] =X<X6.G w 7 H 4 5.Y.;.).C.f j.T $.s h Q b +XI.x.J.|.<X_.N.F.] w ",
"Z. .w  .D  ._ w 4 0 G k. .6.:X .[ e.2.B.q.N.F.l 4.F d z T f.; 5 z 4 0 0 G 4.P 5 O.4.f l q 4.| G _ f _ C.T.P.I 5.I 5.n.;.d h : * d Z. .] n.} H H q $.G d G j.z.T.L 5 z.` F } j.-X:.5 Y *.s T.:.' T.l :.Z._ [.L.| 5.5 * v N n M ` q 4 S ^ Y._.F _ n.6.N.F.l 5 q z } $.z s $.P 5 h O.- + * %.k.} F d z l T.9XG 6.q.D [ 1.I I m.5.l 4 = f C.J.m u z.m.5 5 P 4 d G d m m  .B.).;.j u 6.L.` d T <XF 5 ' #.f F C.z.:.J.I P '.uX-X5 z :.L ` $.P #.#.d P '..XN.Y.4.s P < h s O.:.%.6.e.1.S = 4.%.%.;.L.4.m.T.#.:.C.` f I ^ ).5.z z : k.Y.1.] 1.5.P h $.m.4._ _  .w _.qXZ.m 5 L >.H C.rX0Xk.A F 0 P m.` 5 x I.n.n.j.:.4.Y.l w & | l j d f m.F : i < * f j.f ' m h h d | q = ;.qX:.1.<Xk.L +.m j *.P f 0 F x.Z.T K.-Xm.F I Z.H [ ;X1.7 1.G H 6.N.V.( 9 V._.tX2.l G L I ' 5 h m 4..X . .G 4..X5.z _ L.$.%.5.:.` d s z F [ V.q.* z m Y ` >.5.7 H :.z 5 h L P $.#.d s =.4.x.j.#.f _ 1.n.] n.4.*.O.m P #.5 O.T n.;.1.k.I m.:.z *.4.` m.G.: o + : * P P & h :.` z z ` -.I 0 f 5 5 :.=X;.| l l .Xm.d d ' T.oXY d & 5 : z 4.P 5 d h.,X.Xk.* *.h.f T d Y |.XX#.5 5 s O.g h T = S N.$.5 q Y.H = f _ %.2.H | | ` =.T I.K.n.} f } L : u g g < ; s *.:.F %.%.I F %.",
":X;.H 5. .] _ 5.*.T :.n.6.H 2.A. .r r _ 1.] H G f G G F + v s.d j $. .N. .Y.qXl 4.,XI z ;.4.;.| ;.L._ f z.m.I.0X$.=X7XJ.#.` O.s z L.'.| l T I $.} * P j.:.:.I T h s d ` q ` 4.f } ` ` P d 5 ' z l 5 q F I }  .Z.n.+ ; y N p M 5 ` |  .6._.n.F Y.Y.;.B.;X| = G j.K.` z 5 y O.O.m x + y s l 5.N.} d z f } G _ | F.F.;.).4.H | 4 | F.f _ %.I h : #.:.z } m.G ;.k.;.5 *.A S %Xn.s.z.} q * 0 f | P 0 j F L ` ` :.s 0 5 T I.m.z d d z T j.f d : P T * 4.rXl =X Xs h g < U L z f 4.;XpX_ q } %.w  .C.} } j.#.z *.} %.4 e.$XC.j y 5 :.iXC.G =X<X' X L 4.K.n.G q I 6.` z * z m ` P q | 1XrX1X5.Y.-Xh.z & j oX=XI s 5 :.[.;.D 6.=X;.f I 5 $.T z h i x m.SXs.h @ a y O.z q H _ | l ] 2.G m.:.5 T #.=.d d j.I.:.=.` L P :.:._ 4.N.l H | '.;.n.rX[.F.2.wXN.S Z.n.| f * _ J.O.; i : _ A.6._ G 5.=X| *.4.$.F T ;.` s s I ;.V.:XY.G m.*.5 z P } f * q F j h x.I.J.j & T h.d & + 4.=.} G ^ G 5.P.h @ u *.u 5 d _ %.Z.Z.%.L L T f #.P l d z d z T z : ` 5Xs 0 4.z = x.4.f T %.} m.j.'.n.;._.Z.H ;.G 4.| C.j.5 5 L z P #.4.m.` T f P 4.L.=.s m.J.f 0 5 $.m.$.d f =.j.z Y #.N.w P ,Xm.z & %.[...F }  .2.J ] 4 f $. Xx.$.k.m.5 Y m s < Y U ; L j T s s G ` & | 7X",
"Z.5.N.1.A l w l d s z d d = G F G w _ ^ H ] Y.C.` } C.j.y x G.-XoXN._.[.1.Z.Z.q =.} 5.<X'.F } C.:.F d u : P =.#.*.m.>.* ` h.s.m.m.0 T J.` | J.Y.:.z j. XZ.T L j z K.} 0 | _ | n.;.$.=.d s #.z.5 >.$.4 ;.Z.H [ q.1.* u y # i U * } N.| n.I * _ T.;.1.A A q L j.n.` L L d h ` m.#.d G.E.O.;.Z.=X;.h } q ` 5 z  .).1XA A l l n.%.q ] | Z.I 0 & m ` u L T x.,X].Y.G d I _ N.>XC.z.j ` L.n.q f I ` G z J.-XJ.s z & F ' & l $.` 4.:.I.|.x.: f j : j s L P.} j d z :.` s h 0 f 7 ).:X).6.[ G '.S  .Z.L.d * * z ` z n.=XV.V.:.v i 2 5 k.C.H = | * 5 d d I I d 0 0 z T _ %.5.z s O.m * I .XtX].Y.m.z x h & $.Z.| 5 : d n.A.A.).L.l G 0 : d T O.x i m J.J.h < i v u :._ ]  .| $.l G X.G 6.T d 5 s -Xs.+ Y g + T s m z.L x.#.I $.F z m.m.z ;.tX2XN.V.[.w w _.sXvX .7 | m.d m z 5 l G 1.` * z #.` P 5 m j f %.` 5 5 P } X.3. ._ 5.` 5 d j.;.k.L.L s z P j.:.` : f 4.=.* P =.n.G 7 I <X[.q 4 u @ m x.*.#.m.q  .6.2.'. X5 o F d ` K.d d 4.} :.P 5 0 ` : P .XC.G -Xx.:.} $.n.'.=X.XZ.] | .X;.f G Z.x.Y.$.5 f d s K.T 5 s 5 j.} s L d ; N G.XXk.` d & I I f 5 5 m h L :.N.2.= T z.P P | L.] I Y.N.1.Z.6.T ` j j d F 0 L z 0 ; L h z Y ` =.z P C.C.G l G I x.",
"6.;.Z.G w w l _ G d d #.L T  XN.G A H ] ;.%..X0X].z 4.G Y s `  X.X5.n.] ;.l 4 I | f ` Z.| I n.` ` 5 d s 5 L P m *.` F s z z #.m.I s z d f f L :.I T 5 z 0 f f ` T.x.I l F | Y. ._ L.:.* * :.T.' j.' $.Y.Y.Y.| 1.N.5.j.s.M y - u d 5 I 0 + & | $.Z.G l | F #.T $.m.` 5 h + y x s 5 J.=.' ].S ] G L ` ` C.G F ).;.1.G 4 _ C.'.1._ l .XY.l 5 : Y j.5 d $.I } } ] =X` } C.]  .| d d :.].4.F =.>. X XJ.*.} L d z L :.#.$.J.m.z ` ` z.P.} z j P P F s 5 : 5 * d ` z F P.=.T s q ] w 8  .] 1.).] | ..$.L 5 : 5 } * 0 n.~.A + - @ - 5 f _ 1.2.).z h x. Xj.z z ` j.z z._ 5.;.d : : & z F G f ` 5 & 5 u m x $.N. XE.Y d H _.V.7 * 0 4 & ` 5 : h #.s m 5 h u < h - *.P.z 4.5.4.F I 1.6.] _ 4 f P j O.h u g g - L h h &.j u ; + : U h m h u f L.;X[ X.;.0 %.Z.mX0X[.] l P z :.I * l _ G j.#.s + Y zX*.y d ` J.j.T T q 5.q.G ).0X:.} F ` 5.} %. XP.s 5 5 s j =.s f I ;.F A 5.| | H | [. .0 G h ; h Y j P T.6.1.[ 6.n.=.s & T ` '.z.s & z j.x.:.F T P d s :.z.= f $.z f q F ` N.5.q ]  .Z.qX| | I } _ q F f 0 F =.5 & I =.L s 0 d u , 1 2 j 5.:.f F =.d 0 z -.- L *.j _.V.I = s j G F q l w G ] I k.j.x.z.: * f 4.4.` P 5 + h $.T P P %.k.I 4.Z.=.| x.$.=.",
"rXn.w 4 f H Z.N.w  .n.A.%.F k.1.Y. .1.N.;X6.q ;.F F _.G T *.j.H w 6.%.4 4 I %.w H %.} f | T.T z T 5 z P u 5 x T h d d d j L z z I 5 T $.d I 5 * 5 5 : d * d *.4.| & _ } q S 6.S ] n.I ` :.f 4.T.j.f } I..X . ._._._ |.P.; < s z.j.;.%._ G f $.} f F _ 5.*.d z j.x.L d h s u #.P d * U z G H f = 5 L 5.F f 4._.] 4 q f 4.%.| k.5.tXA.4.5.:.:.s : u z d d n.| 4.L.4.H |  ._ G 4 f l } n.G d 4.uXJ.d d & : m * d u ` #.z z 5 P d 5 s L j d d I P :.` 4.C.T j j L T j.#.I = 4._.H  .6.6.S G 0 H K.x.s + x L * q } q A X.1.A _ _ q = H ;X>X<X XY ` z.$.>.` *.:.5 z.L * O.` G _ l z z G 4.| j.L & 5 h 5 z n.Y.T.x m.=X .F.6.A L.*.#.L u L d *.:.L T #.d } ' 5 j U y ; z n.2. .n.H A 4  .;.T.5X:.u g - ; g #.O.y h m m - U U Y h Y M ; 5 * _ G 8 | P z * * T K.` f m.$.* f 0 l 4.d x z m &.z -XO.u * d } $._ H 7 _ | l ;.'.} L j.m.%.l %.=.$.P j z 0 f d I L.%..X'.G H l G ] l 8 w q q ` T *.d 0 f 1.6._ r 6.5.d 5 :.x.*.$.T T 0 f } P ` =.$.z 0 f F f z F P = = = ` F f G G N.=XG ] A  .| + I %.%.G F C.x.+ d j L : s =.$.m y 1 , L | I F | F T F L L.` x.m u ` | [ ).C.f F 0 f l q G | = P I.z.O.j j F =.T I L s Y Y } 4.I | L.L.5.G C.%.q T T :.",
";.[ ^ S ;.l H A.).).2Xn.H G q 4.=X6._.=X'.rXY.k.H C.2.H L I G _ B.1.q l f K.).;.| C.qX X%.m.C.$.F =.' s 5 & * L I z $.z j I h 5 z z x. Xd I = q 0 z =.d F j #.:.* f L.Z.^  .F.] | C.N.=XK._ d F oXC.& 0 q A A o._ 4 ` 5 T P + z 5.].5.} I | m.} I _ l _ ` f f =.#.m P :.s.P.m.` ' 5 O.m.| n.F I j 5 w 0 0 I H ^ w n.Y.5.Y.Z.<Xn.5.| %.P =.j.T h O.` 5 5 l H %.G z %.j.L.Y._ } f l L.qXT f :.m.P L z z L h 5 5 ` E.O.u : d d d L s =.=.P '.XXL } f $.m.5 P F j 5 s $.` P } ;.0 5.rX] [ V.A.| 4.#.L u ` O.5 5.5.f K.0X).[ =XpXZ.l F N.q.] d : & * * P =.m.f P C.>.*.E.} } ].,X5 z _ _ Y.lX` 5 x x * X + 0 ` 5 5 l ^ B.5._ Z.=.z u 5 x & m.].0 z ` z z T.j.+ i 1 , :.<Xq.H | w | _..X` P P.#.s u : s j j : < *.#.Y O.Y m &.; *.M ; s >.G %.].} ` *.O.z h 5 5 q F q $.$.F A ].m.+ * O.G.T z ' d 5 G q l G l I | & P C.:.j.*.T * %._ q F d : d ` T P F '.Y.5.<X'.N.Z.4.n.rX6.q 5.'.| T :.J.` G  .;.N._ r 2.G s j ' m.K.l l j.F 4 f G k.L.F s P P =.} $.x.F ` 4.'.;.I w %.C.=X .2.;XB.=XZX;._ [.[.1.).=XP $.} 5 5 - z K.C.$.< p p.=.$.P 5 -.P T m.-X=.j.#.v Y h.[.1.1.n.} z 5 m.:.I [.].= I #.j T - * h.x.& :.K.5 &.z.=.C.;.I l f I 5.4.z #.T j #.",
"D D B.;X[.;.1.;X;Xn. .I 5 l T T ;.q H 1. .[.A.%. ._.;X=X} 5 F n.).n.l z d z H =X;X1.L.7XN.5.7X.X;.C.C.P ` z = G %.d * l j z 5 : 5 G 5.C.:.Z.:.G 4.$.` 5 z 0 4 * I ,X1Xn.2.B.1. .L.C.4.Z.| P 4.m.Y.x.l l 4 G N.V.N.] l * #.m z :.G F 4 F = l Z.'.4 _ N._ : 5 4 4 ' I Y O.m O.d u z 5 u j.%. .| | T o G n.;.G A 8 l =X'.=.I.,X%.| q | | H * 5 : * z u : I =.} | ;.;.$.` q F T G } Y.z I F P = f j.Z.j.d j z u s #.` i 5 ; > & : u 0 $.#.P =.z 5 L P u P $.x.%.G w 4 } T 4.c.G 0  ._.] 1.L.6.=.P d x d 5 s 0 I ] f 5 h s ` ;.Y.[.$X<Xn.A w z 5 5 P =.;.T.uXZ.,XY.4 4.Y.l F #.x ; z z 5 $.` 5 h Y h h ` 1.f =.P I l 1.5.4 + l x.z ` P.u I C.| l d s.m 5 '.I.I h n 2 ` 6.o.B.;.4 l ;.*.s d *.} s ` =.` I f s : ` #.x.|.Y T s + j i j h 5X:.0 ,Xm.d G.J.m d l l G w 8 ;.;.;.C.qX5Xh 6 L ` j.n.T. XZ.} w A ^ 2.[.=.5 s J.#.l.*.u + f _ = d :.*.5 d F G I Y.Z.F =.] 4.A._ X.0X1X[ D 6.| G 4.T 4 H ] ]  .] 2._.} P j & f I _ %.k.I %.Z.4 F } = 4.$.I =.j L T F ` G } 5.].:.%.A.;. .B.Z.Y.n.1Xq.| n.N.).1X] l I 5 T x s L 5 } 4.d j #.T 0 + I L.5.5 I ;.4.h.m p.#.,XpXN.F ] G s s =.'.k._ l : L *.j s : T C.oX4.j.x.: 5 z } T.C.F f _ } T m Y *.z P #.",
" .1.=X=X .H ;.1.n._ G } j.T. Xz $.;._ | l n.A.6.;.;.;.5.;.4.] 1.n. .$.` =.P q N.$X .A | Z.F j.k.` .XL.$.$.5.} n.Y.k.%.4 >.` j T * %.A.A.].qXuXj.f 4.z 0 $.5.j.-X*.C..X|  . .[ 6.n.} F %.k.Y.j.f & q z q _ ] X.B.;XN.Y.| d 5 d .X_ _ C.| G F %._ 5.'.=X:.+ d | $.5 T O.h s + 5 z.:.z.h z G 5.6.q ` ` f _ 4.G ] | H 1.| f =.m.C.].l H A.n.z 5 L oX` + z K.Z.| & 0 ` $.l z d * 4 %.F & T f 5 z ;.| T } $.x.T h T d * : : L =.s z ` 0 0 * f = = - + ; + ; :.T.%.A H l f _ .X4.%.k.A %. .w H G ` & d I h ' $.P 4.[.Z.h v u z 0 8 2.N.2.^ G _ } 5 f G 4..Xm.m.5.'.=X_ _.].l 5 h s.*.j T q I f z 5 s J.:. XvX] l T.m._ n.5.5.).;.*.f #.=.m z _ l  .d 5 & m j.l F z.M ; 5 _ A._.F & ;.} * Y =.$.d f =XZ.0 =.` 0 F #.#.T F P J.#.j h L *.L T } P } z s z P & l H 1.[.A.^ _ l q  .].$.` z 0 G 6.I  .Z.L.5._.5.* S G = s u z * u z.m u f '.].f I.5X` d I f l C.n.P l 5.4.G ] 5.2.B. .2.= 4 _ l H ;.| <X1.G _ rX0XA f j.j.G ,XqXN.A.| ..k.1.] N...Z.z 5 T : L =.$.c.I.x.=.I.L.j._ w .X1Xl ^ Y.A D l l | 6._ l T s - z L T ` ` P 6.1.F : 5.=.7 F '.n.q G _ $.*.s i h F 5.]. X4.l s f & I C.=.} j h Y Y L + ` I.x.} G K.T.f 0 0 } Z.Y.j.I d z s $.#.: : F ",
"rX2.7 w _ G | ;.%.| ;.:.` =.Z.z l %.%.H w n.<XY._ | A ] C..XC.| Z.n.j.j.` l ] D r 6.;.I d d I _ 5 } d $.=.T } $.$.L.;XH *.O.i y j ;.B.$Xq I :.I l G I ;. XK.'.5X5 z | 1.G 8 I Y.=X4.F Z.k.j.T X 5 5 z 0 I q ] r l ;.| q G P 0 C.Z.n.;.n.;.G 4.C.F 5.m.T.z d m.n.0 #.I.` $.I.:.T.C.n.I.m.4 } 7Xn.%.n.q.1. .] | 1.q & 5 z * T 4.I G l 1.| 5 I P m.I 0 0 F ` 4.l 4 & x.Y.$.z s G } _ I %.4.| n.6X:.l 5.B.'.J.&.x d : s l.P.h.P ` c.G I $.h.f I s L h + - 4X6XX = ..] 7XL...G .X<X4.Z.%.f l 4.k.4.` m.L F -X=XZ.A.n.P z.q 8 w {  ._.6.I x : 5 '.5.G F F ` d l G P ` G ` * d #.m ` J.` 5 q P ` L z  XqXx.D V.V.6.T _ x.5.).)..Xn.5 *.u O.| ;.D 1.j.f _ 4 & l T *.x x h 5 x.k.q _ =X;.d z $.oX'.G | 1.A 0 l I & ` :.m.4.d T 4.f * z f ] ).L.I x u y + I.=.} F.>X=X[.2.[.] * 7 = l | | n.Y.N.r l D l ;.A.S r 5.G z j d s d O.z.m * d '.L.l T z $.m.;.* 5.5.z =.m.} j F ].}  .%X).2.l l B.q.yXyX%X2.| l 4 l H F _ :.=.Z.uX.X..k.| I '.1.H ;X,X4.d s j j d z :..XL.=.f F ;.Y.k._ Z.vXC.k.A.B.H ;.;.F H I x.G.j ; : #.j =.$.=.x.F 0 F K.%.] ..l 4.4.4.P > * s u s s %.'.K.T I ` $.P d P I L 5 + : * s :.: q 0 7 4 } K.%.f | } l c.C.: 5 #.%.j..X=.I 4.",
"1.;.] 4 q l l P C.m.q l q 0 ;.} 4 _ 1X .H Z._.] H Z.| H  .C.A.5.I $.l z f 1.2.&Xr. .;.f #.m.f + j.n.z *. XT 4 q d I rX[.5 ; g O.I.;.D  .F F * d d _ ;.%.Z.=.` d z q l | q %.;.5.-X-XG } %.$.$.T u m z P $.F 4 A 6.N._ q T } F n.| I C.Y.N.4 w I } '.` 5 5 5 z 5.` j.P z z. XZ.G 5.j. Xj.$.H l n._.n.'.Y.;.;.Z.N.%.Y.5.} l q | %.$.0 ] ,Xj & * ;.C.l I I q C.P I = j.<Xj.* 5 z z ` %.= n.C.I _ G G N.pX;.z :.d + h O.I.=.z ` C..XL.4.].I :.C.` z u u d P } k.;.w l :X..;.} 5.I F G = 7 0 = $.K.J.T.#.#.=.=.5.N.q T ' w ] e.>X1.r | %.Y < I C.$.=.G P z 0 J.#.d F j d * * J.I.L z L *.z | T L d O.` f 5.:X`.1.& & d o 0 k.Y.z.` Q +.P 0 w ] 5._ q H N.] G m.I.P * 5 d $.4.;.G ;.G 0 f m.m.N.2.;.q.G H 0 & _ 5.n.C.f I T z *.l ` F _.1X;.x s u u d $.5.$XA. .] :.Z.5.A.2.4  .6.D ).1X[. .;.,XZ.S A.2.] A N.].j.:.f :.x.z Y < z T z.=.0 5 f :.} 5 0 z C.x.d ` F j L ;.5.6.F.>X).H 4 I _ q.[.2.A _ Y._ q q ;.-XF & } I Z.'.Z.N..X[._ & %.Z._ L : + s #.0 ` 4.| I 0 0 q G ].| G .XT.C.w f ] .X:.z q G O.s u j L m j s s 4.} & z 4.6.I %.P G '. XK.T.I.5 s P : s & x.k.* z ` P j T c.f = $.F 0 & * ].4.%.4..XrX,Xc.1.Z.'.6Xk.x.Y.Y.T = 0 l 6.4.%.` ",
"2.| 6.F I G z ` xXT.$.=._ :.-XZ.0 l ;.1.N.;._ 4 0 4 Z.=X).;.| $.5 d L G * ^ o.#XD.B.:.u s.L 5.;.F ` T :.J.' F 4 & | >XN.T x +.s.s.f w A Y.;X_ ;.%.I J.:.z X L m.I q w | l } P.z z _ *.$.F f m.z.5 d d P ` f  ._.=X;.k.n.| 4 l 4.G | =Xq F l q n.K.P F P z.d T :.Z.} z =.m.& q } ;.l 5 } 4.l & r =X0X4.F :.L z L A G ] q ^  .| A._ f H 6.& 5 = C.Z.` L.%.5 P F F + I ` P z m 5 } F K._ P -X'.n. .1.%.Z.d f z d : Y Y U s Y #.I.=.z } T T  Xx.4.P o ; s - :.mXlXk. .,X6.;.C.| l 4 I | f = G G f =.z L *.5 l L.N.f 5 } n._.B.N.| D 1.H s y d f | L.:.` 0 _ x.d m._ 5 z G q 0 C.5Xm.= '.P.= 5 5 5 :.m.f Y.%XV r f %.N.F.f * s M ; u *.5 G L.[.A 4 ] ] pXxXn.l =.G f C.n.sX_.:XB.N._ 0 F 5.H H H 5._.Y.] F H Z.| I | k.%.F 4 5.4.f G N.6.L m O.:.d $.| A V.^ q } s.j.].bXNX .`.:X] l C.Z.z %.uX;.G A.q.^ l ).L.F F P $.P h U s : F T.L.G = Z.Z.z _ d 5 *.m.#.j =.Y.} G A.1X[.N.6.} } : v x l G T z =.$.$.C.` T I l .X4.F ;.(.Z.6.G f P F 0 $.} = z K.J.` L.[.] w f 0 | | } %.P j.I * f w C.Z.:.F _ _ 0 * T j.x.; - : s F = * 5.qX.XG s d T x.P T |.J.x.:.` F G ] 6.k.q =.$.: z :.f & l A.] A f = j.T 5.].'.A.Z._ L.'.Y.oX$.F 6.=XZ.4.G } Y.k.: T ",
"=Xn.[.| P | >.F K.m.%._ $.4.].:.| I | Y.| H  .4.] 5.n.>XrX<Xl G d f 5 F H 4 { ) ,.$XT.` : } 1X<X+ 5 =.m.:.j.z I f } H 6.:.P m : i h G ;X$Xn.A.%.I k.oX].:.f :.z.L l G ;.C.| & 5 f * z z P ` ` ` :.m d 4 f | Z.N.;.G | %.| _ f 4.;.= l Y.Y.| q n.Y.q } m.XXI.-XL.} w C.%.} q 4 C.=X5.T P 5 } %. .C._ l z d P x $.w w 1.[ S 1.6.n.;.G 0 5.>.I l x..X5.f & 0 P F * = + 5 T P Y m.P.} T.;.G oXqXn.F H k.F = ;._.:.d < m g j : - : P P 5 * f G I ` h.z s : h } C.x._ ).L._ 7 ;.n.} G | 4.C.Z.G f P d h h T m =.K.n.l l Z.;X0X_.H | 1.] 1.d j.I.= l 5.L.| * 4.$.= F _ G _ $.Z.} 5 F } } j.$.d 5 z 5 f :.z H N.1.;.0 5.[.).} + h m U +.P >.].'.| H w q.A. .;XY.5 G q f L.n._ ] F. .] l _ qX=XG A ;.G ] A w k.1.;.= G ).1.G _ A 6.;.4 7 4.-X>.x i z G ;.2.1.2.] A ` M m T N.e.V.!.[  .7 4..Xj.h >.$.= l [ 6.q.| I * o 0 $.T d s L z F 4.F ..= } %.n.P 5 s d d P j m.:.f q 4 ;.;.X N.Z.z y p U z P ` =.} L $.j.f 0 z f I 0 & q | 5...Z 0 m.n.f q T : ` Y T x.Y.7 G G 0 ` j.;.k.4.5.P 5 m.m.` Y.;.& & m.n.H n.].K.J.h : * & z } ` $.x.Y.:.z : s L : L Y j m z j.} } ] ] } _ T z s z 5X-XZ.%.).} Z.].4.F & G '.k.5.G =.uX` F f f f & l ] A.,X<XL.5.m M ",
">X[.rXY.5.*.j.5 ` j.I 0 I $.T.| %.H ;.].n._ F | _ ] Z.6.6. .A ).L.k.n.G w F H 1.C.4.Y.0XZ.;.Y.n.z | ,X9XT.*.L j.4.5.F F z.T s 5 T s.=.| A.2. .l P =.P.:.P 0 $.Z.$.& ] ;.n.4.* ' :.z :.I $.4.` :.:.#.' P 5.F ;.1.5.1._ L.I F f l l 7 * G q } %.H C.:.L h 5 j.].;.7 0  .A.l A A 5.1.H | z I 5.1XiX4.d s z ' I ].].;.] 1.).).] ^ 6. .f 0 F $.;.5.4.n.I %.%.:.,Xn.} d P L T 5 d } P.4.| 0 4.} C.$.= l I P 5  .0XqXh.P u s j Q < - =.} h.P = d d F =.J.J.=.Y d m.x._ 5.H 7 ] F l 5.f = 1.qX_.q F =.u u O.O.s z.} = l A.5.] 1X| I l l | w f zX9Xd G n.n.I 4 G } F _ q | } | 4.w f j.<XoX} = * d z 5 * * L F :.n.5.T d I l d s 5 P m.Y.$.f z = l Y.w A H w n.n._ =.P Y P z d z G A H q.1. .8 ;.A.=X| H G  .5.n.A r = ;.).l A S 1.;.5.F.| ;.Y + 5 j l _.=XfXyX{ A j +.N L _ F.2X`.F.;.w | j.m i s.Y 5.).8 2.Z.A.I 5 P :.C.h.s ; z.$.s d F G f z ` H f z f 0 f 5 + z x : d F $.P d >._ z h j h. .l H C.$.5 z ` 0 * z F = & * f f P %.| k.Z.Z.f f :.u ; h : L ;.w A F : L z L j.4.l H .X,XG } ] _ 5 L N.A.Z.[.k.d z j j L 5 s } $.f X F #.z : $.x.h h : & z h.I f 5.k.).%.I =.z d 4.m.P.z.h Y Y ` j $.$.P ` ` 0 ` Y.qX.Xd 0 s :.I q _ 1.[ 1.[ 2.} z m ",
"$X6.[.5.n.*.z L T l F I l ;.,X7XL.f _ Y.%.4 A l w *  .Z.H n.n. .A 1.=X1.| %.1._ :.I T L.k._  .w %.T.` F C.=.d C.1._ w j.z.v #.:.z.m.$._ [.).I 5 ` >.f z j.` T $.T F q l 1.Y.| d L =.` z f d j L d h T 5.=X| G n._ %.} ` 5 :.:.=XxX| q _ ;.n.Z.;.:.| L 5 T z d _ 1.Y.N.B.l | N.[ F.n.I 5 & 4 n.n.I 5 5 q k.l l _  .0X[.Y.<X[ 4 l & 4 } F 4 Z.L.P G %.4.L.lXT.l f K.I.h & z F + #.9XcXj.f F | I f z d f z _ H ] _ 5.z =.&.h o : j $.C.F f ` j F ` h =.=.P $.=.x.C.| 7 f 5.} L.5.} F G } f :. Xx.F d d 5 5 z F A [ ,.V l ;.f 5 q A } 4.5.jXJ.5 F ;.0 = n.]._ ] _.C.1.6.1._ l 6.<XY.| F q F #.z :.P s T P 5 z z.} 5 z 0 I I s d =.I P ` = z =.= 5.N.X.S 2.} 5 I Y h + i x z %.[ e.).N.1.9 ;.;.} ;.Y.<X;X^ A A 8 w B.>XV.[ D [ ^ B.:Xr _ f : 5 s q n.5.1.F.~. .4 ; : :.| [ [ [ V.] 4 1.m.: i g T } ] * | mXL.T _ T m.5.L Y u Y Y : G q F 5.;.F } 4.I ` ].>.j s.j.h ; 5 d s.z : 5 P = L 4.N.2.N.] H F } I =.C.j.C.=.c.P & & P 4.L.k...). .G $.$.d g v ; 5 f F F d m.|.m L P l ).1.6.A 0 + 4 } F P f A C.J = } F d =.m.f } =.P f I | } j d K.=.d f $.j F ` N.'.= S [..X5.L z j -.x.L h u + u : Y z.} I f $.` F z = & 5 0 0 L 0 4.pXtX1.] ] | ;.j s ",
").| N.5.} ` f f ` } F 6.6.l Z.5.G d l _ l w G q 1.] ;..X_ L.n.G f = d _ k.0X;X8 w } z + P A.F.2X0 d f I j 5 : q A ^ F :.h M z ;.=Xk.F S V.N.h 5 I x.4 #.J.#.` ` j T _ k.5.H P * 5 d F G q P F * h * + z _ 4 A q.1.f n.C.j..Xk.$.C.A.I 1.%.0 0 _ :.= & 5 T $._ _ B.2X;Xq.N.1XF.q.sXxXm.d P G G 1.2.D n.N.4 0 G H w 5.n.f f l l w l q d F H 1X6.[.Z.f I 8XC._ } F T.m.s z :.j.' 5 F k.].:.` 4.I = + P m.m.I & H A.6.w %.L X j 4.> : 0 f $..X-X$.` : h =.T f I :.G _ A 4 %.].6.F ;.I = 7 ` L.F d f P z =.l 4 w r { V.{ q _ f = = %.%.| ;.K.*.u _ N.1._ ;.;Xn.;.n.| Y.N.5.;.| %.G ` I l _ 0 5.` z 5 T m s u & I ' f n.6.Z.Y.n.*.u + d G I ' #._ F.3.^ r 1.I 5.>.#.+ o d 5 l G ]  .S [ X.D n.K.4 f 4._.6. .F.`.A [ $XV.] w 6.F.( 2.2.9 2.l + ; s s L = 7 ~.A.A _ ;.%.A H Y.1._ =X6.=  .$.y v i u P 4.6.G | f q :.L 0 I z.:.m h u L j.$.4.7X` 4 H z j.:.C.L z m.5X$.z d + h h y m E.G G Y.V.B.H A =.d d P } :. XY.k.N.4.5.L.F I 4.%.0 S %.:.C. XI L u + f '.,Xf = P h.P ].Y.n.F.%.l %.;.q | '.*.5 $.5.F =.F L.| q ] 5.w } n.I = Z.4.= 5 q 5 h.C.f $.%.$.5 k.L.] 6.6..Xx.m $.* J.XXJ.x.d 5 0 d I F F F ` j. XI.f f x._ F | m.G G 5.C.%.: L T T 5 < ",
";.F _ 5.$.z =.` 5 z l A _ 5.uX} = $.| 4.H q F.[.N.G | l 0 I q } J.m.P.T G Y.[.). .} x o P Y.F.>XY.| ` ' f & * q _.=Xj.=.- L z f H |  .5.[.6.d s j d + 5 + 5 *.$.5 z 5. .;.G * 5 * 5.'.;.l _ d d J.$.` Y.| _ $X1.;.1.L.n.I l } l G k.A 4 4 F G I C.* 5 I 5 0 } 1.6.| 1.o.X.6._ ] 1. .z & m F I H ] 6.2.[ A A I 5 _ l P l f I $.| | %.:.z | 2. .f 6.q q 4.5.N.1.H = 0 : z ` 4.P.j z 5 f P & k.k.z o m ` F d l V.;X%.F k.k.= G k.5.x.'.$.I } I.=.: L z j h.'.F P 0 G l r _ I 4 5.n._ f 0 G = 0 P s } XXx.N.6.w X.[ q._.F =XT.0 %..XY.q n.I u O.L._.Y.;._ 4.Y.;.G H 8 l ] 1.;.} f f %.Z.| w z P 5 m :.I.u h T *.j.5 I 4.5.=Xx.d : 5 f _ :.d f J.C.2XN.A.bXlXZ.$.j.l j.'._ C.L.n.>X8  .n.A A 0 & G | } | =X2. .9 7 ,.B.B.V.A ] $XV.F.[.A G 5 5 Q T u d ;.n. .5._.A.] [ S 5.%.w 5.F.B.6.:.d.n g i =.qXY._ F G l x.=.f P h.*.m - o d T.h.].C.l 0 4 f L.4.d s z 5 j.d _ J.P.Q z.d.; j.>.:.<X1.1...0 d h =.j.P 5 5.m.F P G 5.| & F .X,X| G q = ` | } T.*.+ 5 4.'.$.* 0 f l  ._.=X[.;.0 A :.z 4.Z.>.m.$.J.` XXJ.T G n.[.[.[ & 1.L.6.2.q = 0 & ` uX.XP %.C.$.P I C.V.1.q l = s s s z ` -X'.f q | F G 0 * $.$.x.-Xx.d I I.;.I ;.f P T o F } d d d * u m ",
"_ l q.n.F #.n.:.` ' _  .[ X.xX.X5.k.0 ;.n.H Z.=X5.} = I I q _ P >.m.m.I 5 4 _ Y.C.$.I L F = w ,.Z.5.n.P 5 = d f _.B.` 5 d d l 4 4 + _ ;X[.N.d | j.G d d : m I.#.& F G 4 F l 5 P L G I 4.5.].P z #.F f | 6. .2X1Xk.;.} f ` d k.'.N.N.C.H I =.4.f 0 = =.x.} ` ;.} ] = S D ] [ [ 2._.| + + y u x P 0 4 H n.l | l 0 f L 5 d d I.=.z } x.,XY. .] 6. .[.k....XY.N.A.pX_ = ` s ` m.O.h u z L & & %.uX5.- < h =.m.k. .V.:.- #.T l } H '.N.;.T j =.h + s s $.=.} Y.-X].| A 2.5.Y.n.q n.;.0 l  .} = P j.L s I f I Y.;.~.B.A X.| Z.T.` 5.Y.%.k.6.} F Y d >.5.C.%.5.n.4.} A.5.B._ ;.].;.$.;.tXyXS G 0 & L x z 4.$.+ m.kXj.= ;.;.5.].n.d f * _ _ f f $. X;.]  ._.Y.I F I.m.` '.x.q %.| _ _ f z h d * z $.| H ` d f  . .] 4 ] [.$X[.2.] B.[.5.| $.$.f - M x.T =.Z.=XC.1.2.r D H = 7 1.5.L.).N.f f h Q Y ; s ` G l Y.8XL.` z 0 z F $.} u d * d d :.z :.I q ` l 4 ` =.` d z P 0 =.*.O.f.*.x j T z T 5 = j 5 5 s $.=.=.f 4.x.I.C..XL.0 = 0 m.5.1.L.L.f z w I k.=.` } T P ` 5 f %.G B.`.o.A ] 1.l 0 P q F P L + z d j j f z | V.B.S G L.%.C.qXI n.G f F =.F 0 z z XX'.= = 5 q = = T x.` T.:.& 5.Y.} | L.| 7 q ;.$.$.q } P 4 L.;X1.Y.T.T s L 5 ` L.m.P.>.d #.' ",
"4._.[.] f d | k.f ` %.=X1XF.N.uX7XT.l 4 I 4._ H ] N.| C.L.L._ l %._ l 0 0 F I 4 n. X` >..X} D V.2.6.;._ f 0 0 n.2.1.f j l | _.5.5 0 ;.Z._.] %.x.'.:.:.m O. Xz.j.` :.5.;.` :.d m I 4 n.Y.| ,XjX>.j 5 :.6.A.5.n.n.4 F | 0 } %.= = q 1.[.5.| L.P * G L. XC._ I.qX%.4 H 6.;. .] ] H 5.z * i U s * 4 _ 5.%.I G G q q :.$.L z : $.m.'.| G c.C._.[.rX).A._.l 4 G n.'.A.[ | ].P T J.m h 5 j T G %.G _ G u s h j.C.qXB.& s y T -XL.N.[  .H [ P : : s s * * d P T j } %.| ^ S Z.0X;.f 4 z _ 6.=Xn.f ` I.Y z T _ j.A.] 4 1. .+ f ,XL.5 q 7 q.$X[ & _ z + X d } z z P l q ` %.=XL.F } 4 F ;.rX%XZ.Z.T f z ` L  XT.d 5 T l ` ;.z z Y.Z.l 0 | 1.C.q d P } F P 4.C._ z >.>.} 5 T _ %.4 4 4.F F h h ` z 5 m 0 z 5.z * f  .1.1.D D D l N.;X;.] '.F x.j.f ; s.oXT.:.oXZ.q A F.e.6.1.= l ).N.I I 7 } '.x.` : & * d 0 f |  .N.A 0 q & } x.f T *.d * *.P.>.j.$.F _ T.n.Z.FX6X0 5 d ` 5.j x u + L d ` L 5 h : : * - s 5 = P &   } C.F d  X-XP 4 I =.4.Z.k.| ` | Z.5.n.Z.F f : j P =.F ^ ~.:X/.,.%X2X_ ` $.l z = :.j.Y h O.z.I.` 6.V.1.w |  .l | k..X_.4.I l q F } 0 ` -XC.0 F 5.5.* * } $.K. X$.= '.qX4.j.;.G } .XL.,X%._ N.k.).N._.6.` :.=.L h.$.'.qX6Xm.d z ' 5 ",
";.2.q. .H _ n.F.q w 6.N. .n._ _ n._.).G I l z } <X0X<X).1.;X| Z.].H 4 6.L.q F _ C.l ` ,X].5.,.>XDXsX6.^  . .5.A.1.1.$.` I H 1.5.z h :.I 0 q z j.T.T #.O.h ` z j.` ` 4.I.].' d d d P .X} _ rX7X=.I >.mX:.I 6._ l w T q q = L.k.5.N.G ] | | .X%.5 d 4.C.-X} | L.Y.1.;.1._ N.n.n.).Z.f z d L j.] ] ;.Z.;.C.5.l F 4.:.F P.m.z ` } :.T F =.| [ H A V.[.6.| %.P 0  .w r ] '.5.F z 5 j z I ;.Y.=X;. .B.n.F ` F f ` m.j h O.x.x.n.] 2.3.^.dXfX .f Z._.6.6.& j Y d * * l  .r l w = 0 7 _ | 1.} z } ` =.5 ' z.n.:.G q H 5._ = l '.Y.I z = D /.eXr.6.;X;.H P T.=X5X` z j.j.5 P $.I ].qX} G H l Z.m.I z T $.* $.=.q 5 f L z.L d 5 z z * 5 5.0XC.l ;.*.*.d $.:.l f #.I s + : d $.L.<XP $.} L u u m.:.5 5 I x.XXT } ` I %.q n.w * & _  .H 5.Z.z $.z d x J.P s d d :.%._ _.).6. .A  .6.Z.A [ _.).Y.k.= o f P G 5.1.^ ( V.H ..L.F ` :.P d d j h P Y d d j 5 z.` } -X'.5.G ,Xn.T | f z G F f $.F 5 s j.P 0 j z :.I %.%.d : & L :.z I zX;.I 4.C.z f 4 P I f I } w G :.T d L x.=.` Y.[.e.`.&XV. ._ ` z q F z z z.j.=.T O.h.$.k.~.e.w 5.5.N.].n.} l C.` 5 F x.K.d T 4.T s f l f } } q .X=.F I _ l P =.C.5.G Y.Z.} 5.;.=X<X] ;X .6.%.& d *.h *.:.%.^ x z z *.P 5 ",
"D F.2XD D S F.bX`.D 6.n.A.G G w H 6. .| 6.4.P l _ 1. .[ A ] ^ 6.Z.S S Z.0X5.l _ k.k.} ` f G S q.1X| 7 G n.xX=Xn.[.4.d I N.A.| f x m 5 l f z d 5 5 T *.m s 5 ' z & + F K. XL : F G _ $.= 7 q._ z s m.8X5.n.} q G _ I d 0 f x.%.1.5.n.). .H G | } | Z.Y.n.T n.;._ w 1.[.] 6.)._ A  ._ 0 f f | [.>Xl q A.Y.| F :.m.| f } =.I.=.& F z : F f 4.;.J 3.).6._ k.n.I D [ ] G I n.z L & 5 :.n.1X_.;.| Y.<X[.| | 5.m.T j Q L h L & f 1.6.{ y.w.pXZ...)._.vX=X| F } T F _ 2.q._ 6.G Y.N.C.q.^ =XA.K.=.` z z L L f & 5 * T G 4.n.4 _ k._ %.;X0.) r.>X6.F.6.;.F d ` >.I T.I.P d L d = 5.=Xl q F x 5 L 4 F k.l } x.%.= P d 5 } :.u u 5 ; u I 0 F 4.w =.4.d & s G _ l _ h L s.` d I %.0X| | =.X * P d L I.:.` P.I & d T | 4.N.=X6._ 6.I } n.C.f * F 5 5 P j & d 0 z $.;.V.A.1X).6.4.Z.;.Z.l Y.iX .F %.).=X1XZ.;.k.6.N.nXVXN.;.L.G * z ` z P K.$.d : z #.d 5 f 0 | Z.G F _ j.=.l f f } ,X;.= ].I.} C.XX: s T =.m.k.| m.j.F = f } z : ` _ c.uXZ.%.;.0 5.MX4.f F _ j.} 0 z P F L =.Z.6.B.#XV.$X;.5.4 z _ I 5 . T 5 : d s : $.`  .[ | 4.;.F 5.:.f z 0 =.$.0 T } ` 4.$.l = 0 = 7 N.Z.=.k.f %.Y.Z.q + & & f P I w C.;.C. . .1.H 7 J n.I T Y + L x. .A 5 s m K.j.d ",
"o.B.1.A S { 2X>X1XwX .;.%.%.4.k.A.1.2.n.F 5.C.F H G A q.A.B.X.).tXX.w ).rXn.N._.%.l z F 4 5.B. .%.z >.$.` m.4.P F q & G B.2.G & +.U >.n.q j.$.h h : Y O.j 5 f z 4.j.d :.:.#.F L.Y.0 d 5 7 1.F = d d 5 P F I z *.:.I j.` = f 4 G ]  .;X] 7 P s j.%.4.6X,XY.0X<X;.5.[.n.;._.<X .= 3.3.l d j z ` 6.Y.Y.| l d = d ` d d T ` $.T P z s j P d $.6. .A B.4.5.;.z l 1.F.A ]  .Z.P.I =.h.j.*.*.j * z *.` ;.f w 5.x.=.m ; i L : s q %.N.H 7 V 1._ 5 d P _ j.1.6.[.=X5.4.4.;.;.4.4.iXxX1X] 8  .k.n.I } $.z P 5.` _ f 0  X} P | F X G  X%.k. .X._ k.%.F + 5 z L d F d & s z 5 L z f F F A } s < i x *. X` :.7XiX} G G | j.L O.x h d * h T z n.L.d } =.#.#.5 D e. .1.5.C.m.} T q l ` G I l f 4.j.#.` :. Xs.O.y : d d & ;.Y._ l l 6XJ.:.m.I L ` ' *.h.T L F ' = 4 f = q ] ,.[ P m #.J.x.j 5 s k.k.I ] Z.Y.4.C.F z F 4...` 5 #.:.z F F f _ 5.Y.;.G I Z.4.l _ _.'.k.%.I l = = l Y.A.I 1.|  . .] d f z s * Y T.=.O.T m.'.m.4.m.` o z :.` 0 4 l _ C.$.Z.L.l %.=.j.,XC.0 s F x.T.K.z N.>XV.e.1.4 x.n.P.>.f d j d f T & o ; d L z ..5.C.-.:. Xf z L 5 z $.z $.` d ` q %.I %.f 4 1.] 1.| | Z.k..X| k.1.P G q = F =X<XN.7 l L.1.7 | =X4.:.O.+ s 0 I N.| ` d ' ' I ",
"o.2.| 5.o.q.tX[.] A.H w * G [  . .H 6.k.l G %.| A ;.2.| [ [ 6._.1._.q.] Y.;.n.1X5.l z = =.1XwXwX4.z ` z z f m.x._ Z.:.| N.8 l z s h $.;.l ` z * * h z.*.s * j } C.` *.z h I.` qXtXF u u N.[.;.G :.P ` =.T *.m s #.J.z T :.K.| q f ] A.H q F 0 0 q 0 l $.%.4.L.4.1.F.%.0 ] 1X_.N.2XF.mXm.: * ` ,XxX=Xl n.T.;.z 0 z z F q x.J.8Xs X s Y 5 : z 6.V.Y.B.5.G F G %.;XX.] } ;.| d *.d z m.T * I #.f 0 F =.G =.=.s h - @ ; j ` %.B.] 3.B.>X} : Y s P } ;.,XN.1.A.w = X G '._ 4.6._ q.X.]  .6.%.+ 4 T f T q 4 l d d ' L d T 5.J.qX.X} f | '.G * x P u O.m.m.T m.z.} z o z $.z 0 4 _ <XP.T i g L *.I z m.Z.n.n.;.f $.L + T z.d O.s.` x.m.| l 4 & s F s P r = X.[.N.%.Z.= } Y.` I q q 0 $.C.C.J.s >.j.m + * ` m.` & l ].].` l ` m.L d d f j.j.z T d 0 d j 0 = q l  .).6.w T u ; s Y : ; : C.x.F F 5.5.F d d h.C.| P : L P :.$.m.).;.N.A.q.w  .] 5.6.5._.Z.).).H H G l 0 G _.Y.k.6.Z.;.| %.P 0 j d * j =.j.z.j : 5 4.<X].Y.} P 5.= = q 4.f | ].5.0 q C.oX0 & d f %.c.P ` P & ;.6.[ { = * :.j.:.z ` z f :.:.| } =.m j z -.Z.x.F j d T =.x.:.T T oXj.=.j 5 ` I '.L.6. .[ S 1. . .B.;XY.n.6._.<X1X.Xn.7 G %.Y.A.k.5.6.G [  ...` z s : $.j. .5.4.5.%.l H l ",
"1.| :.P ;.N..X5.G n.` z _ 6.o.{ | _ _ l ;.;.Z.Y.7 I q * 8 [ * 4 w ] 6.^ ).Z.;.| k.T z = F _ q.>X^ l | 0 4 _ ].n.;.'.Z.A.( [ f 5 Y d G ] 1.4.L.T :.:.d x O.u T C.x.d *.j s =.z  .A.'.M - L.N.G T 4.].XX` z.v.h h *.L 0 } C.=.=.L.A. .5.Z.4.} :.$.= P d _ I _ q A 5._ | l | 5.w | =XP *.v i P *.4.5.G q I ;.=Xm.l ` q f G K.P.I.P s ; T J.` $.[.Z.V.[.F s x.5.4.Y.2.r l f d 5 m f _ 6.k.T m.h.` z h.:.T $.*.P s h : : : %.Z.S [ ;X1X).f 5 j L $.:.k.;X6.J 4 _ 1.H G | F ;.2.Y.].0.|  .l f = * * %.Y.= G } z 5 z s ' ` $.=. Xn.4 0 } I 5 d s h ; 6 h.x.z z l 0 l l T.I.J.F :.-XoXx g N M y : + s ` z f G ;.l f F m.j.:.z *.:.I _ q 4.C.l =.F * 5 P k.;. .;.T 5 $.d f %.I 5.L.G F F 1.=X=.& ` =.h X P j.$.G _ L.'.C.f z j.J.>.d j z ` #.* h 4.m.z * 5 z F G 1._.tX6.| : * Y J.m 5 : Y :.P z | F z #.=.P.4.| 5.= x.h.z $.<X[.6.F.[.D 0 4 l P l f n.Z.5.| l A 0 H ;. .C.;.%.%.I %.P =.$.` > 0 5 o : 4.T.h.f h.:.;.$.5XC.n.G d G C.m.l [.'.I.=.0 I :.s : j.L..X'.q * : 5 4.Y.w X.;.` ,XJ.* z I d d f F G =.T z h 5 F j.$.= : z L P =.:.#.` j. Xx.z f z :.:...%._.B.w r ^ B.1.= e 6.;X;X| J A l ] ..] 4.).....} %.%.[ I l d * & x.uX7XD l n.A.[ n.6.",
"$._ T x G Y.:.F ].Z.G q G 1X;Xe.;.F q 0 %.N.G G [.Y.l %.G 8 |  .A A 1XA.G H l _ %.f f T.I = H ,.Z. .).[.q.1.G A _ I H ] r.F.H z j.5.Z.B.2.<X].F _ } j Y *.y L J.Z.j.#.x u I _  .=XC.; h G  .f z d d z j.m X : x j P m.=.I 0 l %.l 6.=XZ.$.L :.s f C.K.lXiX5._ Y.;X| ;.k.<X1Xl 0 P 5XP + - $.j._ | n.1.5.n.4.n.%.G f _ ;.` j.T - < ; P *.` d C.6.e | 0 * * d %.1.[ 5.G ].=.+ h d H N._.k.G } d T $.=.d L P.h.=.L : x.C.` N.0 k.Z. .H L.=.5 x.:.` ).1.).[. .A.[._.f + f ;.S S G 2.w D 6.Y._.%.q H 1.] ;.I z x Y x s I z X 0 l l 1.m.f x x 5 M O.u x d & 5 = A 4.4.I 4.j.z h O.h +.s.u h O.* & u P ;.N.w _ m.;.$._ | G 4 * F 5.%.F d =.4.<X` * d 4.'.Y.4.= ` =.d s * d %._ F z j. Xm.` x * =.$.u T -XZ.j.4 q ;.;.4 = d z d *.' ` $.q F s O.P.>.d + d Z.Z. .B.N.6.l } L z Y j.s h =.T.x.h f 0 F C.8XJ.| x.;.4.4.G f = G N.;.X.1.6.S l 6.*.z d 5 :.m.f l w ^ A ;.I Z.5.H l %.$.5 & & P ` z f j s z F $.%.T 0 = d 0 f c.c.%.G $.G 0 q N.L.$.T C.Z.G f s =.C.0X_._ P P.$.4.N.A w [ q T jXx m =.L L 4 0 4.Z.h.z j T 5 d f 4.T } =.=.j.5 :.$.+ 5 0 & } ` & l } ] A H 7 | %._.6.6.[.6.V..X| = w H Y.6.A.| n.Y.$.-.4.C.Y.H + * s d f n.N. .1.F.B.A.X.| ",
"$.' T z 4 $.| P  X=X} 0 l | N.A._ z T q d G _ } Z.'.'.L.5.F.tXtX1XY.).k.'.uXk.w l P = >.4.q 1.n.B._.[.=XrXX.8 `.;X .* ;./.) [  .* T _ 2.:XZ.0 d l l *.T 5 + * *.'.K.T -XP.F | '.<XG - &.C.l F T ` L F  XT 4 | k._ $.Z.C.= 0 = w G | 1.L.F * : d ` $.T C. .l 4 l ;.G I  .n.6. .[.Y.Z.L.| G Y.Y.f | <X=X1XA.0 _ l 4 4.n._ x.P d h u m j.P P *.| 7 A _ & d P P f T F f l G f + d P F f Y.k.=.| 5 L m * * L $.x.XX5 T h.].lX] H Z.I I 5.[.k._ C.f * f 0 P _ 5.V.2. .%.4 G } A G D 6.6.6.[.n.=X,Xz G Y.6.l w 5 5 P y + 5 5 = | 1.).N.` I - y s L :.Y z z _ _ G  .D F._.d 5 5 + + - U P 5 5 u h T & | q.V.$X1.;.P 0 & G G 4 G ;.;.$.z 5 z j.m.` I   f } ;.| l k.=.s d 5 L.%.4.I 5 T L L O.s $.m.T = l Z.0XL.q 5 ` = = 0 _ n.} T F P P :.T d ` j o 5 L f K.'.C.S X.1.H >.j.T Y z d s h Y O.5 5 *.m. Xj.d F ` G G k.5.n.F 4 | A V.| _ ;.w k.qXf f 4 5 = =.k.N.).1.2.;.I _ ` F F & s : - f :.Z.k.#.=.'.| f G '.$.| l = 5.L.2.6.n.5.= * * f C.z 0 I H 0 f Y d 0 ..V.).I oX%.4 ^ 1.D A 4 + f :. XI.j.d l 6.[.,XuXx.L *.- 5 T =. .l F F | I : : T j d s j L =.T :.| } 0 * A I | ] k.G G 4.k.5.* H C.6.H ^ H 4.x.* P $.:.P f f > P C.j.P _ S ;.=Xn.%.f d ",
"5 5 L z =.>.T z :.=XT.n.%.7 | 1.I C.=.I T q 6..X4.` C.| 1.] $X_.A.G l f ;.,X=XL.I l f 5 k.5._ 6..XN.V.q.1X6.1.).[.1.7 Y.q.V.;.G z | A A ] ;.;.l Z.K.` L d d *.L ` =.0 >.:.0 0 } A 5 s m G 0 F : z =.$.n.Z.;.$XF.| m.=.4 5 G q 6.| | f q 0 P * s 5 * Y $.]  .w l L..X] f 4 A C.1.| G l r G ^ C.w f l w r ;. .= 4 4 ;.5.5.%.j.I.=.m 5 s z s T } G n.C.0 Y +.u & F d 5 & l N.5.$.L P s T :.} L :.j & T L P T j.j L T z %.).A. .0 f l _ A.).S  .'.#.* = f F  .C.Y.).Y.| .XqX6.2.).N.).w A.;X].;.7 G 4.] w Y.j.j.j.+ ; u I 4 | 2.F.| ` m.y m -X} 5 u } m.6.).5.] 3.`.[.` } O.J.h , - F F T *.-XmX4.;.).V.B._ w P K.$.q ` F 1X;.0 P d : z d d Z.` ' =.F q $.1X'.G $.5 } '.| G G d #.u ; m x P z ` | l P m.=XP :.C.P f 4 %.=Xn.l 0 z 4.$.F m * s X s K.F f ;.A 0 _ q l ` Y +.- * f 5 ; 5 X x #.,X6XT 0 d j 5 z 4 G n.Y.1.G 1. . .| _ =Xk.f 5.'.Z.I 4.k.T %.L.A 6.Y.=.z F P F z L s + u T C.I 4 j L } 4.L.6.Y.,XI.F I _ ] k.C.Y...0 z j 0 L ` T | I :.:.=.T G = 5.V.G 6.;.q  ._.;X5.= 4 0 C.XXM u 5 j.;XA. .} d m L Y P I F [ 2.o d 4.L.P z j.I z z d I.qXm T C.| w l | G q A %.7 l ;.F F k.%.6.4.1.e.H :.m * h : * & s F f f ` G I Z._._.].;X5.l z ",
"f K.` z >.=.$.F %.'.=X<XY.}  .] %.j.F d 5 5 C.Z.} l j.oXqXH _ Z.1.F f z d j.8XI.0 z T m.qXY.l G _ 5.1X;.] 1X1X1._ 0 F P.'.A.| o z G I Y.n.C.6XZ.K.].n.m.J.O.x z P _ d l *.} F F f P h ; : _ z T L 4.} ] N._ N.rXl =.` $.:._ Z.;.-XxX_ | 5 ' m : 5 h h ` Y.[.n.l %.Y. .] ].N.].1.+ q ] A 7 D | = = 0 ;.'._.4.I l I =XY.C.I ;.` =.h h z T s 5 } H [ F.=.:.O.5 : d h L 0 [ N.6.-Xx z $.Y h s h.J.I %.C.5.k.4.G G G f f G | A.N..XI = = G n.H G .Xj #.s 5 =.z f ` 4.z ` L.0XY.Z._.rXA.4 ^ >X2X2.6.%.4.} I 0XC.L ` m y u *.4.1.D S ^ G = s x 4.n.T.5 l j.k.5.Z.2. .6.l } m.' *.v ; - j. X} ` T.0X$.z } G ` 0 P ;.l I n.P :. Xz 0 ` j.s T z 5 | m.<X:.z 5._.;X1.C.=X} =.'.C.0 & P L L $.L & o * * $.F d z 5 4 n.%.l H | G ;.N.%.c.| G F $.z s 5 0 $.C.).B.[ l .Xj.0 :.].` ; h $.G d & ` L * 4.n.5.'.:.z s 5 d P 5 4 ] q.q.0Xn.G & 4 G H [ A.;XiX_.0 4.} F | C.4.} T s I z d x.Y m s L E.:.F = 0 z P I.7X.XN.C.=XZ.| k.l [ _.,X= 0 T F :.4.j P z f =.T j f F n.;XA.1.N._ _ A ;.q.| q * q $.u i h z.T.G  .n.X 5 h : - d $.6.B.2.F G ] 5.k.q j ` =.s : Y *.h j T ` G | '.n.| ..6.....=XG z C.=X[.Y.3.e.N._.4.I ` j * ; s C.F T 0 4.=.H  .$X6.H | %.} ",
":.>.5 L m.T P F _ x.;.n.| ] w ;.| I ` 5 m.` & l | F q :. XT.*. Xx.n.#.f f T :.l I $.P j.x.4.q ` G n.4.%.F l C.k.H G L 4.5. .f G $.` l :. X& f Z.} P ` d *.5 ; 5 *.'.%. X=X5.q d j.J.j h L $.:.-X6Xm.I } Z.A  .| G j.$.I.T.$._ l I #.5.` G z d z m Y u 5 G _.Y.| w 4 _ n._.C.;._ q G ). .8 Z.<X;.H | n.,X%.l n.} 5.].%.F 4 0 f ` I z %.].*.5 C.;.r [ :.j.h h L d h d n.o.V F j u j.%.U U < L = & } %.k.Z...H C.;.%.4.I 5.:XV.%.P F f w H  ...f ` x.T 0 =.K.z F :.| f ;.;X'. .A ^ q 8 S A q.tX=X_ 0 I I G f ` *.s m #.s G Z.q.,.,.] L.:.d q 1Xm.n.m.= _ Z.%.| I G 0 ` $.L P h T : 5 l G | z | z 5 h h O.P d z P T x.%.` I.:.f ' z s z d   $.J.I.} F Z._.6.H ] k.%.Z..X} f : z j z d s |.j. XP.d 5 * x s = ` G A [ =X| 4 4.Y.5.` f =.m.z j s 0 :.T.;XV.A e N.C.G z H d 5 m 4.'.T L *.h z 4.z 6.uX=X$.j.T j.T.:.x.5.;.q.Y.A.1.l f = ;. .J H ~.2.H ).Z.z d } d ` T z =.= F T ` 5XI.5 & } ).6.& j.I.Y.5. .f = L.L._ ,X;X[ 4 A f = F L.'.` * 0 * ` J.=.j I j.n.Z._.H | n._  .6.A.;.j.| f P + : h m.K.G 2. .f ` : L E.j.I N.~.1.k.P = w I & & s T s z 5 h Y : z |.C.G k.4.=.q l G ] j.0 & = k.,X| B.2. .1.Z.5XP T d L L h.m.K.F L.L.f Z.N.] ).Y.%.k.",
"5.$.h } 4.} q f 0 } } F 6._. . .w | 4.` } ` I G q l 5 $.m.#.z 5 ` =.f f d ` 5.T.C.` G * 5 ` f P P ;.z L.5.& z ;.).C.d l 1XfXN.C.n.C.G l d q l I F 5 = :.*.+ u P ` j.j.=.L.%.d F I P ` L Y * f L.,XG H G F l _ d m.].F 0 z f * #.=.+ j l ` } f _ _ ;.f z.$.z O.=.P L.;.4 ;.G = = %.A.Y._ f ]  .n.L._ %.:.l G F _ ;.F =Xk.w _ _ ]._ I >XZX` T f _ >X).C.oXj.* f #.u z N.e.[.5.* ; ` z h g j b : T %.] %.G = I '.C.} 4.7 H V.6.L.=.-.=.k.=X;X| = $.C.<Xw H 6.k.k.I 4.'. .I  . .N.] G 5.;XD 7 ] G | ;.q z j.l l F * 5 Y h :.Z.6.N.e.^ 5.` & 2.>X_ Z.8X` = z G :.5.f 4 = f *.E.z.*.u d = n.oXC.l 5 j * * s.Y L Y.=XZ.I H q 4 n.6X>.z z x 5 f } Z.G z f 4 I A ] 6.I 0 w } } P h j f } 6X=.z x. Xz.m * + * L :.G H I ).Z.A l n.%.;._ = =.'.|.I F L & $.} H I A 7 ^ B.5.n.7 5 d  .5.q T d + : _ _ ;.A.n.5 4.j.#.:.d #.T.F G _ Y.;XA.J { ~.( [ [.V.w w k.G & j : : d s z j : ` #.j.XX` T j.C.L.k.5 ' :.I ] 0 + 0 + f ..;.N.N.A f | I f T x.f } = & z $.h.} P P 4.L.] F A _ ] | N.B.L.P.z h s 5 | :.P P 5 [ [ P F & O.|.6X%.k.:X:X=.C.=.| C.F F s * 5 j.P Y h u * L F f F q w 7 _ k.} =.P & & f d _ L.| I =.0 ` f I K.7X6.P } } G F 0 l 1.A Z.7Xk.1.V.",
":.:.*.} P _ l = | m._ G k.} D ] _ <XZ.K.z P ;.%. .1._ _ T 5 f #.z ' *.z 4._ z $.x.G n.].4.=.5 d q d z z d d d F A.n.4.l 5.q.6.n.%.xXT.d 5 f 4.%.n.H l  XT.P *.h.:.J.%.z l f F d d o } I.:.s } P H k.] H ;.` f f d >.K.5 0 q j.z.j.5 T K.:.Z.] Z.6. .T C.iX$.+ T n.'.F | %.;.I w G n.rXn.%.} ^ ] } _ I P 0 * 4 | %.= '.'.I %.I w | 1.wXB.f 5 5 N.3XtX].I f I F f * z ).V.V.| 5 z z F =.: : s h 4.=.,X,XG q } ] d F G H 1. .+ P f L I I 1.] w } .X'.k.6.H ] [._ l :.].7XF w n.2.Y.6._ V.$X^ 8 ;.m.' d n.-X;.f | =.d z z.j _ Y.F.`.>XG 4 T F.2XvX%.l j.= f z I z q l _ } f } Y : F f 5 ` _ } ` 5 x x s h z l 5.Y._ } ;.0 F P x.T.` #.& f z _ ` G T d f A  . .] I 6.L.k.d d 4.L =.'.5X} z f : : : 5 * 5 T ' = I %._ 0 4 F | %.%.F 0 $.T.J.L z } s #.F F  .%.5.).B. .2.l 4 G 6.| = q j x L ` I I ,X| o 4 = : h z x 5 P f l I A.).[ V.~.e.1X).:X .] ;.5.q & P I.T | L.h.m : h h j : =.,X,Xk.| z * & 4 * 1.5.;.5.f | w I 2.H 0 P x.d + s z x.].$.5 z 4.P T * x.L.4..._ l _ H & X.N.5 j m h | _.).| j h ].Z.=.T : : : z n.;XtX[.} 4.] 4.c.| z z P L ` s Y h ; : f _ ;.A & 0 ] l '.<X.Xf d $.T } ` C.Z.T } 5 | I P N.C.4.A | C.| 0 ..;.I _ _ _ G k...",
"$.>.` 5 0 G $.} K.<X_ %.Z.5.;.4 _ _ F } ` } 5.H 3.>X`.[ A %.` j.| j.T T n.F 4 = * q I '.0XI `  XP 5 z x.$.F 0 q I m x z z w 4 l %.=.F m x L 5.;.| n.5.l 0 d L ` 4.l w 1.%.q F =.x.f 4.,XJ.P C.n.N.Z. ...q f P z & C.5X$.4 l T.J.z 5 5 P F H ;.N.] | z 5 Z.n.m ' %.I 4 | ].=X$.%.Z.=XN. .H l 7 [.Z.n.` * 5 ;.4.%.| q _ k.n.G 0 4.$X&Xr.9 I 5 q A ~.V. .F l } l 0 0 5 | C.k.| =.XXx.f -.f 0 > > h z ` j.d & :.=.f l F 6.B.w H } m.=.d 4.1.1.Y.'.k.I =...0 0 5 j P ` & z F q.[ 7 ] ^ 2.3.%X2.r z l z I 5.].| _ Y.uXj.; *.h Z.rXB.~.;XH G %.9 1.;.H _ z f L I.I.+ 5 n.;.= ;.T.' L 4.d G 4 q I.} *.cX'.F n.%.%.6.N.F ` 4.q %..X} | ` 5 + z 5 >.T ;.G z 0 | [.D 7 5 ` } '.]...} z F z d T } L : + u P 5 d :.F 0 G G f z q %.C.].} n.G = z L #.P d j.z F G 1.5.L.uX6._ n.A G %.5.] G z d O.*.T P ` ;.n.%.I * & * h m L n.I N.1.5.G C.<XL.1.I G C.;.q N..X_ 0 $.=.Z.lX| $.#.h z O.$.I F f f %.c.T 0 z l = 1.4.4.Z.| F = 4 2.2.f f } h.P : : $.Y.L T 4.z d d d F I 4.l = 4 H 1.^ N.$X| L s 5 _ G G l P m.C..X-Xj & L : * } iXmX1.] m.| w q I ` j.h.L s j Y Y u 0 z 4.} w G k.N.H Z.Y.5.= 0 j ` } F q I F n.n.=X].N.n.| _ F L.;Xk.f 5.k.G d d d z I G ",
"Z.d d 5 5 n.kXkXm.L.].].%.Y.=X;.| f $.n.Z.'.'.5.^ B.[ ^ 2. .4.` =.#.j d 4.] I w A  .S  .A 7 I.C.` z I L T -X:.5 x u m m f 5 } =.z d 5 z #.' T } n.Y.5.%.= o 5 } G | C.| w l z } =.* I %.j P x.K.%.G I f ` ` q f z C.z.0 q } m.C.z P.m.#.q = D D Z.].#.* f G d d qXY.l G $.F | I.F N.} G 6.A.%.n.;Xm.$.+ T } C.xX0Xf l 6._ %.F 1.V.F.H S G Z.<Xn.2.B.l f _ k.N.6.%.N.F 4 d 5 :.uXh.& f P G : & > d d d 4.j.5 f ` f ] w L.Z.<XqXh.T 5 Y.pXC.L.$.` j.K.f & s m < + d :.T _ F.X._ n.Y.2.X.q.D.2.G :.` z P l l [.[.5.d & u 5 | '.A * r G 5 _ 7 ^ 2.] 4.$.q m j.h.5 0 G n.| C.;.` ' I ` L.q k.T.:.T.m.' } 5.H N.n.| G 5.:.4 H Z.:.| n.9X X} q x.-X4.f ;.l [.).A w ` F T 4.n.=X=.$.j f $.=.oXI.*.J.T ' f $.;.:.P 5 ' 5 | ).| =XZ.[.k.H d z d x.m.z j s w q G F f T | %.5.^ l 5.] S 7Xj.5 x z s T z $.n.L.4.f 5 * z I :.5.B.[.].%.T G ` F : d I 0 q 5._.6.w | =.I 0 1.6.#.L m &.O.T $.j.z | | I f _ q G 4 ` .Xx.4.5.l L.;X:X[.Z.G z T.5XT * z } 0 z 5.L.4.z =.'.%.w A I _ Y.5.8 A 6.;.} z 5 k.n.:.4.T $.$.j.L * j P.T.* : $..X,X= | N.G | :.4.x.h.O.: s &.l.h * F L.).S  .[._ 7 k.4.I f :.I T | l f z.T.Z.;..X| } C.d 0 %.4.l F w G H l G F F z F _ ",
"n.5 5 d l Z.m.j.j.| =X4.s *.>.Y..X$.n.xX7X'.n.:.j.f 4 ] ,.V.n.* ` s O.qXY.H N.;.| X.1.[.F.S | P 5 + x z 5 m.6Xl * 5 ; u d 5 j.8XT.:.T.K.j d _ } ` x.]. X0 _ Y.n.;.A.Z.G _ ;.I q #.q H A 4 q d q * :.d P T m T 4.$.` L L H C.Y.| ` 5.*.=.d 4 8 6._.$.5 z k.C.5 0 5.iX;.= 4.j.P f } ` f G F ;.F Z.qX_ =.* ` C._ x.;.q G _ 4 %.F 4 r ^ z x =.I.m.F _ l 7 _ ] 1.2XNX[.1X5.4.=XG P F s P F G 5.Z.Y f _ ~.6.>X,XT T m.} 0 * 1.<X%.T & 5 0 l ..A 4.'.4.F L s - g n , , d k.m.m. .q.<X[.N.D ] 3.2.3.1.5.;.;.5.Y.;.A.`.6.A k.:.d 5 = ^ 1._ f _ l 8 X.;._ | ;.=.u * u 4.}  .A.;.4 P | = } T ` '.4.0 : m - + < : } 2.] 0 0 z f I '.` P m._ n.mX=X<X'.j.G ;. .] B.A. .q.k.=.I 4  .5.F z 5 z L f s.*.J.I.5 d 4.Z.L.qXY.5 J.>.A.%X{ ,.w | F.).m.x u f G F & * 5 _ _ 0 F z u d | S S V.,.w ` P 5 d s 5 z + * 0 q ;.n.4.I ` F l A.A.] ].5.` ` d P j.| G 0 w | B.V...C.k.C. .1.;.m.Y < s 5 P '.-.I 4.4.z P I = o & 0 } } T q m.<X,XZ.1.G z $.:.h.O.O.` %.T.'.4.| J.#.P C.Y.l I Z.5.Y.A.6.X.6.1.l %.;.;.n.:.E.m - u u 5 & d 4.x.=.0 = 5.A.%.w ] | I ` > s d j ; - O.6XI.: = n.).J 2.A = H 4.n.k.%.].=.L  X'.5 P j.} = G f q d 4 d $.F n.L.%.q 7 ..5.] I 0 ] ).",
"4.| * 5 ;.Y.I G :.f q q d s ' $.;.} %.Z.'.} | C.I F z l F.;X_ 5 h h :.oXk.].B.Z.1.^ q.`.~.>XY.P s O.#.T 5 >.$.q * L j z :.j.z z T P z.#.z $.>.f : T I * T 0X].1.n.C.I 0 l } d 4.:.4.] w _ F d d ;.5.d Y ` h _ 4.` 5 ` ` _ H F d 4 P 5 d d 5 | =XY._ I $.| l 0 & l k.G _ } } | I G | H q 4 l | =XI & m s j.,X:.l G Z.| F = G _ 6.$XY.5 + h * z $._ C.5.C.q =  .B.l ] l _ 5.;.n.z j L } k.| f d L ] :XV.F.L.x.} %.uXZ.).;XI o j J.x.z q I N.C.5.F 0 $.#.*.a , N Q ;.l _ } [ ;.H f _ A.D  .X.B.N.G  ..X[.;Xn.w B.F._.).` 5 d | 2X1X_.| l ;.;.Z.} f l _ $.: h z T 5.tXF.w I f _ T.Z.4.=.5.5 & : u j W g * F %.( S 7 = + G l _ *.Z.n.5.I [.qXF } | n.q.A 4 n.)..XN.q = 0 | n.d : f P.j.z & 5 G.G.: I '.N.Y.;.z z L P f A 9 D  .l _ F F d 5 z ;X1.5 L j } _ >.m.j.d >.| 2.`.~.>X).n.z d d *.oXL.5.` f A k.'..X'.5.5.;.5._ _ | z F J.m.L :.F I n.n.H 1.[.N.f L.1...)..XT z =.L L T.#.s L z = = f 4.k.k.%.f f } } ` } 0 o } | 0 s d d ` z j f 5.n.P & s Y h 5 T } q l | _ I 5.2.N.S A w H 6.l l s < u + J.=.T z ` P.'.z.= : f C.F } [.4.k.q F P s s ; ` L ` XX} 7 G  .] 6.6.F.2.4.L.5.q ..I f } h.=.K.x.-.:.P l * z T k.C.k.k.k.].4.A  . .1._ P ] A.",
";.P d P | 4._ 5.P 4 P z 5 j =.} _ } q 5. .l ` } 4 G 1.A 4.>.* u i U T s ` 4.n.0XA. .B.F.2.$XG z s P.G.' T  Xm.5.F G j.$.:.>.T } | K.$.f 5.z d 5 u s s ; h =.j.l T L d 5 * 5 s j #.C._ 5.k.G 0 f '.<Xn.;XY._ j.F 5 ` z.|.uX6.5 } j.m * Y O.x f q | f x z 4.| P ` = f } | F ] f } | } F k.| 4 I I q * u z | n.$.0 f _ I _ _ C.| | | Z.n.#.z.*.=Xn.P G f ] ;.l 7 r w 4 l _.A.L.'.z j $.j...I F Y s s L F L.h.s d _ 4.G %.Z.w f s P.#.d } 6..XL.q 7 } C.=.=.5 y &.P.[.F.F 5. .l d #.,X=X_.;.8 G H ^ ] w l | | w r n.;._ Y.l q l G X.).tXtX.X} * I l d P : & s :.5._ Y._.[.uXm.I z.C.=.F T } I =.Y j L z C.V.).~.X.A A ] pXY.5 P T.n._ | A.n.l ` S 6.B.S l T } I.k.I q = 7 F j O.` T f z x 5 Y x.5 F _.e.1.A  .Z.=.f F ;.3.3._.).] | $.} T 4.vX6.o * 5 d d :.} F _ Z.1X2.!.&X>XB._ ;.q 4 I Y.5.} _ n.rX| 6.%.6.1X[.6.P _ $.l G s.hX*.h P P L.'.| ] 1.1.6.G 6.'.6.6.G d z I 4.4.:.#.z : ` $.f G ,XiX[.A f Z.C.l } :.=.P ` } G ` F | k.0 ` I w G d Y < h s j :.` I | A.| X 7 = l H q l 4 G q } T T T 4.I.d L Y P :.P.I L } _ f 0 F | Z.,Xn.x.:.$.s 5 #.d : x.` 0 6.).;.D 1.).6.5.F 4 w %.1.1.5.d j T d : f d f z z q 5.'.Z.C.H =.G l  .%.k.T.#.G 1.",
",X=.z Z.=X5.I I l 5 ;.x.j : j.>.z I 1.]. .F } m.1.N.>X$X Xx u z M Y h h L :.;.| C.5.5.] ^ N.z 4 X s d : 5 l .XT.C._ z d K.m.j.z 0 F :.m.} F P P x h h m z.: Y ` J.J.m x d s I ` P f j.6Xx.l 4 z I ;.B.,. .;.n._ 4.5.*.m.A._ $.j.j.s j *.Y x T #.*._ z ` 4.} #.h.m m.C.:.5.| H _ '.<X| } | %.G q j.#.5 j P 4 * = f ` G H w | n.} 5 5.6.Z.*.O.j.$.m.F } n.=X[.^ [ | | I F =.| I.x.5 ` 5.A 5.x.*.< ; - P x.L Y XXf . & + f ..F 5 L * : } G * o = H [.,X0 } m.z z  X1X>X4 Z.iX].f *.Y.n.=X.Xl } A n.k.1._ 5.f l n.%.l =XuX5.G 4 _ n.I 5.Z.Z.n.f I z f | T j u d j.Z.1.S k.qXj.z 5 z L 0 z *.s P #.:.P C.V.[ ] J 8 q.2.2.1X=Xd 5 h _ _ l  .pX5.5 G 6.2.G G = & 5 } 5.f + I l h ` I P z Y u *.m X 5 P 8 7 ( [ X.n.L.l q %.e.;XN.].vX.X,Xj.j.Z.Y.5.G *.I d #.x._ N.). .`.).`.V.[ 7 ] 4 + 0 k.G w * * | N.7  .n.l _ H * I =.| 5.Y.m.h < ; h P C.%.G ] S H ).'.qXC.I l l 0 C.C.| 0 5 =.P P h.m.} } =. .6.w ] [.L.%.G F $.} & T $.%.G _.'.P Z._.w f $.Y O h *.#.L 5 F l A %.n.;.;.8 ^ H F q F 1.G u m s.T.m.} h P XXm.L P z F I = f 4 | n.k.'.} Y.L.f =.=.d I ` 4.q %.Z.6._ B.'.H ` 0 : G F f ] x.T ` L + z ` K.` T :.f P P q 0 } _ 0 ..4.] 5.#.; z ` ",
";.| I 4.6._.} = f z $.:.F * m.T.L P n. .q._ 5.5.6.2.A n.j.5 d d u y =.O.m.z.d q q } 5.I Z.L.j.m.L s 5 : d z d G j.T ` d T I 5 = 5 & } ` ` j.J.z d ` h *.T u i h h Y m z 5 x.-Xm.T x.n.I.=.= =.$.q _ 1.o.[ ] _ j.Y.$.h 5 q 1.} 5 5 + : ` m T h.*.5 f q * s z : 5 ` |.$.L.MXrXk.k.n.} 4.4.'.,X.XL.:.:.x L ` f * = T j.P 5.C.F K.$.5 I l ;.} L ` Z. X$.| I | | B.| 4 z d 5 P * h h d j F G $.C.Y g g u u s b *.hXh.s F 6.,XrX=.s $.d P } 0 & = n.6.H 1.Y.Z.'.$.L T ;.` I I B.X.H  .q _ = P T T Y._.].'.f } %.n.G _ q ` } L.6.4 ` z z :.%.Z.N.l N.A 4 ` :.O.m 5 5.n.[ Z._ 4 f f d ` T 5 & 5 5 P K.]..X6.J A = l [  . .| N...s * z ` ` H N.[.5.C.;.4.%.l 0 4.;.q :.s & P ;.} s h h ' m.=.s L s * T I ] #X`. .A.uXqX_ G  .l = + *  .| z d s h.*.m #.>.4.f l =X<X2.N.F.q._ 8 | q.;X;Xr l N.A.G _.].G l H q ] '.| H G 2.,.V.5.I 5 T =.I.L h #.0 F %.H |  .N. .;.G n.` | G 4.'.4.V.6.P d z =.I.=.T ,X[.] A G q 1..X .H A w %.;.| * f P z $.I A ] 5.=.Y < O.d s * s ,X;X%.n.VX[.A.6. .5. .1.B.rX].: @ < Y P :.z :.|.s s L - :.I.| } 5.6.] } l q L.'.I I f ] 4._ ] 0 l k.| F ;.F %.$.5 z F q 1.k.T P j.j.L T :.z 0 F $.f } C._ P ;.x.` P F | 0 f Y z L ",
"5.5.` F w ^ G } =.=.z.z | | ` T I P H H A.5.T 4 q ^ 1.%.5 j z 0 *.j s z } z.} f I d 0 P z 5 P L i *.d d f l d ` F 5 f d j.Z.G d d ` $.T n.n.T.= } n.I I *.M T P ' d =.z 5 ` m.G 4.I.` d F d ;.| } A.6.1._..XY.` q f z d qX<XG z u * $.4.f z 5 5 d =.K.C.P m P z T $.=.k.k.L.L.k.4 F '.5.5.F I n.4.#.O.$.I 4.4 & z z ;.C.0XY.m.} 0 G } '.,X=.* d 5 = 4 ;.C.] w H %.z 5 5 L T P * P ` c.n.T m.s.&.u g s Y m X m #.j s } Y.4.l f I f 4.]._ 0 G k.] ;.l  .Z.;.G C.#.f $.j.G + 3.=XA.[. .d : + x 4.G 5.m.5 + ` n.0 q 4 = & z ;.` l | P P T | H _  .] l _ F O.` #.Y.G  .;XH _ P d L L 5 z * =.I.4.F 7 e [ H 0 T ,X,XG F l 4 w P + $.4.;.k.2. .f I } f 5 q G C.C.%.P + #.T.k.} z x *.$.I.oXz & *.=.P #.[ V.`.2.N.Y.f 0 _ =X'.G ; u F N.:.*.T &.g - s 4 G } f G 6.[ F.| | Z.F 5 ;.<XNX>XH n.f f n.mXZ.} 0 4 _ 6.| 1.A.N./.`.0X.Xl $.C.k.z . o z } l = S _.pXZ.0 l 4.] k.| & H Y.V.Y.%.d 4.T =.f z Z.N.[ 7 ] 4.S w n.;XN.6...d P =.h.m j |.=.0 G G 4.m h O.s s L ` Z.'.| A ] 5.w G Z.;.4 n.2.).5.; i X y j } =.f s s s : m h.'.Y.Z.4._ n.| G G Z.V.G X.A w A.C.F ` '.} f $.4.I I.m.s : =.C._.;.0 f } T : & s 0 & z P l k.-X'.=..XqXoXK.| [ F T L s : ",
"] H z >. .] } n.L.4.z q n.;.` =.f N.;X| F.1.5 l ;.G h.O._ '.;Xl F Y.'.%.$.4.` } qX` : d * + *.$.: x z d 0 5 F F = 5 d 5 f :. X$.l G K.Z.oX1XY.} n.n.Y.F T.z.m m.j.z '.4.5.).k.;.;X;.& & : :.%.4.w z L d L z. XC.} f 0 z ;.G q z z z 6.5.[ Y.=.` u I Y.<X$.z m.Z.=.'.L.n.= 0 d l G ` .Xn.l 4 F F _ z d 5 d ;.f X * z ;.F l Z.n.` ` 5 f q 5.} f L ' m.= _ _ l 6.=X1X$X_.H 6.1XL.I I L K.x.I F #.m P ` ` L.; - ; - ; ; 5 q w 5.'.:.0 d ` P ` Z.'.G :.%.l C.I.#.` P P w l 0 S _.=X;.] l z i h 5 4 5.5.P m 5 4 0   4 1.w & u P f Y.F._ 7 %.C.I f 4 G _ G 5 P 5 | _ f H  .] Z.| 4 f h : h * z.:.l = 1.B.[.I f *.s.d 0 0 f A =.z + l G 4 w ;._ 4 q | 0X:.$. X$.$.$.z + P _ | :.Y s.s.P #.oX=.T ' m s d = 4 _ ;.l * z z z I 6.Y.h 5 } C.Z.P *.#.; - | 6.^ o.).1XA.n.I = d Y M h i =.,XZ.0 z 4 l q f T G I 5.n.%. .] | H _ 7 G L.4.j.=.< ; =.j.` } } A 7 A ..I f | L.Y.N.Z.Z.4._.L.C.] k.oXm.'.d 0 5.C.N.J [ Z.[ w 1.l A _ l * s %.Z.=.#.&.L & G A.'.oXh.m L =. XL.f A e 4  ._.5. ._.A.n.} l H G s - *.P.L.=.z F P : : j ; L =.F l | n.| = _ 6.] N.1./.,. .A.A A C.$.L 5 z I z j T s u j 4._.| G '.x.T s & d z d 0 4.=.I C.'.4.c.T G =.c.F T j j I =.",
"_  .F ].uXZ. .| | f z l C.A.l q w l H 5.6.w %.:.].Z.+ u ` =X_.] ] n.).Z.| _ 4 T j.*.G.L s ' j.:.+ ` #.l | j.l 5 =.G G 4.f z l T.A.f G | q } | n.).;.Y.C._ T d j.7XY.H S _ 5.6.n.k.l d Y d C.N.4.n.=.z s j L } Z.xXn.f 5 l q q = f 4 7 [ [.6.I 6.q f G F 4.J.} ] G 1.%.l q P z $.` 5.'.4.F I ;.4 f $.L z $.0 F z | '.5.f l z = f ' =.$.5.1.l _ P z F 5 G n.] [._. .^ $X[.N.1._ $.f } P 0 $.'.I.j.=.} q %.z : P.#.u s.k.I Z.Z.%.I f f P K.=.z z ` ].-X` z z * z _ Z.].4 4 1.X.;.G A 5.} m v u d = j.O.d 5 f G } k.4.n.j.Y h =.0XA.G I  .1.n.| ;.;.Z.4.} #.L j.l l 6.N.6._.F f d o 5 d d q 0 f _ 7X1X%.q I j : f f j d n.C.f f =X].Z.C.[.uX5 s Z.0X5._ T.` d d ' T q = =.T.h 5 Y d z :._ P f d d F :.;.F f z d d T s q H l L z G 5 f f l z Y 5 I [.pXF.q.rXtX;.f q *.*.g Q < s ;.l I | } 5.z & G f z Z.Z.I N.vX2X .l f 6.1.P &.j : u *.4.0 o I ;.G ] 0 0 F ;.Y._  .2.N.G s = _ qXL.:.C.T : F C.Z.6.6.1.6.w Z.6.%...:.j s z.k...F L x T f 5.Y. .K.} j L z } k.4 4.[ q  .).Y.| <X1XZ.Z._ | Y.O.U XX,XF f f P ` L $.Y ` x.F f n.| H %.n.I | J H D ]  ._.] & H | 5 5 & h.I.d s 5 : L s  .L.1.n.'.T.=.: s } F P } 4.} l j..XP x.m.f G n.} f ; T '.Z.",
"F.;X;.T Y.C.n.| ] n.oXm.w q | ;.H w S ] w _ Z.Y.$.F T T :.%.l  .] 2.A.=XC.G ` | j.|.I.d h P m 5 z oXT 5 P T 5 d I.T.L.;.l 4.C.]._ ;XA.n.L.n.l w Y.Y._ | l 0 n.n.).B.H C.%.4 P ` I & 5 } T x.N.| Y.=X5.F T F ` _ '.6.G z _ 6.F l 0 q A.F.5.F ] F.2.] X.Z.:.:.4 4 w w 0 I F f %.f F 1XxXF P oX-X;.G l $. Xm.I 5.:.n. X} I ` s P I = = _ N.6.q } T s o :.Z.4.H n.Z.+ 0 F l G 5 5 h s z z P I } x.h.s j 0 z L z I.` G Y.1.2.6.| d } T L 4.P 4 * T _ L 5 : j d I G H [.1XG _ 6.r 4 | F.<XI.` s u O.U m L 5 s * 5.vXA.l j L m U Y I d z I H 1.;._ H ] ^ G 6XoXL x.C.| n.Y.;.'.n.} 0 d G d } %.| %.n.n.Z.| F } Z.] 3.1.=.I z z $.*.j.K.$.;.;.:.a n I G ;.T F 5 s j G l | C.j.:.5 h x.d 0 s 4.%.F *.5 d m.oXm.*.I.z s _ ,.F.tXn.G #.T }  X.X` f %.H H l l F 0 | | l r 8 ] L.z i ; m 5 F 6.$Xl z d P :.f q G n.| =XtX_.H I 1.L.G s f T #.P :.L T | k.} f f | } I F '.=.w  ._ : s 5 =..X$.5 d & z Z.C.] _  .G _ ] ] H _ x.T * M x.-.d 0 7 4.;X.XN.= ] oX=.j : c.L.V.e G l 0 .X1Xq.2.Y.k.;.J.} ` ' m Y :.Y.0 G F.5.F.n.T.P.*.-X:.| 4.} 1.,XZ._ 7XA.f w = 4.[.0 4.A.5.f 5 P h Y d P u : T 1.q.6.N.C.F z d s T XXx.=.j.F 4.Z.,X5.F $.:.L.]..X4.P d $.A.).",
"VXA.%.Z.L.L.Z._ | Z.=X'.Z.,X.X'.>X).B.q.l ] $.z l P z.|.5X5.z n.A.N.G n.} H Y.C.-Xm.d s ` j L s.j 5 I %.m.f z f 5 z 5 4 l Y._.| w =XC.5.<XZXZ.G q.[ B.] ] ^ A.).;.H _ _ 0 0 L =.K.F =.x.h.} C.C.k.| Y.I q z G q I 4 '.'.%.5.z d & & %.4.} 4.5.6.X.1.>X4.I q f j.n.;.=X1XC.n.H 4 n.'.G q P %.m.n.n.| 0 ` =.z G T $.'.T d =.I.} * o q ;XZ.q = = d & d P.x.F %.Z.S | j.d * 5 d 5 I 5 F :.$.F s s z j 4.j.` d j L f = 7 ] 4.G P 5 f f f 0 + * :.Y.| = T o 5 d 5 q | xXC.n.6.Z.A H A.$X[.K.L j < h *.f.m d F = A `.B.x.s 5 Y *.L u m x F Z.n.$.:.7 B.A.G P O.+ f n.6.5.%.0 f j.T +  .%.4 G 5.'.Y.n.G ).=Xk.[.N.V.yXA.P h 5 ` #.d d j m T.[.l a v d F ;.d 5 s T F F q %.Y.I z #.h.#.z J.} C.L._ z 5 5 d :.'.` $.I } C.&X`.rXI.P L q n.0XT.I F w (  .H l P l r N.;XN.$X>Xq.} P m i m F w q.F d m h T L G G I n.<X_ *  .%.%.k.k.0 P Y.k._ } 0 F %.5.;.G f T F f f C.6.0  .| u u f I F f j s h.4.` ] N.[.] = H 6._.6.A %.P + m T s =.=.1.=X:X[.| %.,X-X` o j m._ S V.6.F q 5.6.V ]  . .m.lXT.L P x I G z 0  .pXB.D r l q z n.4.1.L._ _ F %.$.} ..] =.c.C.k.q 5.=XZ.| ` h.i s. X4.` z | q.( H q f h.$.O.` j z I L.h.* '.qX] l =.4.} :.L.| 1.L.} 0 H _.",
"2. .I m.j.m.,XC.4.T z *.*.m.#.| A.).{ ^ q | :.$.4.z.:.} j.4.J.j._ ).Y._.<XF 5.T.-Xm.5 d ` $.` z 5 q L.<X,X5.| T d z 5.n.G %.4 F k.n.H A 4.Z.1. .H r `.!.V ( [.Z.T m 5 : I $.L.C.,XZ.L.} _ T h.z.L s |.J.L $.5 5 G %.%.n.N.L.z z h 5 $.x.:.j I G A _.6.0 l I z L.%.;.[.C.Y.A.G | 5.A H N.%.} $.C.Y.:.f ` K.5.x.m.T #.$.|.kX6X%.G A %..Xk.H l F : f #.d 5 L _ ] A *.h s d j..X;.w 6.q.6.'.x.T s : m.T.L P P : j s | J 8 S A } z I $.T 5.k.1._ 0 7 I m.` T s.h u d ` 4.} 5 n.G + G j.j.=.& d F h * * j 5 F = ] A.4.0 o d ; 5 : z ' *.P.%.F 5 ; * m.tX1.d 5 : * 5.V.| q = 5 d P 5.=X;.l _ | ;.] | _ H ] I A G | } 4 * : h s s s s s y ` [.[.+ : T } ;.G l d f k. Xq ;.'.Z.Y.Y.4.h L 6X'.G Z.j.: 5 h x 5 f j.| 5._ ).:X .4 P 5 F z _ L.$.L *._ ^ D ] _ D S 3.o.F.V.F.yX6.).,Xn.T.k.| G Y.j.d Y h m ` 5 I k.;.H  .e.H z : = I 5.f 8.] S 1.7 %.T f ` P F P d q q 0 I 1.F.k.> ` ).N. .| z ` m.L.P w N.A. .w D ] 6.A 6.N.m.&.5 5 j n.5.6.[..X| P F ` L ; u u z = q C.C.F =.0 N.;X1.D | k.C.:.5 m u ` J._ 4 7 2.[.6.G G j.#.z ;.;.=  .:.d j.j.| 0 ] ,X,XY.I 5.;.;.0 5 $.` : ` k.w %.N.V. .X.B.G z P =.x u u : =.P : 5 4.4.l f q l G & 0 G N.k.I.-.4 ..",
";.q f ` } } ].L.P m.:.m x 5 + f X.B.>X).q G f l  X4.q d d ` =.m.} _ N.6.=X5.} 5 T z d d _ G f s 5 ;.1.).| | 4.z T 4.T.qXI.:.l 5.6.I I l I q C.$XG [ `._.V.q.A.q s * + s d =.%._ H ] %.} ` F j.$.` m.m.} L 5 q q G Y.n.C.,XC.=.m m s T j.M s 4 G F.2.X.5.| l 4 _ I 7 w A.n.0 C.=X| = G k.} G $.:.K.` z _ T x.-X#.5 5 O.*.P z %.] [.xX` o w A.C.s m.=.: T z n.;X[.m.*.J.T.<XZ. .[ ~.3.B.<X;.L #.s * s * } I.P j : } 1.6.6.G } P =.=.].<XrX5.] _.H ] L.} #.j.` ` Y d j.f d _ l f 5 * 5 5 T 4.L.f x.x.0 + T 6.).4.] H F F $.z d | 0 0 L.5.` >.h * z A w z & 5 z ).;Xn.6.n.` m.I.'.C.A 0 ;.Z.f F _ l A & 7 } l & d z 5 z.` *.j.d h j X f ;.2.L.} L j.| l $.L.=.d } 0 G L.C.vX,X0 * L I 0 q 4.P 5 T :.z h 5 l f F 4.0XtX6.z *.J.` ;.L.} d d ' 6.3.1.Z.N.r 2.2.7 V e.>XrXk._ ` Z.C.H 4 0 z d y O.T T =.T I ;._ ] B.B._ z =.5.;.P f w K 1.k. .$.s x.,Xd = f G %.%.} G _ V...0 s 6. .A d : P P ` | %.7 e = ] 1.1...H N.%.j.O.z I j.j.I H 1.| } :.z u - X X Y T %.= 7 + f L d } Y.H H f 4.Y.P.#.Y O.=.#.5.:.F 4 1._.;.` j.' 5 N.| ] L.L s.O.j z z } | } 0 G k.$.d + z k.5.f P 0 f 2.F.).[  .q.] o L x.; s b j T P : =.,X4.'.].f 0 F } f =.[.Z.x.} z L.",
"A G l F ` ;.'.m.G ` #.Y T u h m.<XV.3.2.^ G :.f *.` G m.5.d z l 5.k.| '.G _ Z.;.G | z & P P 5 T f _ ] [ [ H = 5 z h z m.` j.:.5.| j.'._ I 4.A.] ] _ l ` j.} F F d q I F = D S 2.A 6.vXc.0 oXh.: T I f 0 G l H H l * ;.5.l l ;.P ` *.#.` h 5 f 5.;.2.).).6.0 | | 4.H A 1._ _ ;.1._ l C.n.f l f = f _ + z -X>.h * m h.h.L = 5.5.G B.5.F P  .{ l $.l.h =._ G k..X].:.P _ n.0X2X6.wX>X/.q.7 } } P *.s L - : =.4.$.G B.6.6.A.G P f } F 5.;Xf q 1.N.N.=Xn.q x m z 6 h z z 4 z d & d h s x h #.].1X| 6.uXn.n.c.uX_.| | 6.` ;.j.T q F 0 8 w ;X=XuX%.P } q _ 4 5 | } _ ].n.Z.n.l H _ q l z z | %.| l | G |  .Z.4.& z ;.& _ ]._ l  .A 1.'.I z  .V | 4.5 F 4.F I G F =.-X$.f k.] H G #.#.m & 0 T P d * z j.5.} G & + =.$.z ` P #.T m.z 0 | T.' d J.[.e.N.X.( V.>XV ,.B.F. .j.z d d F T P s * x i i N T s.z o = 0 G 1.F.:X_.} C.=.q L } | _ l } XXI.4.k.k.] ..c.P :.x.x.} f } } - o H | j.m s P K.I.n._ A 0 A w F l f f ` m.=.5 d P .X_.w = G 4 } '.} s - u L 5 G V.e.A S ..5 4 G r w A 0 5 :.K.#.5 u T T d f G I | _ %.$.T d d '.6.).G d $.: + + u P } $..XiX,Xf s L #.f _ ..f f w S 6.e.] ^ [ 4 4 I P u ; N < u l.l.:.=.$.P 4.= f :.-XT } ] f j d ` [.",
"N.f F I l Z.].C.F 5 f j P L T P q.3X3.S Y.<XC._ =.=.` *.z f #.z f I =.n.l 1.Z.] n.m.:.z P 0 * m.kXN.] w ] 2.F I m O.h m d z z F K.-Xk._ 6.;.A 7 A G = + F d G ] n.6.0X=XB.[.A._.[.%.'.L.$.I.#.j.5.N.H H A I Z.1XN.7 ]  .q n.n.4.m =.` z x 5 5.w r ,.r ;._ 4 G %.Z.n.1.H  .| l n. .| 1.F G _ 6.` T G F C.m.f d d #.:.#.s d 5.k.| _ I } C.6.N..XT u l.$.l C.Y.G l 7 F & ] 6.A ,.F.$X&X .A } ` z ` h Y P j 0 '.7X6.A.:X1.1.Y._ 0 j T '.Z.A G 5.l I n.z & >.E.f.#.z = 5 ` d & + 5 |.m.5 #.T.` ;.%.4 _ | 5.I n.5.Z.5...] I } 4 q 6.n.[.] _ ).2XN.k.C.7X1X_ k.C._ F } q 5.H w <X).z 5 x.7Xk.4.n.F '.C.qX'.Z. .l | |  ._ [ A e._. .3.5.4.iXA.1.tX'.I :.k._ F q = P | * = H f } qXz.T =.4.] ` L & u z.>.z G | l d *.d 5 * s m O.` z G 1.| T s d 1.2.2.] ,.tX;XX.F.;X| :.M h *.} l :.#.z x @.Q N M U :.%.=.Y.N.} S q.1.] G 7 Z Z #.m.h.| 0 F $.I ;.] 1.4.} } m.K.` '.].T d ` 5 * 5.Y.h.g Y P z _ %.f 7 %.'.F 5 0 T I j.:.j.F : =.N.G S F.1XiX| G P 0 & x.oX} H 1.3.9 { 6.:.*.H 5.Z.;.0 *.Y.j.x * x z T L 5 n.5.;.I ;.#.d x.%.T I T 5 f :.L * m T #.Y j } Y.] q #.I.J.4.Z.4.5 : + 4.yXnXB.S 7 2.Y.C.=.L ; U s.G.&.M s s P & 0 f s =.T.F P ] w f : l =.",
";XA n.5.I F } 1XrX%.& >.P.;.Y.| [ `.`.3.B.N.G H l } ].m.T _ z 5 5 z 5 f =X_.[. .H %.6XL.` d ` ` $.N.A.%XV.2.C.` O.T i h 5 5 z T.oX;.} C.=XC.r 4 7 q.;X6.l Y.q.%._ 6.L.5.P.=.$.P =.d =.6XZ.P P f 6X,Xq s ` 0 G '.'.G _  .G n.A.m.z z 5.f 4.K..XH 8 V D N.] 4 = l 0 4 | A l w l ;.6.I | H f 4 | %.I } | 4.].'.I 4 ` *.:.:.: z f d T Z.;XG I 4.4.z x.XXs P .Xn.G l  .wXe.S 6. .] _ 2Xq.X.F.5.4.%.].} 5 } f s f T F 5.,XA H C.} d d f 4.F ] | l f ` z * d d ` l Z.-X;.l ;.k.;.l q Y.P.= P f 4 d = = H I 0 0 I = ;.'.j.f I ] ^ n.H q n.f d f ] ).<XC.pX0X| T.m.H ] 2.;.[.Y.F C.n.l q | 7X} 4.<X| G l H  .Z._.2X`.o.F.4 4 w 5.] w ] 2.G _.N.1.).5. .N.n.;.| P f f * F } 4.7X=.T.h.s  XV. .:.s u u m L d d J.4.d } %.0 x G.T v ; m.=XC.F z ` + q.$X1.D N.).H 4 4 d F d y h 5.N.S [ %.5 - y N Q v j T } } T.Y.1.w w 1.,.^ ( { 1.` Y z j } H _ G 0 & 0 0 0 f 5.$.Z.%.G P F 0 I l D ;X|.; j L 0 f 7 7 w %.L.6.H _ | 4..XY.C.* f k.C. .3.[.1X;XG A C.$.= * s F q 1.6.9 A  ._ F 5.=XZ.4.0 ` I.$.L z *.s.j Y ` #.$._ n.} z z H H z & * q | ).J.j h h s.g @ h 5.L.m.s + 4.[.%.} ` m u l Y.k._ H w n.c.F 5 & u g N W i g Y s & F =.F d #.=.f n.nXF.H } f q ",
"4  .6.z l I k.<X0XT.:.:.f 0 n.N.A.6. .2.[.1.^ S G G } m.j.l 5.j.j.= F  X=XI 5.G f f _ $.P P >.F G %.A.[.N.S C.#.i - u ; s C.=.m.j.| T 5.'.'.;.7 ] ;X_.A.F.[.6.1.4.| K.m.d $.P 5 P d f .XL.I.z : z * & * d ` T ;.k.} ;. .r l l } d P ,X,X$.6XL.6._.$X;X).1.G 5.).n.5.1XC._ 5.5.;.;.w 5.n.l f ;._ ] | q 4 Z.). .= G f s 5 z d & = q }  .G 4.f _ =.| =.j.x.x.4 f <XrXvX_.w N.1._ ;.rXY.;.Y.A.G )..X} 0 =.T.x.: T 4.` = f q F 0 * =.$.I ;.%.l 4 d d d * L ` $.| '.uXY.H 0 n.iX4.| _ _ _ q } ].%.0 } | H I G l 0 A F m.%. . .6.6.l d f 0 L s  .N.| H _.6.4 G ` l ^ N.H | I = 5 F d I 5.q l _ L.G _ 6.= H %.;.$XnXV.7 ] A | C.| B.N.N. .1.;.| ] * G Y.k.F l * F %.f ] Y.L.j.P * F f %.^ D f j h P X P L d z F l I G q s P d.m x $.j.5.F } #.P A.X.D A 7 ).;XG l q 5 m m u f A.A.Y.k.#.O.@ @ # ; 5 0 0 } C.Z.Z.A.S _.tX2X .A.rXL - : + 0 I Y.4.: = & * %.L.L.4.| 1.q F P G %.D =  .F : 5 0 F c.%.l A G G ] ).B.%.2.k.n.I = | 1.N.N.6.N.e.J 6.B.B.1.q n.I G l 6.[ 5...I l q } 5.} 5.' 5 P z.I.#.* P Y s.h s 5 G G = * ` Y.I * x u z %.N.$.z T P.#.u O.m.L.L.` - + : %.I } p.a m } F z q C.1.| } $.h.5 : g < + < j l.` z 5.Z.=.z o : s I.[. .Z.;...4.",
"q 5.;.5.G I G G h a h 5 I ;.G D ^ D q.;.q.3.1X2X_.| * I T $.K.5.I ` C.Y.H F 5.} I P | ` | $.z L 5 q ] [ ^ | } z h y &.u * :.$.5 _ d z d I _ l G | } l x.-XY.q A ;.5 : P 4.[.5.k._.Z.Z.C.-XXXP z & d s 5 d ` m.C.l | 1.| 6.[.6.+ f I G 5.q $.n._ q.] q.q.F.:XN.} } ].'.| %.5.=X'._ _ ;.Y.4.:.=X1X=X[.A.Y.G q 7 ;.m 5 5 z L ' J.} _ | ^  .] n.5.4.5 4 T $.h.l q Y.C.L.=.* & ` 4.=.%.` G f l l ` %.` 0 5 j.j.` -XP.5 5 l G 4.4.} _  X<X1X5.q f f L z.d 5 =XI.0 f C.w G 0 q f l G Z.=X6.= z k.| d } ]._ f I q x.8X| ` n.A.2.{ B.| P 5.0 ` =.| 2._ 5.q.H ] F $.l 0 l [ Y.=Xn.P d = } n.} ;.} l l I %.l ` z d F Y.vX;X| l I ] ;.F.1X[ S w _ 0XZ._ H ;.| f l F 5 >.T z 4 ;.G f F ;.G S J 0 f ` d #.I T ` z.P = 7 H 0 l _ + j m * ` |.$.' m..XC.4.] H } F l _ 5.%.z d :.:.+.u W.8X` I 5.j.z : s ` f C.%.} C.n.A.'._ } Z.%.5 0 P } q z 0 = = h Y O.+ s -XT.} Z.6.] L.n.& 5 0 F.V.H F.I } T k.4.4.L.%.G ;._ A B.1.A._._ F G z 6.l 4 G k.G 0 J  .6.N.B.G 4.x.'.| [.N. .l q ` f G 4.=X5.` d d T P.6X` : L h - L T | G F L s L.5.` :.d #.K.} ; X j.uXJ.d $.:.4 4 * 5 : * * q z L - + j T #.f f G 0 } } j.z : x L 5 d ` j.Z.D D n.<Xz.* * + *.` 0 F _ k._ ",
";.Z.;.H n.Y.;.L N n h 5 x.1X6.6.B.2.1.r D r 1.B. ._ _ & 4 } ].I & z :.m.%.6.k.0 P ` f 5 G l P d 5 | qXC.Z.n.` h + 5 Y 5 d 5 0 G *.d ` I P 5 #.m.C.4.:.5 Y =.%.4.G z : d | n.| ] k.B.Z.k.=.f & 5 j #.z * L G G | ;.k.Z.H ).xX<X| f z H w = 5 z 5 ^ ,.A.N.n.$X .4 l ;.f } G G $.d } } k.'.z 5 | C.=X).).5.rXtX2.Z.` P :.` ` G.XXP | 5.A.F.| L.].).n.| 6.I w 4.Y.G d P L > z .X6.;.l | L.| q G | 4.l ` :.j.I.>.5 5 : m P n.l l I f P ].rXF.<X;.5 j.m.P 0 m.} _ 4.F w Y.k.d + 0 I 2Xn.l $.` } } 4 ` I 0 H _ P x.].H 5.;. .V 7 S F | 0XZ.: 5 | ).j.m.B.[._.H q } Z.].5.%.Y.'.$.0 G %.5.5.5.| 5.I * $.0Xz.F } 0 ] 2X6.w G N.^ A 6.X.).).q.Z.| 4.n.;.l * 4 G f f j.4.q &  .C.4.4.F 6.[ ] P } = s } P C. X:.5 =.A.5.f l _ I.G : 5 s : y =.#.:.| F q f I 4.C.F f T z P 0 z z - +.T d z 4.H l l Z.I f 7X-Xs $.5.$.` f o & z 5 * :.h.q F 4.6.=.u ; i < O.E.=.z | f [ %.%.[ 0 f 6.6.A B.L.[.6.[.'.L.=X| o w q l 6._ n.[.I 5.n.I l & _ _ I f I _ N.).;Xk.N.} 4.L.f F ] w q P :.z f q l ;.P + 5 5 ` 5.5.$.T - - #.;.k.l K.P.L ` F L P d } Z.:.s s.4.$.m s * 0 l G d z = f } C.-.oXx.P z =.d = o q q I :.C.} s j.'.I * q | n.1.S ).6XP + ; s h j = z m.%.q ",
"H ).C.0 ].L.| d h m m I :.5.N.N._.A.F.A.q.] 0 ] } G %.} _ I .XY._ = =.:.4 F l ;.x.$.I f q 0 ` d ` j.G f } j.` z * z :.G | ;.G ` 5 h O.M m i j.m.` ` j 5 5 d L.;X6.%.} 5 = w q & I C.| F ` 0 f } f j.T q d $.I l ;.4.A.4.C.1X4.'.L T %.=.P 5 j ' N.$X;X>Xq.X.1.Y.].5.4 4 4 f + 5 I z ` I h *.=.l %.} l H  .[.;X_ f z d 5 h U =.P h z w 5.B.N.).;XwXq.).A.[ A.pX| F F I | n.`.`.yX&X,.;X6._ 2X;X1.H ;.I T K.T.P.x.P z m.$.= 4 4 l f 4._.6.A. .G G l q & G G n.'.H } k.z =.O.$.5.0X'.4.j.| d G T _ ] G S  .x.P _ | [.N.e  .] H N._.6.l z & L.L.4 q w S  .1.f | n.P.` z z ` ` k.[.=X6.} 5.F F l _ | $.z G  .Y.1.| q 7 D  .A G | n.N.pXFXiX%.| C.w f I q q 5 q 5.C.;.Y. .w  .7 F ` #.z - + j #.z + } m.q * z %.H l I %.4.l f s L i - m * X & T f d F *.:.j.} f l * 4 2.D 4 T I.f q 7 F.~.{ ] H ] l $.P g - # g g ; y s m :.Z.& * H A 4.:.z.U @ < v b O.u i : T ..6.%X .A %.} ] _.k.V.6.G = 5..X..H I 4.$.d 5 O.` 5 F f l l F } _ = q ` C.Y.6.1.k.6.d s h.z = P =.:.` 5 5 | | _ z _  Xj.f _ G %.N.` =.F f q w q h.j u s 0 q :.z d } L.%.K.Y.I u ; z } n.` f z z =.} P j. X,X'.L =.F = 4 L.<XC.=.4.d l P 4 S 6.l 4 F P F  XO.; y z ` ;.;X6.| =.l T ",
"A l w 4 G _ =.5 z Y z T f | [._.X.2.`.$X<X} l G ;.].C.4._ 5.<X<X5.I n.n.P %.]..XI =.z = P | n.=.I C.m.5 | $.z =.n.4 G F G ;.<XT.d L h h + 5 z z ` =.d d h T _ n.[ 7 d x.4.5.$.j T  XmX=XC.$.8X.X} 5.} Y.n.$.4 I Y.0XuX=X4 G :.f 5 ` j.5.` & h j.Z.B. .B.N.[ ).Y.1X'.I l n.$.d #.u * z u h Y m d A A H A 0 4 6.=X:.%.x.:.s ; ; ; * 5 H k.A.q r 6.~. . .] A D N.G l s G 5.rX).V.fX>X) V.;XN.6.[.l _ G l :.j.P.x.L s $.m.` q 5..X].h.T Y.q.] F. .= _ } q f T ` 5.n._ 4 & I z d I H f f F d l Y.C.K.H G | G f F %.5.[.Y.D 3.V.A.tXG 4 4 d 5 T =X_ q  ._.N.q H 5 = f d L $.z ` 1._.[.;.] 5.6.0 l } d & u n.<X;XrXZ.l q. .8 = _ =XI.G 6.<XrXI f l %.Y.uXT.C.j.T  Xm.G B.[ 2._. .F -.$.#.u j Y T } ;.;.F %.T + _ A.C.l z | | $.m.s x h m ` f d #.T ` 5.I q _ | %.f + 5.sX,.& l I.J.Y._.r 3._.).Z.%.F P I.p.1 n - v U < Y ` } G f f 2.1.s m m h u ; @ u &.N , v + T 2.^ 3.A.'.6Xz 4.6.1.6.w ..L.k.6.C.4.0XlXx s 5 =.$.l | Z.n.C.;.l $.z } 4. .).2.1.G & : L d ` j =.$.5 0 P .X.X%.l F ' j.4.N.1X`.6.} m.k.MXN.A w d : h h $..X X} 0 0 | 5.I P d 5 L :.j.K.f f f :.:.f ` I.4.K.T T } T I 0 Z.'.I l z :.| 4 A [ 1.1.P j.m J.T.s h ` P z B.6.B.] _ =.:.",
"C.4 q G l G ;.} :.` f F f 5.n.1.N.N.5.l _ z l z A } f } =Xn.G 5.` l ` } z d 5.=.l } q I | _ %.Z.P $.:.5 ' I.x.f _ w F | Y.].Z.F q z J.j.` ` l x.].].j.z d I f H 6.] I J.6.;.z 5 P m.'.L.%.'.[.| q Z.,X| | } } Y.I.K.:.F F F z : s d j.C.$.z 5 h } 1.A [ ] ). .| n.] l w 5.4.0 ` h : o & - ; s T ` f F 0 G l ;.4._ x.=Xs.h h y 5 H 1.1.Y.1.l 0 q X.H w [ V.3.B.V.]  .1.A 1.B. .4.6.B. .A.%.F Z.l o & G _ =.d h ` x : L P q l 1.5.m F | 1X$XF. .6.Z.j.j.5 4 ` } q F G d j #.j._ ;.k.0 z | | x.m.| H A N.H & T ] & f G 3.3.t.>X5.5 z 5 4 4.Z.P f 4 2.~. .G G z P.x.L d ` T.G G n.q.A.;.w Y.Z._ I z x x f D 1XtXn.l 1.D 3.[.;X} 5 l = _ | l 0 | k.C.m.:.;.F I $.q  .l H 3.V.).X d Y ` o Y j.:.| N.| l F P :.%..X4.` h j u P x.I ;.5.5.'.n.4 4.,X| 0 | L.;.l q 4 | n.e.e.5.j.` J..Xm.+ 5 =.j.k.5.%.[.L.&.Q p T T s m z 5 : s =X$XF | : 5 : Y s - g g h Y g u u s  .{ V.rX,Xx.P } Z.N.2.7 A.)._ } H 8 6.Y.L.j.d ].N.1.n.] } ;.n.iXlXf 0 f Z.tXX.G c.0 j Y j T :.T P T f =.Z.k.$.T d 5 d } 1.).A._ L.T L.<XL.1.G q *.g #.:.'.:.$.z q $.-X5.| k.5. XO.M j.T F 5 _ l | 4.} $.%._ f l f 5.;.I L.} = $.,X;. .2XC.l * 5 T x.L.;.` &.j.P ` 0 6.6.,.:XL ; ",
"_ F I Y.1XC.rX.Xn.| _ %._ L.Y.).B.G Y.L.q z z G G _ Z.Z.I = 4 n.=Xn.;.q %.` F 0 ;.:.F 5.| = q z _ f } d 5 z f w q ] 6.'.j.>.$.* d :.4.$.j.Y.| } n.:.T.*.s I L.Z._.MX4.x._ G I * z d & 5 I ..w B.1.A H l ;.%.| 5.G k.5.f :.z X * 5 & I L.C.=.5 I %.A _ X.;.1.H l _ | F } L.l 4 ` z ' Y.>.M h 5 m.l q $.` x.=.5 5 :.L L d z j 5 T q.1.1.1.} G I w ] 0X[.pXvX;X5.6.%.'.Z.6.].<X} 0 G A C...4 l q I F 0 I :.* f jXjXm s d T :.C.6.G j.>.Z.F.).6.A.C.I G =.;.z _ _ f 4.5.F ` T.'.C.N.C.%.j.n.;.5.Z.Z.K.k.N.A 0 I I l f C.3./.aX,.4 #.` d | 5.:.f I N.N.^ H ;.G l m.z $.` l F l l F ] ] q G Z.qX<X} z h m >.%.r D ] 4 8 2.2XrX;X%.} I l 5.l 4._ q 0 6.4.k.` :.C.d G _ w 1.B.A...k.k.l d 4.5.G | n.1.I I G d #.q l G x u y #.j.4 l 5.;.^  .Z.5.7 l q H 4 I n.Z.;.f T l A ).} ` : h 5.0 : P x d q f  .A.f 0 j O.m.h.= z =.j u z <Xq.* | h.` '.].| 5 ; u m h h : j L.F.(  .H 0 d %.| 1.N.7 7 = %.n.| w 4 D 2.1.k.n.5.H 6.= F m.x.$.;.` d 0 l N.:X1X).} & C.mXK.} z z s =.$.G = q j.:.I f $.} f A ] 0 P : 0 F H [ _ G J.Y 4.I.T 0 5 l T  XoXT.Z.C.5.%.x - f F P d 4.=.l H | C.%.6. .f | A F _ L.k.P $.,Xk.D 6.l 5 5 L Z.'.L.;.m U +.#.4.4 q ] F.'.s j ",
"| 6.H | C.G N.Z.Y.A.H | H 4.;.'.=XF 5.5.d | _ | _ ;.4.| = l | I L.6Xj.} :.F l 4.[.<X| F d d L.,X'.n.` z z z F _ n.]._ 5 5 m m 5 u 5 : x P :.` 0 ` } #.s s F 4.0 0 c.I z A.7XG f j u : F ..w H ;X[. .* _ N.C.;.0 = 0 z G f s m x d * F =X7X:.: ;._.6.1. .[ 6.rX;XC..Xx.%.0 d =.#.L I A.lXJ.5 j.4.= q q :.m.' ` T z P O.s Y J.d >.N._ | 1._ l ;.] | | q _ ..0 F 5 * L d ` j.N.} w I | '...q 5.L.x.=.` 4.C.d f m.j.s h T h.Z.C.%.N.=XZ.V.[ S 4 f d ` ` G 4.k.;.| 0 $.5.| *.K.| _ _ 0 '.<X$.F } F | } N.vX6.= =.1.1.I A.3.,.8.D G | z ` .XZ.z f ` _.`.`.tXtXZ.I 0 0 .XqX=Xf } j.P q l q %.;.Z.;.G F 4 & 5 j.I ;.;X).| G | L.4.] ;.] ] _ 0 0 C.7X5.k.1X;.T x.:.` :.4.1.4.L.] n.[.1.A N.DXbX_.[.>XV.1.1X].j.* n.Y.Y.>.z Y -X4.4 4 I H G 5.C.;.0 l l I %.} _ <X-X<X:.0 5 s m i u ` m.Z.5.qX=XY...A A = + 5 ;.=XP.#.s : =.z s z '.;.l H 5.;.).6.N...5 z d d | k.1._.A l ).k.k.1X1XA.H w l _ 0 j.C.x.$.G l q G n.pX5.& = I $.G } 0 F } } f 7 [ V.`.w w T ` Y..X=XG =.} :.} f l l | F } P P * f T k.$.z ; : d I | ] ] f & T P d 0 j.4.5 T 5.} P L f H x.` 5 4 | 0XL.G _ ;.;.1.%.6.H J 6.] & 0 T h.$.*. Xj.F q q $.5.N.qX$.5 u j s m j.=X3.).;Xn.f f $.",
"L.C.I ;.H ;.] G 1.6. .C.6.].4.4.} 0 5 0 _ l 4 2.n.N.n.} q 1.Z.& C.1.} _ >.f l | 1.).` d s z ` ;.Z.,X X>.J.Y.=X5.H %.4 ` j.m s & z T m.z * 5 $.P 5.Y.Z.l d F H 7 4 f j 5 f A & $.T O.J.x._ w [ ) V.6. .5.Z.5.;.l 0 %.n.%.d ` ' z Y f 5 =.n.:.I = F r * | _.[.n.C._ ` $.>.5 s ` ` z z ;.Y.F j m.G G 0 = j.m.` ` L u *.Y j T.'.0 4 w H ;.5.4 G %.].qX:.* ` T 0 ` :.L T h u =.0 z q $.| k.q & k.I f } G f = 5 $.5 f + l I. X=.I 0 L.6. .X.D w 5.=.` *.q I 6.].] %.4.5.f l P 5 F T.Y.4.;.G = q f | } + & 6.N.] 4...6.C.J V.B.V.V.l 4.I 4 ].;.F =.5.L. .Y.[.n.'.-Xm.F | pXrX%.f #.j.5.qXn.;.| 5.;.^ A.] _ I s T ` X.^ G l 4 | Y.G r 2.X.* * 4 C.m.G G 5.] F : T ` } %.5 l %.P f H ^ 2.( F.`.$X>XD l q } m.` I %.].:.$.` d 0 P T P :.} 0 $.G z 5 5 + l $.z f I G 7X'.l 5 * 5 v U h.J.oXC.1.] N.4.5.1.I * -.;XL.f j :.T.J.d 0 k.m.F ] q.[.L.1.,.B.1.L.T x.] w ] w e A ..] 7 G 1XA.] k.).} f 0 0 =.| :.C.d 4 }  .1.;.l & P $.| $.$.| Z.m.]. .2.[.2.S ] 4.q I ).| } I F z G l I n.'.=.= s L :.` h.XXE.#.O.u $.'.N.].k.I F z T k.6X].=.j.$.& h M d l Y.rXk._ z f :.4.q I } I I _ 1.A 6.[.>XG q f T $.d F j.} G 5.:.L._ %.j.O.h m m d f [ ).1X6.0 P '.,X",
"G L.6.f q 1.A.2X[.6.6.).A [ 1.G H } G ..4.Z.] 6..XmXK.q  .| | A.A.,.] n.T h _ | <X).C.z d 5 z ` w _ $.I ` } ;.F f G } =.z 5 I.1.Z.sXA.l q G h.4.~.e.) V.tXN.[ | Z.oX#.z ]  .] T u m h L k.Z.B.3.3.1X1X] H G n.| f ;.;.F d z :.L z d 5 _ L.6X:.=.5.w 4 ).A. .A.Y.z f z z m u d O.5 z n.l : x ` } k.'.=.I.-X$.j z P * * + 5 F l + | 4.F G * ; d ` $.L F T 5 I 5.Z.C.` h P G.P ; h h *.d L d l F I %._ } } 5 j.l I ] S F 0 F j.T I l A %.l N.[.} J.*.* F 1.1.H } $.f f  Xj.& m._ I N.I :.F f | C.-.L q G  .| J H %. .H r  .).rX5.f 4 f Z.F $.I.$.l T f F z *.>.$.d 4 ).A.F s u x ` q.F.D 2.)._.F. .H } j.: : P H 2.6.H = ;.%.G 2.F.w _ Y.'.j.*.$.o H 2.l d 5 z j.| * I 5.| | _ l l I ;.$.G ;.B.4 w F d 5 >.=.j.F 5 n.l 5 m.qX Xn.l q T.4.l P 5 f * 5 d 0 ` * I _.;X} o + z m h.$.: s u #.} 6.6.X.N.5.} 4.z L T._.q.m.` q %.;.).Z.;XmXiXx.G } x.| =.5.f & & F [ `.B...'.1.2.N.q G %._ m.z d h 6 z f = | ] ^ 1.].I f _ F d 5.<X].I l ,XN.[  .A.~.H I l 4.G L.n.` 5 * = } _ A.} I d P Y O.h O.j.L Y L z L ` } Z.n.F I f ` | 4.k.| -XI.P 5 #.T & f f T.C.x.6X:.* l F q | j.5. .5.] q.1.] G I h j j.$.8X;.f ` d s T z L x h L 5 *.;. .L.1.f %.=.I h.",
"4 F I _ H r A.q.5.6.] D l  .A._.V.[.1.).[.6.N.;X).n.F f 1.A.;.;X&X3.q.%.L L G  ._.$X} s :.x z ` $.G f T ` d z } P ` ;.5.k.5.n.V.B.%X] [.n.z P _ /.^.V.`.>X:X..] Y.,XG.T N._.N.P L *.&.T '. .r.wXB.B._.N.%.| 5.F ;.k.| ].T.I F d d z q z ;.| d =.` 4 * ^ q.| G >.` L z T m h #.I d $.P = 5 u ` n.;.n.j.4.m.P s j.:.T :.z.$. X%.q P _ 5 * m h 5 + h *.G I z 4 ] w T.:.f T & X y v h M j.T.0 5._.Z.;.| 4.T q 1.k. .}.>Xc.* =.I.XX8X} & * d 5.I f d $.I I 4.6.;.I q & 5 m.$.z } f 4.'.uXuXf q j.d P T P ] B.1.5.5.F 0 4.] J 1.] ] k.5.;.F 5 4.k.I z I : & d L j s j ` d H x.T.T + + q.V.) ) B.fX>Xr 6.G j x 5 I n._ 1.5.= l f %.n.Z._ ,X7XL.} K. X=.6.[.C.=.0 F C.oXx.z f f '.| ' $.j.Y U 5 n.Y.f d 5 z *.I d ` n.d ` 5.oXx.T G l = _ P & %.C.| j.5 T ` $.` } k.L.=X%.n.:.=.:.} -.s + < =.x.G q B.1X~.8 d T d Z.;.S ;.G l ;.Y.6.G _ | 4..X=.f F G '.;.= = 0 %.B.`.~.N.L.] H ] w q.qXZ.} h h 6 o P _ 5.n.q A .XY.I %.C.5.F 6.=.Z.%.T k.5. . .`.V.).I & 0 } L.z ` h.5 d _ x.;.G :.} s j s < & * + P *.j s : f } L.G P ' z l G Y.5.4.C.x.f ` P * $.T.T j j.-X$.d T } T ` z $.Y.iX5.r ;.5.` O.:.P L _ %. .H I ; - z.|.X m P.l.T z z m.L.c.G Z.I 4 s ",
"G l _ %._ 1.1.] H q 2.k.pX .w 5.N.2.7 | ] Z.2.2.H F d z | Z.} | !.( 4.:.P 4 q _ q.I z ` L d 4.K.T I $.:.I 5 u :.` } |  .rXtXl _ 2. .6.A.G *.` & w ;XB.J A ,XC.: F P d d 1.).x.z T L Y L 4.G  .%XV.1.>X,XY.:.` 0 C.| N.lXI._ d ` 5.z ;.| F z $.:.$.| q = r G & d #.L h s.m.Y d z ` *.` * & 4.%.G %.q ;.I I z + : F =.qXuXL.4.` f + h m I 6._ j L d C.Z.S H n.2X[ = | 6.2.C.I s + + z =.I 0 G X.F 5 L d l l  .]  .1.,X X< < m #.J.#.5 u P n.6._ 4 G =.$.4.4.f 4.1.[ _ h * m ` ] H G } A = f f } T k.l l  .I 5.P : d z = 7 | 0 s $.T 5 } z.q w 0 5 ' I I.5.l *.:.` T O.z >.P.m = q | N.D.{ ) 3.[ 4 * d h m u m *.s d q 5 P $.q 4 T 5 z m.=.G w w 1.N.k.N.0 = P L.|.P } f f I f ' T m s M x z.z d x 5 z L C.#.q ' L * z m.=.5 0 d z f z d $.;.4 d z m.j.f l 4.C._ ;.F z 0 4..Xf f s u + Y |.G n.).A.D 8 k.k.P ;.G ;.;.q G N.5.| L.k.: F ..] Z.6.T =.P | G ] N.1X;XS G w H 7 = w [ 5.,X,Xs i u d 5 l n.=X . .rXH l n..X6.%.| f I F =.%.= J 1.,.S 0 ..I w '.x.0 T m : P & d 0 = $.h.j u h j Y ` ` #.T =.x.$.} l d _ x.#.` 5.] G q _ ` :.} z =.j.I.5XT.* s : : O.s s O.P + * d :._ l | G 0 5 O.d > = G 7 f j h g G.#.z ,X6XI.P P Y O.:.4.} K.E 1.).",
"8X| ` n.;.[.2.| Z.A _ ;.).6.| Z.).k.H %.N.;XZ.N.C.} d : } l G G B.F.d d %.n. .1.w n.=X0X=.5 4.I.#.P s.m * 5 5 T ' $.6.B.n.).] | H Y..X` 4 z f :.} F 6.} F L.: * F j.$.x.N.L.T s L m P 5 F n.1. .2.S q.| :.d 4 q 4 _ Y.Z.$.0 *.*.= 5 5.:.` 5.` ` 5.F Z.A.n.'.$.I |.h.z x.z.T 5 T L.F & * w Z.pX X_ ` } ` G f T 0 l I Y.} f G ;.P + y v h  .;.5 z d n.Y.} = 1.;X2X_ P N.N.4.j.` m Y I '.I l | A.%.5 s z $.l S e.NXn.: g g b U u =.=.d h 5 _ ] 1.%.x.I z =.0 + $.Z.N.rXO.i i Y A N.Z.P ..%.F G '.8XC.G ..l F j L L s.s F ;.k.f z oX Xl x.T.A S z 5 f ` T.x.& 5 F d ; u d z h : n.F.7 n.~.%Xr.1.l = l * 5 x 5 P m *.T.5 P.iXT.P h s y j 5 j.<XC.I C.k.] uXN.A b.iX-.5 * P 4.l 5 f * * ` +.y #.d s 6 s O.L :.L T 5 I I L & L z f P _ ` G I _ } d :.T d L l 0 I 7 4.'.T d = T } %.K.=.5 j 5 o = | Y.>X] _ F I ;.4.| _ _ H 6.Z.G Z.0X'.#.I = ] _.2.q 5 z Y._.X.).B.V.f 7 I ] A ]  .H G | } #.h 6 ' :.;.1.F.5.1.xX6.7  .6._ q 0 q f 0 } } G ,.nXrXH G N.C.4.H f z } h s m j.:.P = z #.h + m.T %.x.oXJ.s z |.x.L 4.=.m.*.5 = F [.4.q 0 z $.#.F T } ` P.l.s j u z.z.v y L P L $.h L & j.,XC.=.d m L P ` f  .] 5 s m : s XX5.C.=.* x *.+.g Y T E E {..X",
"J.*.:.k.N.6.6.1.[ H = H k.| ] 4.C.k.I } I } Y.k.=.I.P * n.Y.Z.Z.).Y.& : %.B.F.)._ $.].0XZ.T.:.* =.=.` Y s d 5 P $.I ;.m.f 4  .2.[ H T F x + z ` f C.x.` j m u j } Z.:.K.uXZ.x.#.s ` =.` Y.'.6.] q.;X0Xk.` } 0 0 4 N.;XN.} = z T.$.d l l f l m. XT.5.A.2XZ.5.=.f ` $.x.-X:.& + q 5.,X0 f A.B.L.,Xj.L *.j. X.XI P 6.G 0 6.C.w 0 = j.m.X < =.G H T d m s d ;.G ;.iXx.+ z ;.5 : h N Y L >.` 5.rX<XZ.d + z j.[.[.V.3.F o W U m - = I Z.Y.P d G l f 5 z : h ` Y u s $.2._ :.@.v s ;._.Z.F 0 k.4.f _ .X5.G m.h.j *.m h M z '.L.l F s 4XxXoX:.P 1._.=.l f 4.:.Y.%.5.4.` F H | N.Y.r 3.e.o.1.n.k.I H X.).4.: f * * z #.j.O.T } %.q d * u *.T + l Z.n.N.=XF } vXyX,.B.L.f s s =.7X].4.} d d Y &.+ G z 5 ' L x ' >.0 f q ` 4.l F <X,X5.Y.;._ G F '.C.m.].$.' T *.l 0 I '.x.j : s x.m.%.Y.T = j * 5 G l k..X6.l q A Y.[._ G | G l q _ 6.l f d f F .. .| f I q | [.6.6.H %.;.l %...;._ A.Y.[.].4.R.:.x T.Y.6.2._ ^  .<X5.| _ G .X'.G L.c.G G G e ( ~.,.H 6.6.] l w k.4.d z Y U XXqXT.z j u u C.k.1.,X=.O.P + d =.` F  X:.` 5 j } | ] G %.0 z d j T d & =.j.$.s : - h i y U s L m.:.T m 5 d T :.:.m m m 5 P _ 6.5.` : - - s P F G F 0 * s ; < : %.} Z T I ",
"I I ;.}  .Z.[.;X).[ & ;.].6.F G _ =.$.F = q I f q =.m.` _ 5.} j.] 0 5 * | _.$XA.f 5 G k.4.| ` x.' ` oXT.5 5 z Z.Y.} q ` C.m.=Xq.w & 0 L 5 h O.L L -Xc.z d s + h I.| & } 7 = l ` P $.5.k..._ q q | 6.| %.4 P l I G Y.4.G f f q $.=.} I Y.Y.T. XG 5 * 0 | A.f = z f =.m.G 5.P ;.= G 4.0 A X. .A I d z I >.m.G l 5.).;X .5.1.w w = T  X@.s.*.f I } *.; - XX.XH f q 0 G G 5 ; - ; i s.s 5 ` T ` %.C.z * L m.Z. .C e * : Y #.: * F 1.2.Y.| P _ I *.h.#.Y m + y U *.f l 4 5 x 5 + N.1X,Xc.Z.5.G l G :.=.z x.O.y l.=.#.z h.L.4.H F d I $.} Y f H C.T $.%._ 6.,XN.,X'.1.N.2.V.>XY.4 * #X,.H C.* f K.6.5.=.6X,X6.1.5.].d ` T.n.= F I * * s z ` q } H I w f F N.).A Y.5.T L h F :.].:.5 I A.].m.z l _.Z.:.m.d L _ :.n.f z n.C.} ] 1.n.Z.%._ ].n.Y.=X5.$.5.d j.C.G = F 1.l f = P T.'.:.4.T =.=.d ` :.l F F 0 0 A  .[.;XC._ ;.4 ] 5.=X1.G I f T l F N.%.P ).] [ ( J J l ] | } Z._ w 0 H | ] 2.6.P.:.* %.6.$Xn.] _ q.Y.n. .7 C.lXC.q x.5.P j.f H 6.3.V.).N.A._.] 1.;XH q s l.h s j.%.q 5 j :.V.,.K ..f : & : : ` T F F I j.z 5 T.L.G 6.6.` =.T 0 5 z P } zXj.s T + ; h * s : ;.j.z P z 5 & * } ` z + L m %.%. .C.h.s ; < s I | l x.x.m x u s Z k.8XR f F ",
"f P 5.Z.=XY.A.N.Z.A 1.Z.k.| 5.F } '.'.T + F F I 4.j.T.} C.=X| f q f l P P _ e.6.:.P G 6._.<XN.` l 4.J.$.I d l :.} ;.} ` .Xn.4._ T l I ' ` :.s.Y I 6.4.} q P L s P T z z 1.D q =.` d 4 f | l : P A [ ;.4 f P l } _.Z.w 4 _ ;.q $.n.;.;.5.| .XT.` F P | | [.] :.Y.n.C.7X;.G j.Y.%.$.;.V.$Xq.Y.A.l z *.P d q q G | H H A.G * [ D 7 0 ` '.T.; m s m } z ; j.F.6.H | ^ 3.G s O.s f 5 L h v +.5 d f 5 d m.j.l q = w f P I s 0 s ;.;XwXZ.4 T F } n.| =.T.x - y g h & = f F T ' z q 4.|  XL.'.F | k.f 0 * h i - ; h C.n.4..X1.B.pX[.F 4.q 5 Y z f 1.} P _ G ;.| 0 q ;._ X.[.~.] _ w  .5.= f 4.F 4.<X_ n.C.=X%X3.&X2X5.] 1.| 5.} l n.1.f 1.'.k.& | } q f T l w D w 6.=.m.s.: * :.P 5 + + H Z.2.l ~.3X_.0 H 0 0 F } ;.I w H 5.G l H F 5.4.;.I.j.%.'.I.l z f I.].4.F I %.w H Y.I.'.x.f j L x.| m.5X' q 4 = I q ;.vX=XA.>.z _ 0  .6.] ;. ._ P 5.$.4.:.I C._.{ D ] 5.%.G C.I T '.,X%.0 4 _ G 8 P >.#.z ;.Z._.( X.1.[ q S l H [.L.f q } _ l } *  .~.B.V.`.S B.pXH 3.6.Z.[.} C.} f f G 5.0 L %.,.`.B.3 G f ` * ` T.=.= L ' F z 5 G } 4 q  .%.= 5.` f G P G C.F l P I P j.z.z l %.D  .5.w j.m.l I | * X d 4.j.n.C._ T d j m L x.#.d $.:.T #.j.x.P T 4.I f I ",
"d ' T F _ %.5.[ 5.F.1.;.I 4.N.H G 4.T z F T =.P n.4.x.f 4 I F f } | k.Z.'.Z.D r | #.%._._.n.l I N.n.5.T T $.C.n.L L j.'.] | 5 f 0Xm.j.m.*.P u = G 1._ ] | ].L f } C.F ` tXiXZ.I.} d F k..X` * z ;.Y.=Xl n. Xj._ q | } G ;.4 4 l | 5 & 5 l d T j.#.z K.].;.q ` %.Z.=Xn._ I Y.|  X6XL.tXfX1XrX).} z O.j.T.| G ).=X=Xq.;Xn.6.).$Xn.q d n.l * u h I 4.4.s 5 F [ 5.N.B.B.H s z T 0 I j.U M ; i O.$.* x. Xz d T P 4.} | I.j.q 0 C.[.V.%.f =.8XC.] F = l T +.n y m *.5.:.` C.P.;.| P 4.m.= & N.;Xk.$.* : m b + + f 4.H _ k.Z.6.6.] | 4 f I 5 + G ;.d j l  .Z.Z.H l ^ l D Y.] 8 f z } G 5 T Y.;.= n.L.L.I H ,.t.<.V [ 6.A.;X;.F F I N.N.A.Z.A.6.m.G P x.4. .....w =.K.T.Y m T j.I j z P q.B.A r q.3.;.X._ l H l = G = = 7 4.f I } q = = = 5 & 4. X} f & d ` z l 0 A | _ _._.5.l x.: T T s P ` T z 0 _ n.` l F C.I | z * = =._ l | A ;.D ..1.z $.z s 6.~./.V.[ Z...| '.:.4 T | _ = 4 Y..X X<Xm.P ` G _ = ^ q.B. .] D 1.] Z.H = H ] P G = w  .S w w 9 H H J 1.B.Z._.5.` _ d f | 5.[.].4.| /.^.3.1.F = I : XXXXz 0 z P T I q } L.A H =X%.= 4 C..XY.I G F f 0 _ =.z C.-Xm.:.Z.<X$X1.& 4.rX5.q d s s : : | n.k.I m.h ; L 5 0 $.` : d j.C.Z.} = c.=.L T $.",
"d #.C.m.l w G 0 Z.;X%.F I ;.1.%.0 : : j j z T F T.T 4.T q = 0 = d } n.'.T.4.2.q.:.4.Y..X1.| k..XC.Z.A.w } 4.;.z U a J.Z.;.qXC.T >.4.P F j d 5 f Z. .l q | ;.N.N.N.=XoX:.S D 2.n.5.f G _ ;.l 5 L $.I | $.T 4.G G F n.=.5.rXB.l } H = $.Z.` G ` j d & * L T 0 = 0 %.[.%.0 f P :.L L z | N.] ] 5.5.T d j..X].6.1X<X'._.6.6.;XZ.C.%.f *.T P d 5 k.=X>Xq.} T Y #.6.1.] 5. .q l 5 0 :.cXJ.*.h 5 L ` j :.d x.P $.x.:.G F =.:.4.Z.G = N.L.d =.qX=XN.*.: I :.T Y < h J.qXY : d K.Y.[.[.sX| d P %.)..XF X * F f f I 5._.).q q G ] 2XN.).6.5.G u u $.f h T 4._ A r n.C.A | ` $.| %.>.s _ q.G q n.Z.w Z.5.l 6. .H )._.).5.q ] H w ^ 7 ] %.I l F %.I 0 G %.I  .1.6.5. .} ` z + ' >.d ' z 5 * l A ] G  .q.| _ I } ].Z.5.A 6.=X;.l w l f ` 6Xj.5 z d =.|.j L =.z 5 F q ] ] G ] 2.D 4 q j.h u =.z.#.#.5 =.0XZ.;.P z } G q j.I * d * f ` %.} '.} n.I 4 L h h 6.$X6.)._.;.} f 4 G 0 * 4 w = = P F  XC.T #.j.F P j Z.sX).V.2X:X$X6.;.* 0 _ [.n.G w =XV.A 6.6.1.[._.w 6.H  .] 0 = f & z } G %. .=.%.( C 3.6.H G T z O.$.P 0 5 s L z _ ]  .l ^ N.] A k.A.;XF.6. .A e.X.6.d d _ ` d : *.n.;.^ 4 n.).X.I _ ` s * : d G f P 4.#.s d s f 5.I s C.:.F S 7 s ` } z P h ",
"5 q f } I.5.6. .Y.L.%.z T j.%.%.P f : j P j.P =.` =.C.C._ H } P F f l _ F l  .n.Z.G F _ 5.Z.L.5.H l 4 | _ = * = < ; d _ | j.I T P *.P z f z ` T.].I .._.:X .| [ _.n.F H N._.H _  X' = d d ` m.` 5 f } n.=.C.F F :.>.5 z ].<XN.C.d } k.:.I G >.j.$.j.d I L.k._ N._.V.4.H f 0 d s 5 j %.| 5. .H ` d d d P l S 5.] A G H f G _ 5.I z >.I #.z f 5.).3.n.:.M i j.Y.;.| q.N.=X).q F %.z =.:.z d : h z d d F I z |.h.0 l } ` G ;XZ.d x.m.I 5 0 _ _ d d ` ` Y O.< M P z L m f %.;.[ q. .4 n.C.%.I l j z 5 Y.).=X$X0X_.%.f z 5 6._.Y.| ;.} q f $.j.* * f 4.7 r 5.n._ T P j U 5 ` L 5 | | | ^ 0X;XA.:X[.] 1.1.J S 2.7X.XF :.0  .rX;XZ.Y.$.} $.I H | | l 6.A.N.7XrX).<XMX'.T 5 z 5 } } ` | * q 7 G 5._ w l 0 4 ;.=X=XH n.>X[.%.q ` P $.|.x.P oXC.=.:.0 j T } F _ L.=X_ [  .1.q.1.A l 5 4 z :.#.j.4._ qX=XH 0 d *.z f : d ` s ; j ' $.L.Z.G 5.Y._ f h s  .X.7 5. .]  .$.j.Y.%.0 _ [.;.l %.l 5 5   ; $.P ; 5 G w w 5.B.$Xq.>X[.q.Y.).4.L.NX4.Y.C.H ).iX).N.1.5.1.= o 0 ` P L d :.| L.5.G I ..6.B.D S I Z.I.z & * z | u s j 4.L.uX1.;.Y.N.G _ ..).1X).B.6.9 3.[. .s F 5..XY : y : %._ d T ]  .n.T :.` ` ' ' j : * * L s 0 0 & A k.x.I.` = r A F : f I T j ",
"$.F _ F .X'._  .L.Y.I s j P _ l %.$.f P =.x.T T f j.I.P 0 0 %.L.Z.:.n.C.Y.Z.] 4 q 5.5.f C.5.F ;.H G [ N.$X5.[ L.s.g u & z d d m.T h.:.P 0 5 z ;.n.Y.1.Z.;X|  .1.>X;X2._ 5.Z.I & d 5 F j.z L :.` *.d f Z.5.$.} ` 5 h h *.:.Y.I G z } '.5.F Y.m.j.m.z.5 z P ` %.4.[.{ e.1. .N._ } M O. X.XF.tX.X} Z.T d n.%.A.l r 4 ).0X| G T z P j 5 5 5 = 5 } n.f 5 h j x d d q  ._.F._ _ | l } 5 5 5 5 d P Y * h $.L z s x.P.P ] L.T J.B.V.k.x.s.z d %.| 5 j d P d ` m P L $.f l _ 5..Xf G } 4 4 } H | I : : u %.N.n.1.4._ f * h Y L z d =.5.n.G n.,X,Xq ;.| [ V.^ ^ 1.%.z j m h Y F F ` I N.C.w 7 A | ] 1.H ;.).A = 7 6..XI 5 F h.T } Z._ _ P =.;.C.L.].m.I L.k.;.].[.1.V.A...| 4.q 4 Y.Y.;.1.q ).N.^ N.2.] l n.} n.1.2.5. .l l z z :.z + o P oXm.z : x.-XT F C. X[.<Xn.l l H $X;X;.A.n.] ).N.j : d } n.N.;.H z F j F 5 z :.s.h + h O.z P :.I z f ;.k.$.5 ;. .;.L._ | 4.k.n.N.n.| $X2X$X:X_ I d * + y ` F x d w 3.N.X.).;.A 2.Z._  .1.;.5.,X;.q = . q T ` | l 1.V.B.P d > u * - P | :.q } 5.| n.2.%.F * I Y s x >.Z._ 5 h 5.k.G l G L..X%.F 6.I ;.%.Z. .G A Y.7X4.f 0 q q s h i m j.L x z 5.%._ z * z $.$. X4Xx.#.z j m.%.= V 2._.Y.c.G k.[ ,.:XZ.%.l j < ",
"k.=X,Xn.G H q l ;.6.:.d z n.Y.=X .V.N.} 4.x.s 5 = f z j.Z.l f } F I C.%.Z.Z.I 4 0 I %.H Z.%.4.5. .<X[.] G '. .%.L ; u d 5 L #.h.` L P T P 5 G _ l } A l _ A S  .,.] X.n.w w G I d :.T.T l 5 5 G I.j.T P G l ` m.Y m v M z 4 $.$.m.%.j.j.} K.k.= 5 m.C.5 f F f w [ D V r J 4.C.=.#.=.I.I G 1.4.= :.T.Y.4.uXrXH 5.q.A.n.5.` z :.I.#.s & : F G G } L v.s.5 5 ` } ;.;.D 6.n.I F k.<Xn.l =.K.f m.T.' =.z 5 * o 5 * 0 '.C.+ L  .2X,Xh : M T.=X=XP T j L #.*.` n.P 5 = 4 L.uX$.` 4.F f l Z.5.q x.s + * _.B._ k.$.4 m s * m m s 0 =.} 0 0 l ] ;.0 ;.N.V.D.D r A F 5 ` *.T h.G 5.*.I ,XqX1.] 4 = w Z.).1.V.H %. .A.n. .=.z d j.:.F | 4 } |  .G =.Z.' G F & z :.k.N.A.D B.Y.6.G | Y.Z. .| 1.<X_. .<X[.).k.;.` I H _ _ 1.F _ :.` :.#.j : P.CXx.:.$.Y Y $.P ` k.4.G l l G _.6.r H F.| l C.k.x 5 l [.2.7 ;.} f I ` I l m.m.5 : u P m u h O.P P l | %.I u } _. .4.,X] ;.N.%.= ]  .2.e.,.[.6.f $.J.O.s l f 5 P Z.[. .8 D ] 1.2.Z.q ...X'.} 4.=.f z %.} } ` L.x.S  .N.} P s : j d z I =.Z.'.4.k.N.H 4.I G T : : s l ;.I m j z f l 4 | =XZ.} '.=X1.] _ & 4 n.] l F 4.4.| j.4.` + ; m x x $.P. XG z K.#.f T T.qX*.T h L |.;X_.,.e.3.w F f j.L.[.2X1X~.[.| z L ",
"5.[.=XZ.} G w D ] ] n.].4.n.[.%Xe.~. . .8XP.F s x.} d L.uXT.G P G I n._ F 0 _ C.G G '.'.| ` ` I q _ _ f f l P T =.P ; - s #.E.T.` 5 d ' P $.} T C.n.N.A q 7 H  . .4 & A r A B.~.d :.$.X } C.x.F z :.f q G 4 4 f s + - y 5 = n.uX=X5.G 4.$.T q l ;.5.Y.n.;.f I J ] V.3.9 w ..I P : g $.F l  .G 5 q Y.4._ '.} l Z.;.w ;.%._ 5 $.T.s.+ d L C.6X} 4 f qX:.5 %.;. .* 4 F.<X].=XZ.5.>X).5.A.L.l q 4.%.4.& s =.4.= & 0 7 F s z 1XwXI - s m m.G ;.` d x ` F F H l _ Z.n.>.Z.P.G n.FX).4 1.C.].j.d z d 4 l n.'.7X:.h z z T I.%.G I | n.%.+ F 5.5.;.5.o.o.3.,.r q f 0 5 5 f I.4.f q z $.m.%.N.Z.;.H  .] H w _.Z.).N.B.1. .l  ..X_ G G 8 N.%X3X .+ d d %.:.4.I %.;._.vX;XV. ._ ).1.q G | _ k.;.l f L.` P :.* u z l C.Z.| z 5 * d Y O.L u *.T oXAX$.z L j 5 4.lX5.| 1.n.7 D ] A.H + d x i - - u `  .r 7 G l _ :.| I F l %.n.*.P.` *.:.m L d _ ;.T #.v h H q.Y.5._ _ I Y.N.l q l 2.:X2.8 D 4 f Y.s.z } | f } <Xq.8 D [ A  .l f q _ ,X XL f z j } :.=.j.4.J.` 5 f q f ` T T z 4.-X:.L.4.%.G l 3 ( D  .;X6.f G x.k.N.5.z : 4 } :.f ` ` :.4.m.K.$.x.Y._ } 6.5.F : P L P :.J.m.=.m : h i ' =.P 0 d j.>.: I I.*.d - : j I 6.;XeX/.3.1.k.$.I & 4.).6.1.H N.Z.5.",
"H ;X;X).).X.X.[ ,.H  .Z.;.| o.o.V.r.2. .=.4.} 0 T 0 | h.x.'.x.G n.4.<XiX5.w _ C.m.T.L.7X X Xn.q G n.j.| f 0 >.8XK.z *.U v i h x d z j 5 n.4.| z k.C.H w l  .Y.L.n.;.l 2.D D B.N.:.d 5 s z.xX Xm.*.` ` f f f z z #.s.+.:.m._.%.0 F G } %.= 5 4 l 5.5.G 1._.I  .N.).B.V.6.] | G d h M :.| ] Z.%.l Z.[.| 4._ l } $.l 5.Y.| | ` #.u d d ` 5 d _ | 6.} l + I kX%.w l 1.A. .5.6._.1.1.^ ;X1XN.).rXn.C.| 7 0 k.8XI z | ,XN.s 5 ] 6.l s j 5 f } %.} ' * d z Y.;X). .K.j.l z d + l 4.G = | 7Xm.5 d G G l f K.>.z f 5 d L z :.;.Z.1._ N. .| .XZ.=X6X| 6. .~.`. .Z._ f z d 0 z P * _ ` 5 d } <X6.w _ 1. .J w w ..1.).Z.N.S w ).] f G } 5.%Xw.y.;Xl L I 0 | ;.k.n.I 1.4.H l _ H q } I l G 0 z Z.lX;.I f 5 m * h s + | ,X} =.` 5 5 d : s j z ` m j d m s : & l L.Z.=X2X] | $X>Xn.A 5.s x i + h :.Z.;.A ] [.| l G _ q 4 l q H w | q l j.} h I <X].l 5 v &.H V.2X,X1.5.1.;.;.'.%.q B.[.[.1.} H l z j K.C._.5.4 ;.B.^ ^ ;.1.[ A.%.f P ` >.s d I h.=.0 f s 4.} 5 = q G P ` j.,X XG k.P Y.iX4.5.=X).V.r.V.$X1.] 1.L.Y.w 5.| G :.uXL._ ' 5 j 5 * x.Z.A %.%.] H N.$.s 5 F j.=.` L.Y.j.* h s P _ I ` P f j.d >.m.#.` z * * F G 1.y.!.V.[.} 4.} = %. .A Z.I f D 6.",
"N.;X0X_.pXtXB.2.D r q f * P S ) <.r.V.1.w F d d I f I G f 4.C.= I -XN.=X1X;.:.=.x.-XZ.%.C.mX6.n.L.4.G G 5.C.k.%.;.I P.O.p i ; h $.` _ f F m.I q o H ;.5.qX[.B.D l I 3.~.l 7 | 5.T s d 5 `  X-XJ.m.n.:.Z.j.` z l 5 L G.jXuX;X1.A %.} = f F 5.| 8 [ ^  .=XpX=.w %.[ w N.k.7 5 5 * - : d q H 1. .A  ._ 6.4.` z ' 5 * P F 1..X'.qX4.P m.` z I F 4.;X:XZ.z h O.u & Z._.1.Z.;.4.n.f 1.A  .C.w ..Y.4.C.F l = s ` :.%.} L.Z.x.5.H H I d P ` F ;.;.-XI.; * l $XfX`.N.I *  .Y.n.F P d ` #.m T P 5 d  .e.q.z x L z = q T.} X f } Z.| 7 e H 1X'.z 5 ' s & :.H | ).F.H | x.n.n.].$.I '.;.5 z T.xX6.o I '.tX1.F A I Z._ l 5.l ] Y.d * 5 P 4.{ @X*X$X` h L l G Y.rXN.] G 5.= G } } I z P 0 I l | =X7XC.4.| ` J.=.z.s.x *.I.:.m.5.0 I I * f F f P d X m.qX$.L P x.5.q S ;.7  .n.1.^ 4 Z.5.z q P n.j.| G G ;.N.A.] 1.C.;.1. .8 S q.B.3.w ^ 5.z n.Z.;..X| h P 0 D A.] 1.n.5._ _ G :.$.n.=XN.Z.j.G w l ;.n.1.).Z.1.N.rXDX6.n.vXY.5.:.=. X X*.s j._ f I 7 = A ..;.& 0 6.Y.F T =.L z * 4.uX6.6.G G ;Xq. .;X] = } l F F l ( F.K._ F n.l Z.j.s s j s K.[.3.A.Z._.{ 2.4.h O.K.Z.$.z l 5.} h O.I ).3.S I q 5 z F 4.T F z F 0 H Z.4.1.).e.).6.F =.4.l 6.Y.k.Z.G [ ).^.",
"[.A.[ { q.1.r X. .G l } T f 4.).wXyXB.H Z.;.s I.-X=.%.f C..X4.d 0 I | | ;.$.T.j.I f z } } %.w l 7 | n.= A 1.N.A.;X_ 5 h ; + 5 m.j.` =.z G x.C.k.C.uXC.I Y..XY. .%..XV.{ f + F 4.} * 5 z d d I z I :.:.%.l G _ P P & z k.;X_.] ;.Y.4.l 0 C.=XZ.H ] ] [ [.).= q H ]  .A l l 0 j s #.` F G Z.[.D } _.N.l _ *.5 h J.d o q } H C.Z.G l ` 5 P 5.G q  .A.[.` i a ; ; d $.| Z.T.=X} 4.].=X= 5 q f | F %.f F } 4.=.I 4.4.f L.qX=XF l P z } :.#.:.I 5.P + : f X.;XyX1.r ;.;XbX[._ #.z.O.h - y x z d 1.3.D 5 - h $.5.Z.4.q q F 5 j d = | 4.H k.F u z O.Y P : m.n.A 6.%.F x.n.n.d _ n.H 5 s 5 '.tX_ L.].4.] _ P H I %.;XZ.H 6.5.: u h P | ( /.^.6.P * i d | [.[ D 5.5 = I _ _ = z :.>.f | H  .6.H ] 1.k.4.E.T Q M i u m 5 z G q G Z.C..XK.L.x.$.$.J.4.d G G Z.iX6.e.).F.;.= q D  .^ l _ ;.2. .] q d ;.$.w H 5.vXuX| | _ [ `.sX2Xo.D %.} l & 0 ;.pX'.P z | H N.;XtX;XA.F 4.| P |.} l & 5 z * H _ H w A D 5.;.I '.N.G  .5.| 5.5.5 m j.O.u Y I.$.f ] _.[.A.l ] [.V.Z.G s : s $.=.| '.[.0 q F G |  .Z.q =.T.C.G } 1.D 6.'.*.f I } ` F 5 z =.L z ..1.6.6.;X3.w 5.j j I.8X_ H ] ;Xn.0 s Z.q.A. .0 0 F z %.F _ 0 $.Z.5.k.[.[ n.). .Z.1.| T :.L._ N.k.P = 6.6.r.",
"r r 9 D S S N.] w | ..I.4.P G 1.N.] k.I 6..X| 4.h.I I P F G ` z * G 5._ L.n.T z z 5 d T I 0 ] F.^ 5.5.F  .5.[.N.[ A 0 L } d m.4.f 0 ;.I.$.q q _ n.5.5.z :.Y.1.1.T F e._.I _ 5.d I m.T f d :.#.* T I _ f | } l G l l L.5. .H H I F 0 q = = ] J D F.B.V. .H w I | Y.[.n.n.z Z.9XL :.' ` 7 ] A.5.[.4._ 0 l G f T.T.H q.X.D w ;._ w * & q G j.F = F z 0 f P P U ; X z G 5.L.x.= 5.K.C.s %.` A | G [ S A $.XX5XF 1.1XrXf w F = f z z = P m.' f P I s m z A ).V.7 S N.1Xc.z j u : L j.: h m 5 q 5.5.l : j h.j.6.| e.`.H w j * : K.].G l _ _ 4 j z.:.d 5 ` Z.N.L.;.4 * 0 4 | [.B.| ` f o =.[.P x.#.= z G f 0 | $.4.'.).X.F.$.u u d 2.B.(  .G d O.Y s G } Z.$XA._ 5 '.0X} 0 } T ` z q | k.6.k.[ 1.N.d 5 p , i.v +.U m ` T f F | .XlXL.4.| =.` o + _ 2.{ { _.2.S ^ [.[.[ ;.B.>X%X4 5.e.1.A.;X;.f I P s F ` ` } + l Z.A.| n.G + _ j 5 *.I I $.4.;.l I z 5.;.N.A.;X;.w K.` ` :.5 5 =.f 5 #.[.1X=X . .& 7 l 5 M 5 =.| 0 G [.F.| z h +.v a u I H ).$X6.6._ '.4.f  .N.j.T T 4.4.0 G %.5.Y.%.F ] .XL.f C.L.4.L.].5.^  .].T.F z =.%.q = * j m s f F _ H V.e.3.Z.:.h d =.=.| z =.=.z 0 q } 5.P s : I '.| C.5.q '..XZ.k.:.d P I 6.Z.H 4.` I C.} q * d I A.;X/.",
"V.B.D ,.e.).).J l 4 z 4.L.5.} f =.5.| | G ` z z F I k.} q ` =.m.L 5 f l ;.4.d u L u f 5 ` Z.5.=X:Xq.4 z ` l 2.A.G  .| Z.]._ =.T G n.=.x.L.:.f G =.4.Y.5.* | ,XK.5 5 ^ ) ;..Xx.5 G x.$.} 5.Z.%.= f >.m.%.:.$.l d 5 n.Y.G H I q k.l 4...0 f V.Y.H 1.V.6.[.n.;.l 4 ] A.1._ =.7Xn.} = 5.'.l w n.[.Y.;._ T } T L x : F.3XV.1.6.n.G q f | $.| '.;.Y.=.s | G G P h ; ; z $.x.F f & 4.C.P =.=.m.| 1.4.A 6.1.` L z * _ N.5.F 4 G | T I $.].J.Y j j.m.L m T.P.5 _ ] 4.1.| | z h v < < x.T.J.|.s.: d I L.:.x u * f ;.1.>X>X[ L.x.L : ` l 5.oX'.).G z s.` F ` : z ;.:.n.} 4 0 5.%Xo.q._.L.| o G %.w z z L .XC.0 & F x.T 4 C.=X| f =.4.F V { 6.J G L T =.#.z G } [.NX;.F | n.%.l O.P h * $.6.C.7X,X] V.Z.F m < # Q b a i m m x.P j P j.I.` l f Z.:.s d | Z.B.H 6.,.w V ^ e.^ n.Z.A.q.7 H  .B.1.1.N.Z.G f s Y m x j._ + q l j.F & 4 C.h m O.#.j.m.` A.C.4 z | A D A _ C.F } T z 5 z J.:.z 5 j.1X).).VXF.w :X'.h O.*.T 4.L.N.6.e.1.L #.M a Q Y 0 N.rXyX).,. .} 0 o G 6.P 0 7 A I 4.5.w ] L.1.] 1.5.G w 7 f w ;.;.H | %.` z 0 H Z.;XZ.1.c.$.$.8Xh.l H ) e.o.3.L.:.` j f k.4.P 5 d ` P z =.m.F F P ` L.].4.q = I _ f I * 5 z n.=X5.= 0 & F J.x.} L :.x.;X6.H ",
"1.B.q.5.H q. .w 0 0 T #.c.| L.F m.7X.X=.%.I _ G F %.%.| T ` =. XF X } ]._ * P *.d d f 5 0 G I q 0 * & z u 5 * w l 4 ;.Y..XH f 4 4 | C.;.:.L.%.].-X5._.).4 F 5.P.T _ 1.q.;.A.n.f 0 | 6.A. .] 1.H l 5 5 m &.T z T 5 F k.l * G k.,X_  .G w F =.L.=.q 0 w 4.A l 6.5.n.} G l = A 2.F.5.6.A. ._ q f * l I ;.C.L m p P Z.{ [ Y.;XC.| =.x.Z.n.Z.<XlXY.z T T.` k.` m m m #.` F G *.q | C.Z.] 0 I q I L I ;Xk.K.T.n.H 7 0 4.} ;.H ;.;.;.:. XL x ` $.Y.L : x z : + s T G P + ; Y M g @.m u L m.T.4.` Z..X' u : + x  X` 1.4  .7Xz.#.: . 4 n.Y s.4.;.j.*.C.Z.| 6.I.I 0 | ;.A | ).A.D 8 2.A G m.].B.1.C.'..XqX5.= =.C.T.I.q } L.1._ .X,XH 2.$X6.w 0 T L T P :.P  .Z.1.q P H 1.G 5 z O.- 5 P 4.h h : & %.] f T =.Y Y j a - i ; g l.s s =.$.F T F %.| f z ` = = f 4.1X;X3.^ <.3.F 5 s 5 s z j z A w %.k.5 * 0 z z 5 } $.l = T F s T f :.&.M Y F :.k.l %.6.} 4 + ^  .| ] 0 F F ` $.z z } =.F f G | k.I N.1.6.[.).z $.m P m..X1.l 1.k.=.s.M j P j.<X1Xe.[.~.[ | P I | 7 } T ` I F 4.'.q o q F _ l Z._ + F k.| 6.q z P f z _ _ 1.;X%X;XyX6. .k.C.uXC.7 ,.V.) ) V.[.qXK.$.5.6.H j Y T $.:.f j.5.* + F F %.].L.| = Z 5.| :.: P =.C.5.l 0 F = j $.} f G 6.Z.;X%X[.",
"w l <X=Xn.I N.[ l f s f 6.%.=.f %.XX4.0 G G | 5.=.f d P G L.'.F 5 l l  .Z.n.T P.m.m.d 5 | } d f I m.=.#.m i } 4.f } k.;.Z.l f q $.$.f j.n.f *.,X| f Z.A.7 7 5 * 5 f ;.A.Z.1X'.C.6.).F.).V.)._ & 0 f + + m z.x.=.G ;.].G f l | Y. .6.).6.& * 5.%.f $.G f G l n.N.;.} 6.0 H Y.F.>XwXS A 4.| 4 l _ G 0 C.>.L ` U ' 1.q.)._.P } =.$.4.F _ 6.N.5.} * 0 : * z L z Y h ` ` z :.4.z l _ 6.).| f 0 & o } ].G $.j.4.Z.n.C.k.G 5.L.A 0 w } j.L I Y T x.I d + 5 5 : + L T s u X Y &.m O.j L : } x.} _ =Xj.f * + 5 : $._ <X1.H ] j 5 } F A %.j s I H ` z 4.$X;._ x.K.G I ;.] [ q.:X$X^ w  .A F x.] G 5.:.'.x.I P C.} P } F z N.|  .rXV.1.| | 1._ 5 5 ` XX=.| _ Z.] l } l A.n.F P T h T Y I } Y W b O.| f = z ' ` ` :.z.x j < s J.L * & j z f I [.} = >.=.s : u * $.qX1X).e.F.4.x.M h L z u j _ |  .I = q ` P I : & f f q n.4.*.' d P j M J.j.5 T.m.4 :.%.G F _  .A l G P d T T } q q 4 q ;.F f l 4.5.] H l A 0 T 5 : 0 z f 5.'.} s s : 0 G 8 2._.w  .1.H H k.| I & 5.I.} 4 & 6.1.q | ] H H | 5.6.q F 1.I Z.| & 5 f 5 d Y.6.,.3.,.r.V ] ] k..XA.8 r.`.<.#X>Xl d m.,X4.w A L s * ` | P } = & :.4.C.-.} x.I = F f I %.j ,X,Xf I $.l f * f d f f | Z.5.A 6.rX",
"G Y.L.n.} 4.n.1.l f * s k.6.f > z K._ l } =.` %.n.} f | I } m.$.l F ] F. . .4.| x.G d 4 T z L 0 _ C.` m ` z =.m.l ]._ q q & F %.%.G l n.<Xj.f I f Y.n.] [.;.& 5 n.G n. .7 l } ` ,X;X).2.D ] ^ ^ ] P z ; ; *.` 5.Y.=XZ.m..X4.` ;.{ &XnX3.D ).A 7 w ^ G G | H z } j.I %.| 6.Y. .] ;.%._ n.6.l _ ).Z.I %.` x.' 5 P G 6.Y.I J.x.= I f = = = C.Y.k.F :.s x g u P I.T 5 . L j.#.f = P ] 6.5.0 f T : : F f A..Xl I 4.'.5.4..X} f q q 4.$.>.Z.$.*.C.} l l w n.;.N.Z.x.0 s 5 * s h O.m 5 :.c.f } %.z I l F %.%.G l ]  .N.G _ } : : } Y.C.Z.Z._.w X + ` F D ^ G G :.<X;X3.D _.N. . .2.q.H & : ; ; : h d L T + j = 5 & 4 q I I G H Z.A. .G 2.%.f d s O.z =  ...q 4.6.n.;.w A _.'.L =.} N..X=.W U j..XC.5 : 5 m P. XC.I 5.n.=X5.& w | G F w F 1.] l Y.I 5 ; : + 0 Z. .S V.%X$X,XL d k. .` x.} =.P f 7 G k.C.m g d 0 I [.$XY.I z K.*.U - z ' I m.5.f ` ;.n.%.6.] 0 q } #.* =.m.z 4.Y.4 &  .;.A.n.| | T f 0 $.} =.5.G f 0 l } z s * : = ;.~.{ ( e I N._.1.V.[.I l z h.4.F d z P w P Y.5.l | %.N.;.f 4.C.0 q I I s F l _ N.A.B.e.,.`.e.{ H 2.N.1.`.!.&X<.V.F.] j.=.z F 6.=X#.5 5 $. Xx.* X & %.,XT.T F & : q 0 P k.j.=.P.m.I ..;.C.C.} z f d x.P F Z.} d %.",
"* 4.` P C. X=.= q z #.T | P f } :.L.5.4 %..Xk.4.} C.=.F ` ;.C.T.4.1.).fXB.F.A.l P ` l $.L Y P :.;._ Y   *.m.;.4.I I l F l = 4 l G z 5 :.K.j.| _ l oXY.l A.Z.* T.C.` Z.N.q.S z 5 I ;.D r H _ | [.=X;.l d z F | I 6.I.K.5.%.0 %.N.wXe.&XV.H e.X.V.`.).6. .L.Z.$.z =.:.%..X<XY.[.'.l l } C.l | ).6.0 0 P >.$.z o = * f l } P P F ` m.=.} 4.C.} ` $.T.O.b g h h ` $.=.` 5 P C.j.4.F ] ;.G | <XkXK.=.$.} 1.X.& o } } G 1.%._ I w _ oX=.f G ` T 5 * _ [ H | 6.lX<XI f j.P 0 ` x.x.d :. Xk.4.,Xn.= 4 z 5.n.1.| ]  .H k.:X} s z 0 d N.A.N. .[.4.x Y ' q 2.q.| } 1.B.N.] A N.A.H | N. .w I O.h m :.I.=.T j 5 5 z | I.6X-X<XY.).F  .N._.N.,. ._ T L : z 5.lXMX%.F w ;.1.] 6.6.;.P 0 = ] ] : + : -.6.l d ; 0 =.5.4.xX6.| rXvX,Xf G I G H | k.} 1X..q f s y : + >.=X6.6.S S q.| 4 _ 2.8 f } f ` z l } q  .m.s + : L 4._.N. .* *.m.I m m :.Z.-XqX` *.j.f 5.=X} H | P ' s 5 *.j.G ;.C.]  .4 n.1XF + 5 P z j F ;.<XrX6.0 0 _ I G 5 s $.k.[.`.t.{ N.k.L.C.N.3. ...%.T * %...z f F =.G G } ` n.4.A.5.l 1.P I ;..XqXP %.5.'.pXN.H V { 8.{ S N.'.[ 1.`.>Xt.`.6.w ` XXm.L T.1XN.P j f T m.j.* 0 I 0 ` I 0 & } I.P f N.c.F } T z 0 G l 4.XXT L j z j.x.T J.$.5 J.",
"5 z L * 5 x.|.F L T =.T 0 q G 4.} P l ` 4.| + c.C.l F :.C.=. Xk.C.6.B.e.V B.5.} ;.:.*.T.hX*.y L _.>X4.| | 4 [ ).Z.f w 0 4 k.5.4 5 I #.m.I.j.4.;.q | %.I n.A * %.Z.} 0 ;.).2.5 5 4 5 G _ G n.%.I lX0X6.2.2.e.Y.G 4.P ` F = P I G 1.q 4.Z.F w ;.A.[.Y.1.1.6.N._ 6.n.rXA.5._ 4 '.iXN.5.L.;.l 5.k.#.h : h 5 P Z.Y.0X .F 6.q F z = 0 T | } C.4.} f f 5 u - u h m } l F =.L d $.P.-X4.XX4.f F 4..X,X:.f Z.0X;X[.A G | <XY.F ..G ` $.T d * '.MX>.5 4 G 6.D S | K.` 4.z P f 1.[.).1.= 4.1.A.1.5.G F ` 5 0 j.4.I j.n.f G Z.G s :.,Xm.| A.Z.] Z.n.P z d H 5.F.A.2X2XS D V r ^ ;.F q G A B.4.L m =.F x.z : 0 d f f q ;.C.f q.sXn.4 d l [.[. .H l z s d d C..X'.Y.5.D 2.;.;.F.A 0 : * 4.n.H G I = I H & * O.6.H _  .2.;.A.| F T T -.f d = I ` : .X;.} _ d z 5 ` '.Y._ %.%.X * 7 ] Z.] H =.G d } ` F I ] 1.} 5 T } d _ N.%.q * ` ` z ` O.j.T.A.| ` L & = :.'.;.;.$.z m & s L 4 l _ ].rX1.] l P 5.I * :.h.F C.2.^ r D H | Z.'.[.] j.T.} 6.,.{ e.[.;.T l ] B.;X4.C.} f C.N.0 P %.] G f d c.,Xk.:Xn..XqXI k.Y.0X,Xq l F G ` F A J 1.] Z A b.F = H 2.K ,.{ q j : * z z %.V.Z.z #.*.x.4.q + f ` =.` F f s :.=.w k.Y.C.:.K.I 4 I H q $.x.P =.F + ` ].0 : z s I ",
"P z s h *.J.G.*.z.P G L.%.f I I | =.P C._ f I z :.F = 4.m.Z.F = l 5.$X).2.N.q.k.:.P.'.#.s.O.+ j  ._.;X[.T._ q._.6.Z.=X| L.Y.4.$. X` d 5 z f q G _ I I I 4 4 n.H F G q ;.X.Y.:.+ 5 j L | z z I ;.L.6.e.2.0.F.1.l F z T.P.C.uX=Xm.=.5 + : f q q  .0 H 2..XY.6.1.1.6.).A.X._ ;.q F ;._ '.L.z T :.P h x u 5 z 5.;.=X5.l | 5.} 0 P ` f =.} 4.I z Z.j.5 O.h g i z l n.$.z : + 5 d s m O.z = = z.'.4.0 G I 1.[.tX1.= w 1.H G 4.%.G G d 5 P [.vX$.5 f I 5.I ,XlX,Xz * = z f F.,.{ J 6.6.V.w & H I $.=.& 0 F f =.5 = } l l P s 0 I H H | 5.l w 0 & q q  . .;XF.~.[ A.A.w r  .1.G q 1.N.V.).Z.F x.0 } F $.k.= 4.` 4 G d }  .6.f P L c.5.H 2.V.| q L s s } 5.} x.G ^ $XY.1.5.0 f d & m.XX%.4.C.'.). .w d z H e._.pXZ. .=Xl = d f x.C.0 } F - L =.f w | ].| * f .X5.5 | I _ | I D ^ l | k.` :.$.T I L.,Xk.f q Z.C.=.n.$.G d ' 0 * z + u ' 5._ I z 5 ` _ I j.Z.5 5 z 5 & * & z l $.C.C.=XF.] d *.*.+ P :.} n.B.wX~.J  .1.%._.$X<Xx.T l ;.6.S 3.B.1.:.I | `.>Xk.z d d } %.P z q P } K.5X-XC.G w w 4.rXY.] %.5. .G  .| ` q n.4.).N...H 0 %.I | I = e V r  .T j L =.* P 1.n.s O.n.| _ 4.m.d & | F * f T j & = | =.=.x.:.G ] ] I ;.Z.P h.j.T ..G =.T ` d :.'.",
"L m s m s.Y z 5 d z F 4.k.C.6.1. .N.L.0 0 k.qX%.5.4.5 f ;.Z.} I Z.4._ N.>X[.;.I f z m.f 5 s s P } 4.} ;.%.| 1.1.)._.N.k.q 0 & m T 5 z z d 5 l } %.] $.L.x.G _  .H 4.k.%.B.).T.s P d P $.* 5 } Y.] A  .A w ]  .= z *.T.=.| 5.` f + : s z J.:.4. .[  .H _.<Xn.| 0 w H { N.;.n.` z :.T F P :.} z * 5 * d } C.G F A ] H 4.4.f z z _ ` I f %.L.;.5.q z m.4.z h 5 $. Xh.` z l.#.; ; : s L f P m.j.'. . .6.f 6.N._.;X%.] 3.1...} 5 d : 5 T n.1.l 5 f F z P z I d I P d 4.L.%.B.V.] `.`.>X{ * T T d 5 P d d q d z z f ` C.j.d ` 4 f G ] Z.q._. .& 0 = ;.F.X.B.%X] Y.n.0  .n.N.0XiXC.;.o.=X[.} ` _ .X0XZ.6.} C.I _ _ l A.B.B.I -X*.:.j._ 6.C.l j.x.z T z F } $.G ).).w  .Z.H d T F & d z G 4.,X:.= l P : C.A.%.k.P f 0 * F =.I 4.4.G ;.n.=.T } 0 ] ;X .w 1.F q F | j.G %.5.H  .q } :.x.I G z s ` 4.} 5 F _ 2.q.~. .F ` j =.=.G l T 4.m.].k.} %.8X6Xz ` P =.` z d z :.f & l 0 & j | 1.1.A _ z ; s I I } _ %.=XN.8 _ Z.Y.N.;X[ 0 & &  .;X2.[ q.).<Xz ` 2. .d + z j.Z.5.l 0 s 4.m.#.:.x.= 0 A H l G =.l ] q.[ S ).,XC.L x.C.Y.=X].1.| l P } 4.A.] 3.:X;Xl s P h.=.=.N.k.d : N.:X_..XC.0 5 } } 0 F =.-X'.F G I q G j.| 4.H ] L.=.& 4.I.,XvX..T 5 ` n.[.;X",
"L j j s z $.*.: d F f q f 5.[.=X|  .n.f f _ _ 0 q d d f | %._ C.=X5.G 5.F.N.H x.%.z P 5.s d ' z Y.=XL.%._ ;.=X5.q.;XB.4 & l z =.z $.z I 0 o | G F ` 4.C.L.4.4.'.L.C.I ] <XZXlX4.I.:.x.L f '.].I  .N.1.F 5.C.5.| | #.j.F G | G z & s d x.:.G w [ ] r [ ] | q = F f ] 6.1.G 5 u Y T F ;.6XT.T 0 = * } j.0 f n.<Xl | 1.0 = 4.T G F f :.%.C.| d d F z + } ,X:.* ` x.L * 5 =.m.&.U g M L | F : L 4._ S 1.).I | lXvX_.] ] S q f 0 z z f =.Z.'.Y.F = q %.z = G 5.l ` z G I.k.%.6.A e 3./.B.= T m.s T ` 5.:.:.:.j T z *.4.=.C.=.0 f q.[.q. .).;.} F d } %.4 r V r A [ ;.7 w ] 5.Z._ &  .$X1.P $.q C.L.| 0 F I 4 l | '.N.k.4.q m.=.d 4.I L.N.f P :.XXK.* > $.T F A.;X1.Y.rX'.z %.T f I %.C.:.j =.1.q 5 j z G F l $.=.0 l G f P * A ;XF.k.T T T & H Z.5._.rX4.n.5.Z._ | ;.l G _ _ | $.5.z ` d $.C.* & G L. .;.~.F.r r I d } n.q q =.l d q L.| G Y.,XG I ` ` } ` P m.T.z c.4.5 z d : f 1.Y.} z L T 4.G z ` G f 4 | l  .Z.B.1.4 w q * H <XtXA 5.Y.5.j 5 N.4 I *.| -X%.} l z j L d s > s F 6.1.] F $.| = S  .1.[ A ;.T * L ` Y 5 } ,XI.K.4.4.F %.[ 1.6.%.0 = d T $.j 1.F f =.] H k.=.G w | G | P T.'.=.%.z f } _ N.Y.;.'.5.F 4.I ` _ w k.6. ._ 0 G Z.F.6.",
"_ j.k.4.$.G P z I f q I 0 _ H 6.l G _ G G 4 * l j.| 4 q * ' T iX'.q j $._ 1.F l } 7XC.6.I F %.'.L.=X_.G * ;.0XH A B.rXB.] A.C.x.d F l } C.C.I $.z f =.` = ` '.C.4.%.d z 4.m..X-.:.x.} P ` } ;.=XrXY.4  .Y.k.Y.C.$.5 0 0 T Y..XT.L.P l =.5.A. .N.H  .V.G %.F 5 0 f z _ G f h y +.:.5.;.Z.C.n.I q 4 =.L.f f 4.` | c.I.1.H _ P ` n.K.I =.4.oXK.=.$.z o I n.I P G F 5 z 6._.4.=.- ; j 4.k.P z s =.%.V.A.Z.Z.0 _ 1.] B.e. .1.%.0 F =.j.,X=.P F T k.} I I C.| q f $.d   } qX1.8 B.~.,.aXyX%.s T T _ A 4.T.<XC.m.m.:.P d } =.T :._ [ 2X&X`.| | Z.5.I P j.l 0 4 q Z.Y.1.N.n.] 1.0 G 8 [ ^ 4 _ m.& q _ l 0 & = * j m.z.* d ` 5 d l %.=X5.C.l f z I C.` 5 F C.` * k.;XN.C.uX} f f } G N.:X'.P Y oX'.N.x.=.G | L.4.c.F 0 %.L.f F %.w [ C.4.= & 5 q H 6.0X>X6.A.].I G G f ;._ q 0 L..X,X=XG $.T 0 G 4 q G ;.N.N.B.F. .2.| 4 | |  .A.I A H + 1._ A F P Y.-X=.d d } P.:.F | -X5.F T 0 * = | 4.h.$.Q M =.f E.z.l l k.6.%.n.4.^ X.D _ G 0 n.rXA.A _ : d d 0 5.= _ $.` G F } z s m =.T.#.s : P 5.] ] _ 4._ q G  .S ] 0 ` *.: s Y s s j |.8X=.d 4.:.P _ A H H F P T.#.X m } G N.N.F j #.G G N.[.).] l ;.} G f '..XN.[ F G L. X$.o 5 C.L.Z.= = H [..X).V.V.[ A ",
"_ '.j.x.L.G } '.T..X%.F L.;XX.1X0XH ;.C.;.I G f } 4.k.` * x z =._ X * z I f z l F T.qX.X'.G | 4.Y.Y.k.l | 4.Z.4  .A.Z.Y.H | 4.G P =.P F j.oXx.$.j T ` x.$.L d = & P $._ z = f z T =.f P $.I 4 ] A.Z.0 | C._ l G + & P f = } %.;.4.d 5 C.n.5.Y.6.q ] A } 5.d q : *.P f } P =.+.N ' } 4 q G 1.7Xx.0 } '.:.z 0 P I =.].C.%._ } l m.} 0 G f } K.K.z d P 5.$.* m l 0 j Z.rX`.B.} y a T P C.k.L s T ..G f :.$.$.P H 1.6.[ V.V.%.| & ` | m.=.z ' ` 0XtXI Z.xXT.;. Xn.| = '.5.7 2.tX>XV.t.V.5.` h #.;.G z P $.= T j.m.m.d l P f _ F 6.>X[ 8 [  .1.C.z * z z f } G q 1.D ] A ;.Y.| k.A.1.q.^ | $.f _ %.n.I 0 s + I P P m h #.F P k.| 4.pX[.G = } 4.0 =.4.4.|.x.* :._ * P C.4.0 q ] B.] 6..X} 5 L I 5.m.I } L.F * 0 P I F F * f F 1.4.;.] | z :.cX XI l = D n.H = 4 ;.0 G F l q | C.:.| 4 F ` = q q 5 ;.1.Y.).;X .4 ;.} l L.=XY.[.C.'.[.%.k.rX} = 4.Y.C.-.L j L $.` C.rX_ T =.P 5 ` I.6.x.:.L < h F f T Y 4 4 ].qX.XL.l  .qXZ.} 6.] G 1.S _.%.: j *.4.z 5 m L _ H } G = d P j Y s x z %.k.H I 1.6X=.4 2.6.1.I & d z x ` O.d s ` T x.j j $.s d ;.= l I F ` G.*.+ Y h. .>XA.F j T f H A.).[ H o & F ;X4.%. .C.6.A A %.T z z z T ;.] e.A.k.L.Y.;.1.4.I } ",
"C.I z I T.d s L $.T.4.A J ] _.N.Y.[.,XY._ G q = f | Y.f s ; } Z.I } *.z l l %.>.' ' :.-X$.d ` d j.,X=XZ.T.$.I f f } d 5 & $.| z P L Y h s s =.x.O.:.T z } $.` z F $.| L.C.%.P j =.j 5 z f C.C.H Y.6. .1X.X4 f >.:.5 L f & 0 5.j.h - u s T K.'.| q %.4.l _ I I F j.T k.I f 5 y y J.} & F d : =.I 0 F $.s ` h.k.4.4.4.} G q } z 5.n.F 5 q ` m.:.z z q | | d * >.4.` $.l f L u U m x L n.,X:.: 0 G ;.Y.I.P F 0 %.Z.P _ ~.tXtX5.s $.G I ` T #.x.Z.6.| } n.=.5. X'.;._ 5.= [ :X$XyX,.H ,.2.G 5 0 d q l T $.j.` z j.` F I l l } A.[.2.] 3.2XN.f ' d 4.#.P ].k.H [ tX;XH _ ] } ;.1.| S A.2.G :.z q } 4.` G ` L j 5 h ` $.m d :.<X;.w 6.=X_ 0 ` T F c.5.C.Z.=.K.uX'.} = 0 T F k..X_.A N.N.0 s z | '.x.= T G = & 4 f $.m.|.=.f P ,X7XI T 5.} =.xX-X* f ] 1.1X1.A ;._.| w G _ 4 C.7X` | z 0 P 5 l z f :.:.x.K.` & x Y m T #.L T T d } C.I.4.k.q 0 K.c.=.T s #.* =.x.c.k.C.,XH G f | L.4.: z T Y O.P * m L * ` :.:._ ` f 4.Y.} ;. .N. .1.1.n.z u *.J.-XI + ; p x f 4.1.r G G x.s.L m L $.4. . .=.f : I ).V.V.[. ...} } z z 0 L $.5 L =.T :.Y I..XG 4 * j U u U U L ` Z./.>XG ` '.;.G w 1.A.rX).| G _ 5.] l [.rX6.).G = } x.m s } [ rXpX1X| f 0 : 0 F K.",
"K.C.:.=.T.P ` =.}  X| | '.1.2.Z.;.Y.%.q f q ;.5.=.F 4.L.d * f 4 %.-X:.z 0 ] z j ` x m -XJ.d 5 : L T.Y.l 5.I._ 5 5 * I s P K.oX$.j.T s #.j L o j =.s z z T ` | f f %.P Z.Z.| I } z 5 s #.` ;.n.%.5.Y.1.Y..XN.` ].4.F 5 d $.4.).Y.m g h j j.h.L z m.8XP 0 L.[.5.1.n.q | G q * ; g Y d 5 m Y & j z z x.4.* s s l f d I qXF _ C.j.G Z.%.z 5.Y.=.5 F = z I G z j 4.=XF 4 %.d + : u : h s = * 5 z 4.%.F I } ` s d c.[.l } 6.e.wX5.- O.;.n.T f =.C.f 4 l =.Z.T l %.} z f ] k.H 2.D  .( r.A.N.L.,Xl 5 _ *.z =.Y.T.5 F _ f T.%.F 1.| ^ w _ ^ 3. .f + %.T.$.z <X1.F rXpXH w '.;.;._ 1.;.[._.] _ :.'.$.G & & 4 z L z *.` 5 z P = 5 $._ f & G I f _ $.I & = w l k.$.P x.$.& f z = I Z.G 1.).C.=.#.z k.Y.=.& o z l z f G 4. X-X-X#.m.4.$.` I * d T | | q C.F.[.;.H <X.XtX;.4 l F l ,XC.} I 5 ` T.` d L F z f q 5 L y h i y + h *.L F z T f & = q & 0 G } P ` h Y s F 4.P I C.4.* k.V.| ` h j $.=.Q ; q G #.*.:.-X:.z * d T j.` '.1X .^ X.6.| q } &.O.u * L *.X 1 #.I.5.2.V q.| z x m s + s 4.C.[.;.+ P C.N.]  .~.6.A C.=.& 0 f 5 + 5 x.J.P P.j T.mXI T j.L U - j j.s d d  .V._ n.Y.4.` F k.C.] I } =.F C.7X6._ I C.C.%.j.=.F Y $.n.;X1X1.A I j.#.L.| f =.",
"L.[.;X).5.,XL.x.P ` } k.Z.1.F.rX1.} G H _ ;.L.:.5.f F J.].F = l Z..X} 5.5.).l 4 5 & * z :.m P j.P } N.4 %. .$.` z 5 d n.rXL.I I C.} z ` z :.f f | %.I 1.C.4.=.l =.C.7X=._ C._ ` } 5 j d :.T.;.4 _ Z.n.C.].m.0 J.T.5 5 f l ` 4.F j #.` z 4.'.K.:.P j.F 0 k.Z.k.N.N.D q._.] q s * z F =.f F h.} 0 5 P x.z + * } %.f l n.w ` $.} q 5.Z.} H %.l T T & = = = s 0 0 f G ] B.e.1.4.#.U Y * Z.n.s s $.$.q T 5 s 5 s %.1.q q H w.1.G h g I } 4 G H k.| 4 d C.` G %.T } $.F } L.w  . .V.).tX$X0XkXJ.z P I = 0 * : z _ n.%.I F l A k.2.7 [ 1.r ^ _.,XG = = l =X=Xw G 5.H I 5.L.6.%.n.1.1.[.6.B.| d ` | 4.;.H G H ;._ 1.| H 4._ = = z f & G =.} l 4._ & G f ] k.Z.$.& P j : * | =.[.1.0 T C. Xx.#.s l } = T j.I | | G ` ` F z h ; z P #.#.` 5 d I %.0 G Z.] 1.n.q :.;.%.4 A k.| 4 6.:.4 F :.:.z.5 T E.h.J.J.6.Z.J.m + < O.m.;.5.=.T C.} _ | F F 0 '.k.q F h.:.P d z F  .7 A H ] G  .Z.z h Y T ` m s >.,X} * :.*.u ` |.s.u z z I ] A ^ [ _ G ` J.P h ; @ j O.@ # Y C.6.w q _ q : h g g h =.].V. .;.F f H w [ A. .w F ` =.z =.` ` j.'.8X-XL ` 5 s } l I XX&.+ u *.Y.).$.0 G %.%.'.[.F F F I C.F G _ ] I l G 4.P G I f A | 6.6.Z.L.=.L.6.] F.B.| I Z.N.=X;X",
"J ] _.Z.N.L.} l ` =.=.%.0 A B.1.1.Y.4.6.;.4.} l 5.:.F T =X].F } <Xn.G %.A.[._ l Y *.m z h F 5.T.F 4 q H H k.n.z ' z.f l | Z.Y.e _ N.P F 0 = F H V.B.H 1.} k.:.k..Xk.;.l l 0 G Y.G = =.Y j m.n.= ] '.Y.z f P L I.m.j } 5 : |  Xx.0 f 5 h j.4.:.F f ` P 0 c.C.,XV.=XH ] A.<X'._ ` n.;.,X.X5.z ` ` } T.uX,X=.4.T.6.| P G A Y.n.H q ] Z.F.H T I T d T >.'.x.:.T } ;._.:X;X&X>X5.} u u L 5.c.L h %.4.L s x u * d  .] L.=X`.%X,.A.l.a L 4._ 6.A A 4 o ` j.0 l ].,X} } ;.F G N._.N. .3.~.2.H P * d C.4.q _ | d T ` w F | l F _ n.;.6.w w ] H I C.] ^ 6.N..XB._ %.| q | $.Y.=XI ;.%.7 1.B.7 f $.z C.C.| Y.] 7 _ H * 8 5.sX_ * 0 ` } x.5XK.T P k.4.f ;.4.H 5.} l s Y * - :.Z.I  .C.I I $.T P s * I | %.} =X} f f q l F z $.j - L : s z : h O.%.)..X$.G G ] _ * ` '.n.H Z.Z.F l F q = J.].z >.5 ` T z l.` |  X=.M m i h J.j.=X;.l 4.G .XMXF | N.'.Y.6XK.z =.T 0 = I 5.o 1.A.7 7 6.'.0 L u + * - x.-X$.0 X d 5 5 ` Y z I ` _ l r { B.V.] l >.d 5 x h - :.` < i L ;.Z.;._ q 0 j : ; u :.P.5.| C.L.%.F } A k.pXY.0 l L d d h.I } oX$.f G } :.P L o l l d L Y s P | G f j = 5 } ).n.%.'.P * 0 l P ] J l G f s z z T F _ %.[.F.N.5.0 d F A N.6.4.6.w S [.V.",
"e.B.L.).] F z j.=.-.'.G & = J A 1._.1X<X_ ).N.G 6.` >.T q N.Y.l | | F q ] 2.[ l P *.m u 5 0 z 4.d ` l ^ A.Y.G z :.P.I F 0 n.;.+ _ Z.A.iXZ. .'.q.A 4 A.] _ k.4 0 d f _ I I I 1.f & 4.T 5 5 d ,X5._ '..X` 5 * & $.&.z : } I.'.I.%.f = h d '.k.F * P #.:.$.%.$.4.} :.0 * z %.] H 1.rX5.l 4.` * & C.x.4.=.=.` qXxX'.A.5.V.;X%XwX#XV.q.1X;X_.6.` i - :..Xk.7XkXG k.6.1.q.J J 0 5 s d h h = l d j Z.| ; ; ; s F P 6.1XrX,X).e.;X8XO.; d %.=X[.Z.I w B.V.<X} = 0 ] H H 1.N.=XZ.5.I * l =X1.G | Y u N *.4.%.F = z I n.Z.n._ G ` ; P _ } ).N.F ` d G $X_. .A.A.| k.k.z d F '. X$.| 4.H 6.B.7 G F = z d & _  . .N.4 4 1.] | f 7 0 T I K.L.0 d } 4.x.k.} G f 0 T P s m - m =.z l l .. .1. .F x.Y j z '.MX<X ._ C.I & l k.T._ 5 s 5 : f } 5 y h } F.].Y.H _ :.d + 5 l I N.tX>X8 G I P l *.` * h 5 O.L P m < ; g v p M Y u j 4.4.G | l 0 F %.n.1.k.q A | T * = ` 5.0 = q. .D X.D X.[.n.z s u s z =.XX]._ 5 F F.] F z.m *.1X;XC._  .^ 2.).I } P = F I x.} C.I 5 * 4.N. ._ l d 0 * 0 $.j.j.0 5 ` ..P | | N.6.4.k.| '.c.P P z j & : + = ;._ l G ` C.L.%._ | L.C.=.L F f = f I.} 0 I l $.K.F P = * 4 ] ] _ G & d =.j 5 I | ;XA.D l l f K.Y.Y.l 7 ).&X/.D J [ ",
"S 3.B.I f I } x.L z L 0 G %.H | A.5.6.I F 4.5.5.0 G j.5.N.4.G 5.].%.} _ A 2.F.F h h h P | | T _ G F H H <XY.q _ ` #.:.I '.K.5.q q F .X'.;.5.L.=Xn.[.].7 ;.Y.} $.` %.[._.Y.'.] F %.} z P q = n.L.4 } z 5 s u u : P #.s F P q * 4 = f h : %.qX'.P x.T m =.` f 5.Z.j.%.I 0 G _ N.] l q f F P f 0 f I F d z h z | f q | _.n.{ B.`._. .q ] ;.A _ i +.:.oXF 1.I P N.6.e.;X] = = T Y s i m 4.4.s :.L.} ; < *.x.=.4.l H | n.H A 1.H : u P F G | } q w rXtXZ.L.=.} Z.pXA N.[.} } G z * F 4.F =X-Xz h G.s.P } I Z.].L.uX4.4.6.G : X h z  .| l } ` I ;.1.[ 4 q q q 0 } ` z s j P j.F } 4.6. .1.] I ;.4.*.m.j.I [.<X` J.=X .| n.;.f q & F j d K.'.Z.f f 7 q G I $.=.J.Y o : s j.5.f w A 1. .$.:.O.h 5 :.Y.pXrX] 4.$.q l _ ] ;.4.$.5 K.I.T d y : Y.B.} L.;.Z.j.:.= f l 4 ] [.6.w ] I & } '.$.5 s 5 h : #.Y h , O g b Y s P P.n.%.T f d | G q 5.].| l G = F _ * J.lXH ;.n.F.A ] F.6.B.5.z 5 j z $.` $.} G z H `.V.T 5 ; 5 r ^ Y.n.l H 0 4.L.K.} f l l L.` = d F f 6.1.6.] l ` $.l G 5.j.P = = s L G .X.X=.| } j ` .X4.F d } z T f 5 z f & * } } F Z.n.] ..2.=.P L : L f 6..Xk.0 7 ;.'.5.;.G f %.I  .1.V.4.f s L j c.G f J A D V.w $..X1X[.6.B.V.`.>XB.).V.",
"3.3.1.B.1.2.Z.z ; b h j O.x.G $.z * 4 4 Y.[.;XpX| ] ;.5.C.5.x. XT.' L %. .q.>XB.5.| k.oXY.} [ ;X=X_ q = q 4 } Y.$.0 L z z ' d 5 z d F ` 5 L :.5._ _ | f * z ' j.:.} 5.5.].,XF _ 4.$.4.4.H 4 %.5.G _ 0 C.L 5 #.L : =.k.} j.I w & G L s T = F L s j T j d %.| N.1XV.[._. .;._.%.l =.z h.:.| L.L.I l C.j.T h F T $.z : h * z ` J.f = = l 2.q.w & s z 6X;.I C.6.S [ 6.1.S 4 4.T s #.m $.4.5.: G.C.* + ; j : = ] k._.| I P l I Z.L.C.} z ` f f P s s } P } ].c.4.6XL h.h.5 P j.P 5 :.} F $.z 5 * h :.z q %._._.;.%.f f =.4.: : x w * + } } q f _ | F.A o q  .] G o F d 5 0 = q ..| J 1.A.w q j.=.h ` $.0 * z ` :.j.4.=.'.4.f %.G } } z f G d P } _ | Z.5.Y..X'.f ` $.` I .. . .e.^ r f d j s s 5 A ^  .H w f G _ Y.$X[.N.f ] ).rX).5.& s m.5.| | C.Y.$.& } C.n._ _ l A n.).] 4 n.0XN.f d P x d d h o m j.J.=.w %.C.C.1.= + + z m.K.5 5 j.%.;._ Y.;XG T G.m j 4.5.N.B.r S 2.0X=Xz = d l 4._ P 4.L #.| V.[._ s * l q.r %.:.f :.` T.:.P f 0 0 G :._ 4 f f |  .q ] 1.%.].7XuXN.] A._.1._ L u f qX].P #.; ; g g ; T : $.:.T q 0 q q H 7 } n.;.I N.pXrX] q j i u 5 l ;.6.B.).).N.Y.6.n.H k.,X .r A.[.Y.I.P j x.'.G = B.~.,.1.k.G k.pX2.Z.'.I ]  .H H N.",
"H D [._.[ [ =X-XP.*.s s z :.G 0 l I q | ;.1.;.n.H } %.;.;.I :.:.z z ' I.5.q.`.`.2.S A | [ r S F.[ F f d I m.Y.Z.$.I z ` z z $.:.` j.: j : d z.d 5 z = 5 : s z 5 T z G Y.I.G F H z z C.Z.| f = :.qXY.;.;.I =.m j :.L.<X7X].k.,X].=.:.z x.f : L g h Y - * l G 2.).0.o.`.~.7 I k.4.-Xm f :.G %.k.H I K.z.l.h * = T.I.h h h M Y *.T #.$.6.$X .] } ` s T f ..;X2.6.6.2._ 7 w %.} L m.P X } <XP.` P F j i u L F l ,XL.l G 4.$.C.C.vXrXG G ` P z T :.T s + f T q f L T s s #.P Y m m P.s.5 & z ` | l 5 & | =XA.S q l F d j F %.h d 5.N.2.G } %.} w 5.;X| ] G G Y.C.I P z ` 0 :.;.f ;.1.w 5.;.K.'.m X * : * z 5 s #.z 0 : l * q 0 = 4 = 5.f = G | f 0 =.qX` j.j.f } x.=.c.].'.C.1.n.| q H P j L m >.k.I S  .| q _ 4._ 6.[ l w G l H 6.} z P z * F =Xn.| j.4.4.%.Y._ l 5 d m.K.4.] A | N.G P z.$.F d P m.` c.'.5.1._.B.Z.;.f = : j.uX Xd 5 j.oXF 7 A S w *.Y 5 f = 4 H N.3.%XF._ | 0 X 4.C.,X6.5.T :.$.>.6.S f l = f [.B.l j L :.z F 0 5 5 5 0 L.iXx.$.G 6.).,.[ w q z $.L.mX6.( 6.w 7 l : z x.k.l d u i ; g h y &.s z s d k.Z.0 f l ] | G n.rX_.1X=Xk.f m *.` * = 4.;XuX4.| I N.F.,.[.B.[ 8 ( [ | ).=.. Y P.l I f ;XiX[.A ;.q 0 A w I I l 1...w q 1.",
"5 F } T 5 l %.I.zXoXT $.5.A.).J ^ _  ._.| * F _ F G l | _ * 5 z z h P P 1._. .,.e.).D H ;XN.A 7 4 w $.` X m.L.5.f z z.K.>.* j d :.*.z #.: 5 ` *.T.m s : P m.*.z I f ;.1X_ F ].Y.4 * l 4.Z.F & ` '.C.n.q C.XXj $.].L.n.A.1X1...6.C.=.f ` L P L Y h b Y s = G ] { ( B.2.S ^ A.k.=.I.m : : 4.| 2.H w = & L j s 5 4.j.j.L P 5 s.P L j.=.A.[.>XZ.:.:.F F } [.7XN.6.>X] A 5.7X,X X:.+ v g z J.I.$.B.H 5 - d =.:.} '.:.0 F 4 ] [. .] [ 1.| q F H A | 4.} } 4 = c.C.j : * j T m h - @ N N ; < h j.:XwX).I Y.;XB.w 4.G P s + q _ + = k.=X5._ | n.X.q _ _ n.[.l A H _ x.C.J.-.s Y.n.q G G %.0 L E.*.o - h s.x.O.j =.T j j z :.I 4.` G F 5 G ` G = | x.0 z j.u h u x O.L * z T z s x : < m ;.0 : s #.5Xx.q n.Z.:X].;.B.n.[ 4 ] k.Z.B.w A 1.Y.#.d d d Y.N.F K.} q H  .4.=.z.@ y Y M 5 5 } G q _ z * 0 0 f j.P P f F k.4.H %.} G z s F } J.L z :.m._ l A S A._ q Y.;XD _.~.3.`.{ ] l * I 5 4.1XL.| F G z L 0 f A F ;.4.0 q =XoXI L ` d 0 P | I ` | =XqXK.Z.I | q.2. .n.4 u P G 1.e.w A D H S A C.:XpX2.w G T * L s.s.U g u U j.:.C.:.f 0 l ` I G '.%.] I 4.d T :.$.:.F f } $.f = G ;X1.B.6.9 ( w N.N._.Y.z + L x.Z.<X7 l B.2.6.| G F 2.1.] ..H _ ..N.F q ",
"s P I P 5 q * q =.I.F I I 6.B.6._ X.l G z T I ` } P F f * F Y.m.' T I ` A =X$X{ &X~.^ $X).[ S * ;.Y.j.z 0 Z.| %.<XP x.L I P =.' L 5 d L 5 * 5 u x u o + =.P.#.P d z 5.Z.:.;.Z.A.%.= G | I l 4 5._ H | 6.z z ` 4.G G _ _.1X1.A 4 f P | F $.P #.s.L h T h.4..X<X .] tX;XV.Z.Z.} m.C.z j 4.c.,XY._  .} z z Y j | ].%.L.T.} =.T * 5 f I ]  .N.;.F * L j P | 5.S 1.B.w Z.rX.X` = 5 m W U d | =.].NX .0 5 z #.I 4.j.#.} f F Y.).w = n.[. .;.).;._ ;.] q } Z f P F f } d } P s x h < < , p - T.0X6.o.3.} z %.w l  .I 5 + & %.1.& d | Z.6.1.| B.A.4.5.T l F 4 _ 1.I f =.h.d * : =.} k._ ..'.} s s s ; * 5 P m L T.F d 0 5 ` f 5.%._ | C.:.P z ` z :.$.5 g ; y m j s z j J.O.s ; < + < O.] w :.*.L 5 z j.6.| S 6._ B.$Xn.f ;.n.k.Z.f 4 F 5.J.T u F | 4 ^ D f 5.1.l q z v y % y g x ` z = =.'.5.G _ 0 } :.=.z & $.G 0 A P q 0 z P 5 $.*.G ` ` f } ] Z. .F G | 1XZXX.3._.&XsX).;X] '.xXY.4.C.C.} 4 P d q I k.<Xn.%.A. .} Z.6XY.| f = P =.L.4.I 5...k.I 5.k.:X;Xe.e._.P ; h 0 B.;X1.e.Y.6.%.L.L.6.,. .[.n.* & j L #.#.M v g d z z d 4 | =.P F ` '.h.P ` P 0 ` z f =.j.z = j s P P P  .6.C D V.,. ._.1.= : ; j #.].6.l 1.{ e  .N.P $.).).%.H N.'.'. ...k.",
"T I j } _ ..] _ s j =.z C.Y.c.=XY.5.f q I ].z 4 f 4 F 6.G F _.Z._ f } n.} Y.q.q.e.D [.tXG l G l H ;._ Z.n.] w 4 C.=.+ ` >.T.mX-X9X=.f 5 } I 4 d i n < u j Y =.#.d z 6.| ` l 1.2X5.l d & 4 + f =XtX[.A.[.;.d %.| l %.A._.Y.<X).5.0 5.<X..z :.z z P ` T ` P.h.f f I } 5.K.| k.'.Z.G f } |.h.f T F H G P m *.m G 4.1.'.5.5 s s @.z.T.1.B._._ _ m < *.` = f ] G J 1.w 6.A * l P Y s : h $.| * F L.C.F : d =.T L : P  .6.5.C.z & F H n.tX1.;.q ;.Z.%.C.).%.} = 0 4.4. .A.%.%.4.z U h h ' T #.T.` l n.Z.f l H 7 l ..| z P  .6.m.I.Y s _ 2X_.pX1X_.I d ` A.A.Z...4.P P #.I z XX.X,XiXN.:XnX[.l _ _ P j. .l 5 z ] 4 & d 5.F f & =.=.G =X=.z L x.} 4.C.J.j : h : > T I k.-X4.0 s h + < O.$.N.'.h m - m. Xz } X.q.X.q.z Z.j.z =.f f 5 f d F P ; y F q D B.$XN.;.G ` P z : # c n m z.L.'.k.0 H n.%.G G =.].` } } C.Z.6.4.c.G 5 } } z m.f } Z.n._ I n.Z.` F P d | ;.F ;.X. .(  .] G C..Xj.d 4 } $.5 0 _ L.N._ 1.Y.n.| _ q.=Xj.m.:.P _ C.'.I 7 ] H 0 H F _ w 1.~.^ V.<X,Xh + d L.k.%.Z.I H } T 0  .6.1.'.:.u T 5 } K.} T ` d : h m z 5 d 5 x j.m.$.` T j I m L s = 5 x.F = : g g ; f 5.N.,.%X).J H V.[ d ` s 5 : 4.,X_.[ 6.D e w l '.N.1.G H f ;.Z.J V.`.",
"P z F =X;.n.rXqX#.m j 5 $.j.m.h.m.4.C.5.6.G f k.%.0 C.Y.n.k.l f 1.| ).n.4.k.4.] 5.A 5._ } | 5 w G & [ ).B._ ^ w 0 ' s P d ` j.m.Y.5 * _ Y.2._.=XU M b g * j j : L f ;.} _ ;.).C.| $.5 j z ` ;.A S ^ ).<X;.l $.5.| 4.). .] C.%.%.:.4.Z.%.z x.c.:.I.C.P d h.d : d 5 5 m ' I I _ ..G F } 4.|.s f = H f F z Y m.' 0 C.Z.d d 5 & T s.%.| 2.6.l z g y z d ` L.L.6.2.N.1._ H f Y.Z.F z * & F } L s & j L d z #.T s d T [.V.= * - : F ] } } l * q } J F N.k.G F Z 0 ).B.A 3.J N.I.} h v.*.d z f l f G | I l | P G ;. ._ F I 5.H ` s.i i T ;.2.).;.1.:.d P 5.6.;X%._ I C.5XT T C.P f A.;X;X2X). .D l | [.1XH f Z.G w ] I L.).G f '.} s P L : * d T =.oX} & z T #.$.| %.'.Z.G = P.=.u ; Y G I $.L x 5 : *.-X].bX].2.0 * I ` z x.#.T 5 P x.4.F < ; z [ ;.] o.q. .4 4.T z :.z.y @ z.n. .,XN.& G ;.F A 7 4 P T } x.4.lX_.w _ f l f d K.8X'.%.].7XI _ 5.;.F >.z ` n.n.;.w _ 1.4 A [ G 0 * = 4 z f ` Y.L.H H Z.G * ;.Y.2.1.2._ } ` m.n.;.C.=X6.| '.).|  . ._ 7 7 H S X.Z.5.L s.z F G G 4 k.;.o = G  .%.l * + : T z f T l P j.T 5 h s.*.s ; * G.*.j x L L h.=.P M j d f G N.%.} s.h - I -Xk.5.k.).| 2.:X6.=.h.P 5 T C.;. .1.2.] e H '..X1.%.l 0 f I 1. .6.1X",
"l H w %.;.A 4.:.j u m Y 5 z j } :.` _ N.Y._ %.k.5.} 5.L.'.4.0 ] ;.l A ;.5.-X'.l 0 I ` $.9XP.I Y..X .[ ,._.N.8 ] k.q : 5 s d L ` f T l 4 ] [ 1.5.G 4.j j ` =.$.:.:.5 ;.;.5.} I n.L.G 5 j.T.:.l 1.N.A 7 Y.;.4.Y.5.l | n.d & ` | $. Xm.| H _ T.].N.z 5 = 0 d j #.' T =.G.j.F 0 ] [.| f 5.].:.` A F ].%.G *.#.m Y *.L j G q ` 4.5 = k.l | 5._ 4.:.L & z :.$._.A A ;.6.;.I |  .N.D ] I.h.4.P L T + d P #.4.s m i 5 P L.6.] z h U z ] C.6.] q I C.0 & = = * =.4.%.;.2.A q.q.] q d i N h + 5 I 5 G 5.n.Z.F q } n.L.I = l n.A.F d h x E.m.T q A 7 | ].I & P G A 0 G f s.T T m * j 0 n.4.D ^  .tX{ ) 3.{  .F _ d q n.n.| n.Y.F %.F m h s j T.:.= s & T z 5 z | z :.n.k.Z._ w | j.:.u M x q _ z m.-X#.+ 0 :.;.I G w 6 Y O.j s #.:.m i j.J.:.#.p h T F _ G A ).'.5.).N.=XP :.Y h f H S 7 ;.A H =.=  . .& : L d j.G 5.A.;.D = 4 * d 5.K.m._ } 4.P I ,X=X:.` d _ 7XN.L.| q l _ =XY.6.I P z j.z.P $.m.xX[.G H = q f q q 1.).1.I * = * G 7 | | G '.G ] n.A * 6.[.F.2.[  .4 $.P.:.m.z f c.C.%.'.6.6.7Xk.d : z s.T L = s q $.T d 5 h M h h x : z } d *.s.h d =.z u u : G | A 4.7XC.z * F =.F ] $.x.} '.L.j #.T P T.6X=.6.:X;X| I H 6.L.4.I ] _ G f | 6.;.6.F.",
"I T F f J _ f f ` ` $.L z 5 z * ` C.C.| } 4.Y.n.%.Y.I m.5.5 5 l l w 6.;.| %.H G G l + I m.=.z C.=X1XtX%X2XsXN.w q.1.K.$.L I *.#.K.].;.7 l H 2.6...G ` L | C.:.=.z 0 } Y.j.f Z.].` 5 } j.Z.* 4 =XbX .q l I 5.1.H 0 P k.P : F j :.h $.G %.4.N.[.^ = z d :.j.T ` T s : * s 0 I n.] w = q _ C.].'.4.n.5.].lX` : h L z *.m.T 4.'.0XC.I 0 } 7XL.;.T ` T z ` 4.4.J N.).l & H ] G e A B.oXT 5 :.P ` m : z P d > - g j ` K.Z.L.-X*.  & G k..X,XI 4.'.$.j #.: | 6XC.1.J ] 1.<XF.] l & y ; @ ; } } 5 P 6.5.l q } $.T I H %.f G ;.F l & d 5 j #.l q + n.Z.4 m.:.| N.D Y.Y.#.m P 5 #.T T.<XB.F. .S V C e.eX%Xf f q f z Z.%.= 5.5.H 4.& 0 5 L u :.I * 0 0 :.I | d l 4 = H G 4 = A k.x.I :.L d ` %.I 4 %.} _ N.%.G H =.d z z m i s l z X s j _ G * 5 T 5.0 :.5.D S l F 2.2XN.G '.j.m h | [. .^ ;.} f I _.rX| ` F z %.n.G 5.$XY.} q ` j.j.| n.Y.[.L.G 4 F _ Z.I l H I G 1.n.;.N.).=X_  .G F G f T P.=.5 %.6.Z.%.P :.:._ z w k.4.m.L 5 q q ] 6.6.N.2.l  .1.1.1.| A.| ,.e.V.2.4.x._ 4.4.4.Z.5.'.lXB.B.A.] s d T J.x.5 F ` G K.P.I * T G.j.z _ q ]..Xz h s s P z T Y u T ,Xn.G H 4.'.} G _ A f ] N.:.=.=.L.5 . d f z | '.V.rXiX%.| =...C.qX).| | } _ _.Y.^ _ ^ ",
"z + s q f 5.| ..4.h.4.F 0 * I =.F ;.} $.k.n.].,XT 5 } ` I T ' : ` m.%.5.N.] 4 q.rX].L : & & G f q 5.q.6. .1.Y.[ { &X1XZ.z.L #.d l ` ;.Z.F ;._.] 5.P C.XXm.m.m.C.:.f | I l _ G q q d d l I _ H A ] H n.H = | _ G + + $.j.h.T : x.*.P #.5. .2.r.B.1.%.Y.qX$.F Z.:.} F d = 0 4  .N._.F = F } } $.4.].Z.G %.z f z ' j.} C.P = f =X:.q ].oX=XC.0 q L.n.%.m..X| 4.[.).H ] | _ N.F ;X'.G =.K.m.` s s 5 j L :.} : : T :.` h } m d z | A.Y.` ` P d L.P L ` * } x.G _ Z.4.N.;.).<X5.' T i *.:._ %.` d q q & l C.m.z l G q l z F n.Z.G l G l } q 4 * ` L F Z.A 8 X.wXfX_ & 5 f } $.'.0X1.2.2.r S ( o.D q.).q } l T :.:.| X 5 j.6X= z f f T F G & * z n.k.%.:.P } P o I ].5.H } I ` m.` h z :.} ;.A 5.,.V.).^ ^ _.L.>.>.s h ` *.4 4 j m + _  .^ G 6.B. .f ;._ I :.f f n.;._ 6._ M i :.:XB.A B.Z.F | .X6.I '.m.T n.n.q H C.;._ 4.=.C.} m.Z.| N.<X$X3.2.6.2XrX^  .^ A [ 2.A.]  .H 4 G l ;.F X * x.O.5 P f =.` Y :.*.L d : f _ $.| | _ ] [.;X2.V.^  .;.G ;.6.w  .V.{ D.^.D.F.] =.| G ] w = k.J J rX1...0 d : P ` z | N.Z.;.6.q o ` n.G q _ %.N.Y.k.z * j C.=.G L j $.L.L.6.& l .XA.A H 1.`.6.H %.'. .1.} 4.n.[.=XH w A ] _ f :.} =.n.'..XZ.'.k.n.=XY.w 5 l ",
"x.x.: 0 G C.'.;.0 f ` P $.4.I %.P 5 %.5.d _ } G | } $.T $.} 5 z m.>.| ;.6._.q.rX0XY.j.j m z.uXC.| H Z._.| ] | [ &X&XN.F x 5 d *.m.=.F T k.$.P | 4.d = } C..X` | } | ].m.f =.5.d m.m.5.5.;.Y. .7 [ [.Z.l 0 G F w q 5.L.C.,XoXI h.G.* s 5.Z.B.r.3.N.k.C.} H 0 f _ Z.uX| H N.[.[.V.;X1._ l H l _ c.G z T =X7XY._ :.F F z * 5 :.%.f d m.z ` _ I l 0 ` I } I G H } Z.f q 0 = f %.-X5.:.m.#.T oXP.L : z #.C.I.d 5 m.=.d j ` s 0 K.;XL.T d & X 5 z 5 4.qX'.+ F I G ..F w | n.;.$.` u i Y T F G j u z F f l F I T F ` z d $.C..X1XVX2.D G A ] n.` m m K.B.8 ( /.r.{ _ n.} G _ w C._ S X.( { B.$X>X .G 4 0 l :.z z j.m.z 5 *.=.=.4.I 5.k.;.K.j.n. Xk.l f _ L.0Xj.4 F k.iX5.;.Z.:.z h 5 s I ` 4._ D ~.e.{ o.X. .A l m.z : & P N..X` & `  .B.wX_ 1.,.,.n.m.Y.:.h : z .X$.* ] ;.- a x.n.,.tXuX` T & f =.q ` | q | I 4 w G * 0 T d P P G = F A N.$XV.).;X2.).B.,.)._.>Xr ^ 2.n.n.w _ ).5.$.5 u s i O.=.z ' $.: 5 ; + u s h.:.G q  .N.1._ ;.V.`.,.r 1.Y.Z.=.0 0 B.wXr.aX&XX.7 L.=X%.P 1.k.6.w  .] S _ '.K.z z 4.N.= 1.A.A G  .G %.j.` G 4.N.6.C.=.z : j $.XXiX:.T P d l F } ).[.`.3.3.).%X . .rX[ | k.4.rXN.1.A.1.4.).| ] } F } k.4.f I ;.L.'.q.q._ = z ' ",
".XL.} =.}  X=.j.:.l '.Z.Y.,XY.= l %.5.,XL.} l _ %.$.5.d q $.f 0 z _ T w ] ).;X_.N.].4.z :.j.L.=XxX=XY.n.| 4.} I 5.Z.' + j m 5 m.,XZ.z 4.T 5 } z P :.} h.F T P d & * =.| l _ 4.f z j.5.j.F | [.5.6.A.n.| _ _.n.F q q F n.%.Z.$.F 5 d %.].,Xq 4 ] 1. .4.w l H 0 | L.} 1. .7 1.~.S ( w  . .1.w w F 5 =.L._.A._ L #.=.P 4 z :.5.T 0 f q 0 ;.n.6._ | l & l G 0 q z | f I x.j.$.T #.J.` L z : d :.:.$.s f } d = $.Y.T 1.5.} f C.j.O.#.#.T 5 *.x.j I kXZX` 0 P } f 0 C.'.uX:.P } x s I z 5 5.5.& 5 F z F } l | f T F 4 + $.=XY.A.1.B.$XA.| [.1Xm.+.j.5.] ( eXDXF.f F -X0X6.7  .C.l q ).F.] F.X.] C.%.l q F ` * 5 z T ' 5 & 5 =.<X;.n.N.' O.L #.*.T 5 : ' m.5.I l 4.| l H 4.Y.4.d d z j.5 q ).F.{ D V D eXdX2.3. .q | | 5.| q.=X'.' I A 4 A _ Z.V.3.B.2X,X` u P ;.5.* m.MXuXU ; d Z.~.).z.T j h Q @.: z l F l | I H | } 4 z T.:.f l q 4 A [ ~.t A 5.F.:X .r ;.;.q f w 4 A G l L.6.%.j.s P m s.kXP.z P T F s s U Y y i z 4.q.1.;.A.;.H ;.] D q } T d d 5 ' I ;X,.q.$Xl = G | 4.C.k.C.l G Y.Z.1.=XZ.f + G .Xk.w G A 6.6.).;.6.;.l _ j.P 4 ` I T h U m =.J.=.XX#.d j P .XlX;X] 1. .[.;X1.[ [.1.] I 1.rX=X] _ P L..XZ.C.).).7 G I l A 7 N._.;.B.A.^ F.=X",
"H H | } :.$.j :.x.$.uX.X7X'.Z.k.%.| I Y..X4.I Z.;.%.Y.5.5.'.L.| L.%.5.5.;.6.w 4 | %.T L d $.%.4.%.} Y.m._ P l 4 q ` m : h #.5 } :.G z ' d s O.z ` #.I.L. XT & = f G ;.K.=.I =.#.* : d z G q A.A.| 6.n.C.H 5.;.l } l 0 = l 1.q I ] 4.=X=Xn.%.].Y._.n._.H ] <X6.G I l I.5.* G _.).;XV.B.6.[ J D w j.*.f A A.4.h Q `  X$.G F | P :.:.` ;.].6Xk.I [. .| ;._ _ f P l 4.K.5.=.l.s s.P.T m.m : s h.:.z G C.} T k.1.4._ } l F 7 ] %.T + P T z K.j.f = 4.} 7 ] q } F f 4.Y.C.P d 5 d } :.5.%.n.5.m 5 x ` ` F P f T n.%.z = F G %.| 5.;X6.l %.). .* M j._ w S &X^.n.l j z N.Z.H <X6Xz I.'. .6.1.q _.n.} 4.%.I ` G m.=.j d Y u m ' k.q r = s Y y : m Y h s F = ` _ f Z.} H ,XG ;.T.' h  X4.l | n.Y._.] | D ).V.;X2Xn.Y.K.K.].A.).N.Y.f F 5.A l l 0 ( <.S 4 H = L '.4.).5 $.A._ u x F n.V. .5 : P J.f.X : 5 | C._ 6.N.%.` f q z :.z l $.f l H ;XF.D 2.n.q l q G G l n.;._ I Z.'.k.F w q } x.` + m P ' T F G P P d z s - + =.].2.]  .;Xn.f I 6XT.q ` d f d L j.$.Z.[.8 = 4 q 5 d q f q I _ f L.Y.;.} } } f 4.5.G f = f } |  .| n._ q d P P d * P U g ; U m j =.T.Y : L J.k.1.6. .S D 2.r N.B._.Z.C.F J Z.f & %.m.` T I | 1X;XJ ;X[.q l q H Z.$Xq.6.Z.;.Y.",
"c.} I C.j.P F I =.;.| Z.] n.V.C.A H k.| _ 5.| 8  .A ] 2.F.Z.q.5._.A.;X=Xn.H l _  .G 5 F :.$.5.;.I q = #.m.=.z f [.>X5.: u d T f T :.>.` ; - : j F 0 4.=.5.G d F z I %.n.Y.Z.Z.' P 5 f d G L.N.2.F.5.7 1.] w = ] ;.n.Y.;.w _ | l f P n.w 4 _ q.[.2._.A. .:X:X1.} T :.f f $.;XY.6.1X).3.A.).V.S A.6XG 7 B.B.G a y * C.C.z ` *.z } j.j.I.>.| l = _ _ } F l P L 4.F f ` 5 5 j Y i ; h.x.: o 0 $.} l %.f * ;.F.6.N.'.z : 0 l 6.;Xl.h q ;.'.I f q = 7 ] [ ] _ } =.Y d j.:.5 s s >._ ] 5._ [ C.L Y *.| } Z.j.| } } G I 5.n.z 0 :.XXm.L : L 6.| h * L.sXF.V S B.] * , @ I F 5 #.I X s s o z f * I H | _ | = $.*.$.I J.J.d 5 P =X'.6.n.I ` ' P z :.` z ` G =.Y.G I | Z.,XqX_ = 5.T.$.I d l 6.G G z L s : ` ` } z ' *.j.E.%.5.6.| $.4 F F.=XC.d d I k.>.n.;.A 6.Y.[.F.7 | _ z Y $._ B.).q.` 4 [ >XqXT 0 ] 5.q.;.0 T z 4 F ` P = G z z :.w + f l l | n.L.L.'.'._ _ uX;X_.).2X[.} I q _ k. X=.T 4 f ].=X[.n.6.Z._ _ $.d & d $.C.l l -X=.+ : m m d z P.J.z.C.& ;.>XyX{ 9 ] I I =.f I } Z.ZXP G f 4 k.C.} G q oX5.H q * q l 0 4 l 4 l I d h Y =.d + L s s j $.x.` m ; P $.I %.w H _ 1. .] ).%.1.K.O.s q f I j.] ] L.` 0 = S e.] 6.%.4 = 1.H H B.fX:X;.4 5 ",
"K.z } m.;.k.,XZ...H 6.6.0 f q H | H 1.1.1.q w = D X.( N.] X.~.D ,. .1.6.4 7 0  ._ F z P Y.4.| n. X,X5.:.*.T.$.| _.V.] F d T * 4 z q z * u z u d F =.=.f T f f L f F G 4 P 4.' L d & ' z } ;.Y._ Z. .^ 8 S 6.A | Y.Y.=X5.S N.).q I T 5 I _ * 2.[.7 q q H %.;.k.0 5 d s d f I f H ,.D 9 F.).;X[ N.j.q [ V.2.G @ # d %.I q I f z J.I.z F : ' P } F l 5.I l } : s L 0 f d ` h U - : : 0 F 0 q f f | N...4 f ] S w f h O.O.%.~. .z h.$.| L.L.'.] 0 | [.).] } _ ` T U u d j P h z G F.1. .H 5.I I.K.= G _ q 0 z l | G N.k.l * 4.m.j u 5 * 7 7 5 ' _.1X>X] 6.C.F d a y >._ 4 0 x s ; u * ` ;. .1.[.1.w ;.z P 4.J.m.I.h.: L ` d l 5 4 q 4.:.T.$.5 j.4.z ` T.k.0 C.Y.L._ | l q q P 5 5 = ).).l G L Y u s j 5 ' T : X T ` q ] A D _ f w ] n.%.f 4 _ %.d P 7 8  .n.F.3.] k.C.| z P 1.q.G w G _ F.N.| uX;X[.B. .H = I j.q _ $.q = f 0 T } A | N.` F T.j.K. X} G H ;.[.F.1.H N.w _ =Xn.| G f 0 :.P Y.<X^ F.)._.G n.].:.$.5 f P G f Z.` #.*.s j y : 5 z F 5.L.G D ).B.H ( A.5.4.=.:.%.oXL.} 0 4.4.* 4.P ..Z._ C._ F z G _ z z l ` =.=.L P + * x * d P 0 G =.` F L Y u . h.qX6.A f | ] ] k.Y.q & 0 s j f & d ].).>X_ q G ;.1.,.6.6. .G w  .w H B.B.F.;.l d ",
"l _ n.k.Z.uXZ.V. .4.[.J J ..1.A.L.'.=X=XuX .7 l 1.B.~.F.H 6.6.( ] A  .1.* k. . .Y.= | Z.m.P 4 _ ;.x.5.` j.$.} } X.$XN.D r w G 4.} & * s P T.m.} } j.4.=.F d T #.z T } j.} q z x m m d X = 0 j 5 f 1.,.e w w 6. .] 6.Z.N.6.'.C.| n.=.n.T.].H I | | A ..5.%.F H G | =.} > z T 0  .#XV.F.} j #.h : j :. .D N. .G T F } l 5 I h m O.h I d I T.4.j.z F =.I.T.L.5 & G ` 4.I $.=.U - h f 4.%.%.Z.| k.L.7XA.%.[.G = I 7 x.j.h.T _.N.z z m.T.$.:.=.` d F C.%.= 0 H G b b i.*.m 5 5 $.5.5.6.| w _ 4.m.=X5.} %.f G 4 q x.%.,.7.G f ).%.F P u d H w D Z.Y.| G ` | G q z h *.:.n.l & w 0 ` Z.Z.].[.Z.6.5.w _ _._ 5 j.z Y h Y 5 d $.f 5 & 5 * | %.f z z n.K._ = 4 q _ } f l & T 4.0 5. Xj.P d )._.q ` } 0 : s = C.Y.P l z F 4 A N.;X_.l f | ].%.} | H _ _ 4 F ] r w S A 1._.C.F d : 4.C.I 0 7 F 6._.Y.=XlX_.;.] ] _ l f =.P | ;.l ;._ ` ` l G ] [.-X:.5.d 5 5 4 4 1.>X1.4._ } 5.| ] ..).} I } z d j.k.1. .[ B.N.] ` P u =.} ` F 0 5 :.P %.5.Z..X=.` I.Z. ._ =.4.F $.<X[.2.A q G 5.Y.} } F = I %.P 0 F n.4..Xn.$.C.F f | 4.F f s z } C.:.Y L s z $.=.T 6.N._ L K.` s T #.j.%.;.4.A G 5.k.} } = l q 5 =.%.= 6.V.H B.H w w 4.B.H 1.;X=X_.'. .F Y.;.;.| f z P ",
"A ;.k.G _ ] N.<X6.V.A q | L.).5.;.6.;.n.Z.G l 6.S ;.q. .A.e.D ] 3.] B.[.H 4.rX[.1. .} C.T.I ].=Xw F ;.L.6Xk.} | H ,.o.q.,.A 1.C.} f d T j :.x.P T s z L j z h o & :.k.m.} x.z ' h m P :.m.:.m L } [ X.2.] 2.[.B.6.6.] 1.%.%.;.$.z z m.d 0 * * :.8X].].4.| ` ` 4.F I m.m.=.F I | V.r. .z s < u s z ` D A r ;.k.A.=XqXL.f f * s 5 & h 5 5 I z d * $.T.$.x.4.5 > 0 | kX4.T |.m u u $.iXmX1.N.C..XC.z f V.pX'.0 q 0 } x.T h.=X%.#.P $.$.T T z #.P * f l = w  .c.j , a *.m.z L F = q q %.=X5.F T =. XoXn.].uX| j.f I ;X)._ f 1.{ 4.m.5.F S D [.F.0 ` *.5 T $.0 f C.j.} l A.F.X.A q ;._ _ Z.I _ _ A 1.%.4 f z h + s s 5 & :.| :.T d _ C.L.'.-X` P L..X6.4 l l 0 | 4.;.K.;.Z.L.'.$.T z G .Xk.f F z z 0 z | f & F $.Y.|  .;.| | n.Z.0 5 6.'.N._ 6.1XL.n..Xk.].n.2._ k.P 5 d T =.l T L.n.L.P 4.C.%.| q * q I _ 0 & f z m.Z.%.).Z.x.x.} N.6.5.C.#.z T I _ l I Z.n.H I G ` T z | k.5.= j s d o 5 4.f 6.2.r G l h m s L : = I $.d z } ` 1.N.%.| } x.%.Y.I ;.] = d $.S r f z f A F k.| 1.| G F F =.%.G 0 l 0 P } | %.C.:.f z 5 5 ` T.T.I *.x h.=.P 5.&X).l & 5 F L T :.j.| A.;XY.4.4.n.5.$.m.'.} '.'._  .;X1X6.[._ ;.N.'.;XZ.G %.L.A.)...A G * f %.%.z z ",
" .%.5.6.5.1.6.L.G 4.;.Y.[.;.N.A 4 f l ;.Y.;.f _ w _ ] H w e r D e.6.5.k.'.;.).[.S ] l ;.'.;.A.Y.).] | [.q.X.S n.6.S F.;.1.A.<XI G 4.F 5 d G z z j * s x h i - + 5 d ` f P j.$.m.s u z.5X'.T : x.| I 2.[.tXV. .[  .Z.5.l q z =.C.P ` ' X 5 s u j x.=.j L } h.$.Z 0 _ | Z.5.f 0 f 0 4 d z 5 P ] | A D Z.F.Y.L.;.G 5..X7X| 5 d P z d z O.m.#.5 * + z L 0 & q & F I ] Y.` z =.: 5 s 4.'.5.f ..l I G z z ( wX6...} = = ;.*.#.4.F F 5 #.P T Z.;X;.J _ G q f %.6.| m - U O.$.L.j.T 5.Z.:.*.$.' I :.} L >.'.I.j.` ` 4.T.5.0 * s w H 5.%.5.f S [ 3.q.l j.` z C.P G '. Xz 5 f 2XsXwX2.P m d z j.q 4 } 5.4 q d d j #.P u 5 = d & 0 5._ l ;.;.` J.L u d _ N.5.l f d * P G _ <XL.].].I.T I x.4.| C.| F j.$.0 _ = = _ %.q ;.L.1X5.4 f } z I z L j.& 4 _ | z 5 & d } n.qXC.P.L & z x.4.` 4.C.|.P & =.L P L *.d & d P 5 + f } T 5 l >X,XH _ l l _ f L 5 d C.| H H ] _ A.=X1.f & 5 T L f : o & h h + j I %.] _ G F 5 O.O.; : : 4.k.Z.%._ G 0 * f 0 = H %.* 4 F C. .I $.d | S 4 | | S ] 6.H B.'.N.%.w I H G f _ G P 4.K.C.$.z : s m z m.K.x.L.#.Y x.I & G w 8 G =.:.j.j.L u O.} %.c.| z P T :.I.x.=.K.[. .8 6.V. .L.'.5.G G $.Y.I q l w w G | Z.] G I A 6.} 4.",
" .G 1.[.<X'.A  .).=XC.Z.C. .Y.%.l q G ;.L.5.= 7 6.1.7 H 6. .w D  . .4 } F 4 6.:X= S ,X<XZ._ I ;.sX;.| 1Xq.~.`.| ;.| Y.1X6.n..XC.4.%.0 4.c.f F T : Y T Q Y M - - h $.J.n.l l >.:.z 5 P =.T : 0 =.I A G [ ).| 0 | ).| %.I l n. XoXd 5 5 x.W.m m 5 j j I 5.c.z.c.G & q z T C.` . : P s z 5 ` rX:XrX;.q 5.N.5.#.4.' d _ '.%.= 5.} 5 d *.-XcX#.>.' F I F } q %.c.w b.8XZ.0 =.T F : F F I 5.` * } -X'.d = H 3.1.] T s F %.u - } 7XL.f | 4._ 6.%.1.B.2.].c.] H H 4.L : f l 1.'.d f j.-Xj.d d h * h m.T >.I d | :.5 j.x.L :.L -.Z.H A = Z.;X] V.D 4 0 P I.m.` F } m.` T :.n.;.N.yX%Xd s z :.=.5 f f d } :.#.f 5 O.*.L 5 P 6X:.5 1.B.%.q l = F m 5 * | N.1._ T L 5 4.Y.Y.N._ I F z P F C.x.f Z } F m.} C.} f 4.C.G } ;._ 6.n.I } } 5 m.` * T d G } f T h + j.J.j.4.* : j 5 L T f j s z 5 * * 5 L P h 5 5 5 z j.} d ` F L.L.0 ;.Y.;.l l 0 l T P u j G Z.N.f ] } $.G = 0 f s 5 f I F I d - m O.` $.4.f w l = + & * - d f ;.| L._._ f x.` T h.| ).] = s | ]  .<XK.: A.tXP I N.H J ]  .B.1.;.k.7 F C.F A F 5 * :.h.z s : s m j d 5 ` I P P h ` 0 = 0 H L.5.].I.%.P.O.s T m.4.0 F h.:.L P T : m ` H V ,.r.w = P f f : * P | | f F %.I 7 4.rXZ.Y.;XZ.N.I T ",
"1.Z.] A N.V.| l .XY.Y.;.F I H | 4.H ;.].| N.N.f 5.N.5.Y.[.A ] :X;X1X=.=.P _ C.=X] 6.1Xk.;.C.iXB.[.] I n.9 / ^ w n.=X6.j.0 G l G c.'.C.F P =.h.} =.; l.i.v g < ; 5 d ;.m.I z f 4 } =.P z : = f f ;.} 5.Z.C.I = C..Xw f H Z.5.m.$.` s m m.U h u 5 ` m.m.T F K.4.4.} %.8X.X4.l F I.$.$.K.C.,X'.[.<X.X| I P * 5 u m._ | F 0 | ^ 7 q w l $.` 5 =.} l P H I G ;.%.= P %.q F 4.'.L.0 l F $.,X4.F =.` $.m.& 6.rX`.;Xs T %.=.m &.` 5.T.;.6.1.`.rX...X<X} L z %.N._ = d f H r.&X).q m * u : j m m.:.* 5 z #.5 _ 0Xj.+ = ;.f | ] S.vXvXB.,._ ] 2.V.3. .f $. X} P P.'.z = f Y.L.& 5 ] q.l P z z P d m.qX:.-X#.I I 5 5 5 _ ;.1..XI ,X2X$XB.| _ $.:.*.L f | ;X;XC.x.T j.-X'.Z.4.;.4.H d P | =.F I %.f $.K.T.4.f c.xX'.0 f H ;.C._.4.C.4.5 L 5 T I.m.j.z #. Xj.m -XcX$.= 5 x m u L j.f : j 5 & j s : - : *.#.j d x.I.f T I _ 6Xn.= q l  .H l H f :.z z $.} ).=X;XY.j.z z j.L.8X'.l _ V.:XpX=.m :.L s + * G N.| S 4.A.[ 1.] J Z.;.w 4.C.P '.5X} P H V.w =.|.4.l Z.Z.=.f l | f ` k.2. . .N.[ q 0 G 7 k.[.6.F G P + j *.P.J.L s h u * 0 G G | T 5 0 & 0 F F c.I 1.N.Z.:.P h U E.4.d I oX=.* 5 s 5 u + 0 3.6.{ A f k.x.z f 0 F _ ;.%.F L.nX%.l 1.| N.xX_.4.T z ",
"N.MX_. ._.C.] I ;X .%._ F | } I l Z.n.7 _ n.G F _.0X_ H l e J 1.).].z f :.f } ] l k.L.] ,X,XL.].N.S z P V.&X;XL.} F + l f 5 * P J.T } :.I.C.=.C.x.$.*.E.*.; + X : L } G q z | } } n.j.I.` j 4.L..X=.F 4.%.} f ` %.q ] | n.'.I.n.` d 5 s ; u j =.-X4.: 0 P '.4.} G 4.I.,XZ.f P lXC.F _ N.Y.A G 4.oXm.*.Y h M 5 L oXkXC.n.rX2X>XV.l I 4.4 4 = G o 4.<X;Xe H k.A I H _ I w ;.6.[ | ` z P d j T + j m.F ]  .9 ,.f d 1.I.L s ` %.I m.iX~.B.Y.4.I.K.d ; z C.=XZ.F N.6.r.dXeX`.k.T * h 5 d ' m.$.5 ' s 5 * I } 0 P G F A w 1.S.6.V.6.2. .w  .[ B.[ q G x.j.m.T. X*.=.].1X).z I { q.l = 4 z P f } n.0 =.h h ` h 5 =.-XY.] A Z.;X6. .w S I I z Y d T q 4 ] G d :.4.=.4.Z.] Y.5.| ,Xm.| F = G } T _ $.T f l l | m.} l f 0 ;.1.q q d ` ` d j.kX X` } P L P.*.& z | f d 5 s j ` h.x.} J.` L } T } #.#.>.I z F j.T d 0 0 | H | I 4 q 5.| l 4 * m.J.x s q 7 q _ H 0 z T C.} x.6.%.H A 1XL._ x.&.L F d I n.)._.%._._.3.V.%X .6.C._ _ %.0 & f 5.` 6.N.G P | Z.I Y..XT T ;.] l G G _ 1.G 2.[.6.F q F 4.6._ C.4.P 0 z Y x j h ; h : j T Z._ f z =.4.k.4.'.$.& f [.F.6.].oXh s O.` 5 z j #.:.I ` L & 0 C.A w ] N.N.} ;.P G k.;.n.8X;Xn.%.] ] = | ,X} | w 4 5 j ",
"= [._. .A.).%.f  .| 6.4.4.7X]._ _ ;.;.q ;.L.H 4 %.].C.} 5.%.A 0 ..} z j z F f 4 A H L.Z._ %.F A w = s P _.>X.X:.* f z =.:.q j.F ` z f c.k.Z.,X$.$.'.F ` *.m & z s #.n.G f 5.;.0 ;.6.} z z z f 5.} I 5 = j.} d =.z | | } 0 %.x.P P z G ` z 5 P $.} f X P c.` $.| G G G 0 = z L.F s + `  .w = 0 f z *.h < i + 5 F L.} } ).e.V._.2.5.4. .;.0 H '.I .._.A. .[.1.S Z.;.4.[.[.N.S ,.=XI.Y d z z P j #.%.n.=.= ] { C.q F c.#.` L.;.s s s j $.|.4.> 0 * h s I %...] 1X_. .F.D.3XtX4.] '.| 0 k.5.>. X,X4.=.q l l I .XoXf  .6.%X{.= * f G w J V.J A ;X| & | Y.F } l P ].iXn.F z G !.3X%.5 ;.xXrX[ ;._  .xXs.; O.Y * n..XqX2X[.bXB.A 9 A ~.Y.| =.L o s l f 4 = ;.'.%.0 & q f I | _ x.j.k.| H | %.5.L...= f F = o G | | = q D A H Y.x.G z.=.k.l q _ '.| * I G | F I I I f ` L.P.=.L f =.4.kX4.I z K.'.| f $.:.I T :.} P ` } $X).0 G ] _ P F  .H G L F q 4  .;.} 5 L :.T F z ;.I G } %.= 0 s d m P : P f * f 0 ] 1X>X{ e.| | f _ %.f = 4 '.Z.1.6.0 l w %.<X| k.%.} Z.rXrX:. X} l _ F G G F f f .XZ.=.x.5.d q L L j ; - h g g s z.,X8X| z d T Y.Z.=.F j h 4.%X).[.%.` m j : z f _ =.6.=X.X5.=X| 0 P $.| A.1.1.J A 7 q 4.[.L.G ] 4.l w [ [ 6.K.F T 5.L.} _ ",
"G A D ^ ] N.6...Y.} = 7 F Z.k.H Y.0XZ.l 4.,Xn.l 6.L.].<Xk.;X_.C.;X].J.T j j 4.4.w F 4.[.] + } 5.q F 5 h n.[.L.T F :.j.x.F 0 z 5 d : F :.P 4.} = f 4 _ Z.z *.#.: L C.} F C.n.P l  ._.w z m.:.F %.& F | f 0 d z.#.} 4.k.q _ _ 5 d 4.T G | z :.$.0 + l & f _ I } P P C..XY.T x.x.P $.P l n.F.[.%.I *.i @ y M :.T x.F | k.;.= ) B.S w | 4.| ] ;.5.G 0 A & 3.1.J [  .= _ %.:XY.] ).;XK.f s F ` L m.=.%.F * f [ q.0XL.q l 4.L.6.L.P + ; d 5 j j 5 f j.M - d ..k.L.w w [ _ D 5.;.I  .Y. .r _ I %.T..X_ P :.%.q %.} F 5.k.4.[.V.| $.m._ f 6.A.1.A.N.r G A.C.x.z F G 4 H l 0 z n.3.V.Y.d %.6.X.2.Y.$XS | ' d h T d 4 w 1.2. .{ 2.2.[ `.[.6.%.:.P #.L ` d * l 4.} Z.I.x.'.m.I l _ C.*.j.$.q f I 1.=Xk.= 4 w _ | f _ ] l ] ] } N.lXC.x.*.` ].,X4.n.k.4.| q l 4.| _ Z.<X6._ L.| s + F :.=.4.f F } f _ f w 5.F 0 4..X].].| _  .Y.H ;.D l P %.A.5.z 5 f 5 w | L.n.' O.I.L T } f P K.T.} 0 * s ` j z z c.%.l 0 & _ _.;Xe.D 1.} F 0 | I f k.1.2.1.C.f 5.N.B.} z F F $.C.2.6.5.d 0 5.k.F | 4.$.4.'.n.G f d q = 0 f d s s - s m < O.*.P.:.f I L = %.'.} = ; s Z.V.] r o d ` oX=.d ] ).:X1.Y. .V.,X .l f =.T 6.4.N.).[.B.D e.rXV.. = A ] D ^ :X1.=.5 f :.'.C.;.",
"} I N.B.,.6.1.C.k.z l $.5.x...H } _ z ` P.j.q G l l I ;.I k.Y.;._ 4.n.T * | ,X$.z f q %.;.;.4.F _ | z 5 I '.oXL 4 z F $.' ` j F F d ].,X=.F l :.$.F G q s x.` O.j f 5.n.C.N.} | N._.H ` ` $.F & A 5.N.T } I.j s F F _ 4.6.| f d 5 = l q z 7X-X4 _ %.w ..C.4.} 0 C. XG F f d } k.c.l G A.[.[.k.j.s : h U m z.m.:.T T.mX;.H 7.2.n.%.'.c.c.1.& . f 1.G 7 2.>X6.H  .N.:X[.e H | G S G G G %.P 0 $.T P ,X$.0 f ] k.7XZ.| | ].L.x.* : P x.x.4.T z m.$.- j m. X=._ F _ N.N.5.z s y : G & 4 _ H 0 T = & ` C.%.o 0 G _ 4.Y j e 9 ]  .]  .A.;.A 6.1.n.q.6.;X0X5.T } ;.k.$X2.7 G %. .q.I } F.B.B.{ ] ).e.q.F.;XA | Y. .S ~.[ 4 S N.$X3.q.S 7 _ G ` :.>.$.P u ; h L z.4.4.=.P } G } =.` :.=.].Y.:X;X .J f G H A._.Z.>X5.w  .Y.Z.G l :.:.q P =.C.C.f G =._ } F H H 0 6.;X2.= G n.z * 5 n.'.;.l ;. XL 5 5 _ ].6._ I G T ;.N._.q.B.5.l 4 _ $.= | ;.5 & %.;XV.D } d d P O.P T ' z ` x.} > * 0 z.L * d $.,XC.4.=.s _ H V.1.6.G & =.x.$.C.;X,X[ S  .).4.G %.l 0 } 0 0 =.}  .;.P L P z %.=.F K.Y u %.4.F = q f P N.4.4.C.$.z h +.Q m j j f K.mXXXF ..H P x.Y d w 0 w  .4 5.]..X} A H  .A.<X6. .V. .| P f F I.L.=.1X).).yX,.{ ,.] G ;.;.w r  .] _ _ s : d $.f I ",
"` } ;XB.1.Z.;.=.G = G .Xk.Z.<XC.} Z.` M M z n.n. .n._ _ f & 4 l 0 q ` x.P q } _ 0 f I = %.n._ _ F 4.n.l 4 l C.P z z n.Z.' h h.I > d k.I q I T =.L z 0 d 4.0 z } d l Z.n. .Z.;.G B.N.= 5 5 L =.` =XuXK.F j.| : z G 0 q ).[.1.* G $.f 4.G %.5.` T 7Xn.| Z.C.c.G x.,XT.N.n.0 & w k.H w V.rX[ F } T f L =.4.` ` z 0 f L s 0 [ 2.[.G k.L.=.L.4.4.F P Y.'.4._ Y. .A ] tX>XA.H %.%.] G C.I.} :.k.6.L.4.f L.5.7 I F N.<XA.f H J ] ` : : s z..X} f I } #.j $.#.` T d | Z.).A.m.L T h s.n.H q.Z._ d :.'.z -X5.= 5.7XL.Y.m.h & G [ ~.>X{ l 5.S A ^ 8 ^ q.[ [ I G ` d n.<X).7 q H = 4 l l | A._.[.A.| )._.~.sX%X7 =XMX1.S sXN.l | <X1XH  .2.C.P 5 d 5 #.` 5 d *.s.* = 0 d 0 F C.8X4.` 0 h.Z.1.k.6.1.A H * l n._.[.;.7 w  .5.A.n.l 0 ` f q F 0 z I F 0 = q } 4.=X7X2.).rXpXN.4 l q ` 5 I 5.A l _ ` P :.} q F H  .%.5 P Z.| F.tXV.q.] ;.4.I.$.uX,X:.=.j.=X2Xe.L.4 f T z F z z $.} P z #.P & L d 0 f P =.T T $.T | 6.B. .G F f } I z 6.k.A H ;XZ.I 0 h.x.f F 4.:.l %.n.A.;.f P F l =.%.=.T s ; f I q & _ Y.'.4.I } P P j - i i h s d P F $.P l ].[.4..XI.} F I  .B.w %.7XL.H ] A A 2. .A k.[.A._.].F & 4 4.f 7 G  .3.( 3.).[.| L.6.H ;XrX .l = d T j.;.Z.tX",
"j.& <X[.] C.%.F T f I | F l c.=.f F T v y m Z.uXY.Z.F.] G _ 1.1.Y.1.Z.n._ T G I Z.].;.G ;.G %..X;.} | %._ + $.j._ G F P m 5 I & & :.k.L.L.:.XX$.; + J.,X=.f .XmX<X;._ G } Z.;.5.;X_.0 ` d x.$.| 6X,XC.= 7 F 7 N.N.H J /.>XwX;.G C.5.k.;.4 T ` F 4.$.| } j z z T.:.} 8XY.T * 0 L.| | 1.6.= f f f I | m.C.6X=.= f | T : * =.[._._ F F T j T h.I l z z f h.c.P ] ..[ 6.A.1.).'.0 * I 4._ 4.k.>X$X .e.[.A 6.-X$.= ` k.=.I w I G f 5 F f f = q f = f z = . & : 5 P '.4.Z.F z z.T | 4 | 6.^ | 5.:.L ` -XK.x.} %.4.L.f } G 6.N.6.4.;.0 ] |  .q.{ [ w ] Y._ f T d z F = f _ f N.5.l S  .5.l 0 =.;.Z.C.G  .;.+ f j.l  .N.| l _ 5.H 7 ^ H %.5 j.I j.T.j.=.L.'.l 4 F L.C.0 F %.L.n.=.: * f ..).).[ 1.=Xw A q.B.1.5._ G l G G G f f F z F } T I.-X'.F & :.lXZ.6.;X_.] N.1XA.G ;.} d 5 f S  .H 1.4.I 3X%X_ z ;.N.5.* f f | ;X_.B.H 7 } ] f ;.5.` =.J.d P Y.1X_ = ;.4.f l l f } C.C.s J.T d 5 I :.z =.= f 0 =.T.P 7 ] X.w w P I F q G ] %.Y.,XF s : $.j j P F } :.C.'.=X[.s = F 5 ] ,X6Xz s L 5 ` uX4. .[.%.f G ` =.T L U u - - : : d f & 0 l _ I l ,XuXG %._ I ).;.I k.1XiX .2.1XiX;Xl B.>X>X[.N._ w H C.)...H H = A %X_.| G l l e 2.B.6.k.H ;.k.[. ._.pX",
"T L P ..k.c.} j.} =.K.F 0 ` I G 4.:.T h h : F <X5.5.tX,Xn. .6.L.'.5.l f } 5.` G k.%.4 I k.f A n.6.%.} 5.%.0 $.k.n.= = C.s u J.| f P F | f 0 z ` s * h.:.F = | .X].f 0 .X4.= 7 G A._ 0 I ` ` f I =.` } Z...F _ [.:X[.>XV.D.V._ 4 = q P } z T j.I d I z * T h z z T n..X_ 0 5 | n.%.%.w _. .l | 5.q & f $.Z.=.f I %.[.=.; T [.[.,X,XG 5 L Y P F d d ` f T P F =.F 1.V.A.H _ 5.I } d L f f 4.( 8 D e.6.S ..n.$.o : G G %.N.l G %.| x.} $.l 0 * 1.qXL.| $.x.j : 5 d P ,Xn.f ` l 4 _ [ r l _ :.` I 5 ` =.= & P n.G j.| %.] S G 1._.H q ^ _.%X%X%X{ ] 1.j.I h z j.| 4 l } f Z.xX[.[ _ F z q P -XkX,X| f & ;.<X_.G %.'.P 5 5 q q } | G F & ` f F j.` } B.r.] A.H %.P f d } [.].` : P } I 4.L.| _ ;.| k.C.Y.;X0X6.A l q l A I _ 0 0 =.T z 4.} d P P 5.Z.k.H = 7 w A X.6.^ 5.,XZ.& H _.pX[.pXn.H #X&X] | ] n.].m.| I Z.N.r A w l H = G l } n.z d d z I H 1.X.5.L.N.I 0 f 5 } 0 P |.m.:.:.P j s G _ 0 d s * & ] J ] 2.4.5.} f F _ q H f : 5 s - * s d O.XXT.f I l |  XL.q %.k._ C.T T O.5 5 0 1.1._.N.%.F G L.T.P.J.P.T &.< : s 0 T ` 0 P 0 4 | '.1.o T ` =.%.H I  .k.6.V.[.[.[.;.G _.pX[.l 7 G ;.[.iX<X} w 1. .V.3.]  .k.x.1.2.e.V A..Xk.4.F ;.H J B.",
"J.*.z | k.| P s } I.T.| f ,Xn.4.:X[.C.n.'.A.N.F.} :.G $.| T ` | ;.m.G F $.G d T + ` m.d C.kX;._ F %.| _ l %.} } z = } | P 5 I P q 0 f f P d f } l ..} d z T P 5 z K.'.5.` 0 4 _ k.I ` >.j = l H & P s I 6.G [.B.H B.B.yX:X$X2X} q q | j.$.` 5.z =.T.` d *.' z I C.C.$.F 0 w =.l I .X[.rX;.w w ..f q F n.C.5.n.:X`.N.= ; = %.| G %.0 z P u L C.x.z f f P z z x._ 1.;X[.C..XL.C.K.} G } n.V.q.w ( $X2X:XG f ` P d | F j.P & } 1.I _ | ` | 4.f 4.iX'.G I.j.5 u ; ; z I.5.] ).] l D ] 1.;.%.n.>.L 5 4.P F h.K.$.0 T.j o o q 4.[.V.V.[ 7 F.V.2.e.2.] n.=.` s h ` G 4  .A.n.G Y.,Xz 5 d $._ F 4.` 5.n.6. .,.`.`.`.`.;.q h ' ` P 4.C.* 4 0 d x.=.5 s I ).{ 3.B.w ..;.G 0 G N.I j 5 I | _ F j.` : f G 7 F _ = q F |  .6.k.'.T | $.4.kXT.I } * 0 :.F = P 5.'. .w <X0X[ 7 A.B.] | I A.wX[.:X).F ;.gX&X_ l ] l } x.T I _ | ^ w H G q = V.:X3.[.A.[.1.] S q.V.F.Y.A.%.l Y.Z.q & = P z d j d } =.F P C.=.T ` ` 4.<XV.N.).C.Z.I } 1.G _ 8X| f m g :.%.| =.*.&.} q s q $.` F L.C.N.f o + h u Y #.} ] B.N.7 } I j.4.j P T.4Xg u ; : s z I k.T P 5 =.).N.Y.k.F ` 4.6.=.H I C.6.F.e.w S _ 6.6.B.] = 0 L z T I d = = A 6.e. .J } Z.:.%. .e.{ [ l | 5.G G f l ] ",
"j | Z.4.w ] G I $.4.5.z : G G A.N.9 | 6.| q.e.] G I T 5 d L d * G } q :.K.d 0 z m.,Xj.l C.Y.:.| } 4 _ ;._ 4.l 5 f P L.} =.s x.:.0 d & L P.z * l ] N..Xk.T.m.oXT. X_ T.` q F } _ _ 5 } #.P } n._.H | | T l k.1.6.%.[ ( ) ( [.qX5.| } _ l * 5.j.P f z d 5 L m.` | ].n.J.C.w H k.` q %.:XZ.l ] C.6.A A I [.=X| 1.6.1.J F #.} q = j d & O.` d O.=.:.z d =.=.x.T P %.N._.A.[.k.P ` I 4.C.6.:XZ.f ] 6.A N.'.G Z.qXj.h.jX` f } <XC.+ 7 '.1.f P G 0 = l = z =.=.x.T s d z X  .<X~. .N.1.N.H _ C.:.5 d z T ` T $.F z 4.qX| L I I ] [./.&X6.;.{ ,.[ o.e.7 _ T.h + - 5 0 f N.1X).;.f 4 4 P n.:.` P 0 q } 5.B.tX<.0.{ `.tXw f I :.;.| ;._ l H q F ,XqXm.` } 1.V.e.,.[ [.qXG F c.Y.k.& 4.Y.5.l P $.m + T j.T 0 q d l w l f G ` C.} T d P =.$.| =.F 0 4.f . $.k.iXvXC.A.;Xo.[ ,.2.] 5.k.F.,.9 B.6.oX_ _.r.4 5 H ^ l $.d :.Z.;.H _ Y.} A X.D r.>Xr. .l | H ;.<X).1.4.n.P ,XxX5.d j |.C.j.5 j d P $.:.%.j.l f z } C.N.[.A.l ` F %.=.P f f k._ z j =.7XL.I f : s f 5 =.XX8XC.= | _.6.F d - u P T ` F I |  .7 w T 4.5.d =.-XoXT i ; ; T T 4.h.G = P T H q.[.4.& 0 %.H _ Z.k.4.4.rXrX .H ..] ] ( ,.| I 8X$.& I j.$.=.7 H (  .[ } 0 0 w J r.;XB.4 L.4.0 7 f 5.Y.",
"l Y.vXB.r [ '.=XP d C.:.q & 0 w ^ [ | C.l 4  .).L._ *.I 0 F 5 & 4 :.j.G q z I F _ C.} 0 ` T.:.C.| %.w Z.xXY.} G l 4 G n.:.s Y.} ` #.: L m j T j.4.| 4.Z.F 4.'.k.'.] | f f f 1.C.} 5 L d F n._.[.A.N.L..X| ] G 4.` | ).1.1.N.k.0 ` I.4.q x.j.I n.$.z l l C.N.;.;.} F 5 L [ 5.d = w S ^ 7 w ;.5.f 1.].4._ _ H N.H w _.uX:.5.P O.j : z x.L =.h.L 0 F |  .5.Z.H ;.;.rXB.Z.P 0 n.C.B.%XV. .[ w 0 j.P 5 F G I f I  XoXoXT ;.C..XN.H 2.Y.%.P j.L.=.-Xm.* P |.9XXXF z P 5 T ;X[.<.3.[ 1.B.q ] | 4 & d : =.4.5 f ` d F n.1.5.x.` ] ~.( = D.yX>XF.X.tXvX .k.4.s j P s T f l '.N.& G H G =X<XA _ Y.6.5.A 6.6.H D w.e.,.2.G k.;.= 5.w w 6.N. .f 4 & l P $.F P ,XY.I H H l = q ..V.1.f 4.` G ` j.l.s : Y h.$.q _ P =.%.Y.n.` ` I.-X-X4.f d 0 $.j.` d s 5 0 ` F 1.;.6.Y. .^ q.wXfX1X1XC.r e.r.$X=X#.j z } l %.1.2.n.z _ I 5.5.4.} 4.} k.B.V [ ,.9 _ 0 d I I 5 F f P '.m.%.f T x.P j.$.` d 4.x.} T | 5.c.= 0 f $.k.1.C.N.f j.f C.C.q w '.4.f F ] =.P z 4.F & H | 0 d T L d w I 4.| 5 : : L :.G 0 f C.4.z T 4.k.k.].I T |.E.+.b Y #.l.j 0 F %.f L ` V.;X1XA & L q 0 ].ZX.Xl 4 e  .[ H 7 e J w V 2.%.5.f } 6.` 4.} 1.rXrXN. .Y.I 0 G  .H [ D A ] H H I H ..6.",
"l 4.[.).{ _.).$.j j C.-X0 F A G Z.$X%.'.z P n.4.'.'.].G P L.5.` ].n.G F z 4.T.G $.G 4.j.I 4.f 4.I q G =XY.} n.4.} j..X.X=.j.C.T F ` s Y h O.T.kX4.} P _.L.] N.6.l 6.4.*.|._ _ H _ f f 5 } _ 7 e A.B.k.Z.& = } P F 4 | A ;.1.l l $.Z.T ` n.=.` <X0Xn.I G H w Y.A.] G ` $.A.wXA.;.6.] r J 1.I & f } } l A...6.V.l 7 H k.L.l z p.< - j P = 0 z f : $.5.} H 7 7 ] [.V.V.,Xn.:.,XC.A.>X3.{ V.q F } P l.m.F = I 7 } %.= 0 $.'.C.] 1.| q =.%.T } $.T L m s j *.I * = L.=X5.F.o.#Xq.6.6.]  .k.6.=.l F 5.Z.} } x.j.` ].<X1.4.L.T 1.Z.( { ] A D _ :.%.[.Z.| T z h *.Y f *.d I n.| ;.6.] ).q.l B.;XA.F.| 5.,Xw q.q._.[.F f $.I N.2. .6.[.Z.n._ & } C.F f : 5 T F = l  .N.] A %._ 0 ` 4.F :.` s z j P 5 j T q d T T G I f l j.x.L.m.4.I ` T c.$.= ` XX:.q 4.l F ] C.5._ N.2.D e. .F G ] { e.2._ } d 5 I l  .V.1.6.F x.:.N.| ` ` * _ ,X4.[._.V.{ f } } ` } q z j ` h.z s s ` P d L + X : I z f K.=.5 I j.d d 0 $.4.n.P 0 $.L ` j.T Y..X;.<X). .S = j z 0 6.V._ 4 & o *.$.4..X[.L.F x.P T.].I I | F =.#.F _ l G [.6.: 5 #.Y $.T Y F d z =.G J.j.} 0X).rX;.d P } ;.].].k.G ..A 2._.A. .N.B.,.H N.;X;.f | | l I H G N.rX%.7 A _ ] | rX$X1.2._ .X'.k.,XZ.l w ",
"n.Y.V.2.H ] | 5.$.z 4.L.H ] H w ] _ 5 d 5 x z =.5.:.` P P l P ;.k.;.;.F z $.` 5 } C.5.P I w G %.;.G L.n._ | } l 4 %.$.T =.` s z.0 F ` m.XXY O.$.f G w N._.N.[.xX5.A N..XI.:.T = d 0 & l l q 6.$X;X:X1X2.A | 5.4.m.| l w  .n.I = f G w = H k._ = k._.A.] A G 6.[.[.N.A.rX6.>XF.%X>X_.).k.0 = l F F ` I = w 5. .= * z & f f z T s : : : L F d * * ` C.Z.A 0 4 H 6.6.V..XP f G _ :X[.2. . .* %.} m.| 5 f C.;XN..._ l ..f C.,X..;.iXI L.kXm.* f : : s h #.4Xx.* 4 H B.( D o.l P s h 0 A  .;Xn.l | Z.].k.I ` P =.T.] N.N.L.Z.Y._.xX[.l w N.,XJ.Y L z z :.z P m.` ' Y 5 L } %.C.4 G  .1.6.S ] 5.N.N.6.Z.4 r  .6.N.5.f | C.6.B.B.sX<X| ;._ = l j.4.P 5 5 F %.%.l 4.2.2.).=X] = L.j.` ` x.| z m.oX4.s f 5 L *.m.m.= z f G 5.` G >.=.z =.T.$.T n.j.z z n.4.n.| f . %.=X_.V.~.:.5 4 F f I A  .Z.X.] 9 C ^.t.{  .F H j.Z.;.x.} f 0 5.} _ ] _.e.|  .%X~.D 7 f } 5X'.s T f F ` m.} P 0 0 F F z #.x.P m.xX6X| j J.} f z ` : 5 s * = 5.).).[.N.{ [ 0 : : #.8X%.F 0 =.P T.h.:.C.n.} f 4.:.=._. .| F 0 :.` ` } q H 1.] 4.: d A H 0 = I G q q I C.0 : P ] [  .f P ..I l = l I 6.k...N.L.[.A.,.~.>X,.F.6. .] _.6.0 F l q 1.| A l n.;X).Z.1.4.1. .n.| :.uXY.H ;.",
"B.).2.7 w 6.'.F 0 f 0 C..X .e A _ ] 4 l m.T x s d P z d 0 } f 4 ;._.4.f * & : s f ` q I P I L.-Xm.` ;.Y.,X=X:.F z f f d F F P =.0 T d * XXx.: ` P 6.H _.[ 1.I S ]  .5..Xm.m.P G | $.z Z...| C.6.1.B.`.N.,XNX..H Z.L.] l w k.6.I ] Y.%.w l %. .w ;.k.[ 7 _ w  .Y.H S ( %X] { B.V.V.e. .Z.V.%.=.T 0 =.C.= ..'. .G k.:.F z F I j j L j T ` z P z f F ` 4. .6.6.w G N. .] 0 q F 4 _ 4. . .H = P 1.f l 6._ H _ ] I G I _ P ;.Z.4._ L.f f P j * 4.x.T s z h.I.F F [.6.r B.6.%.* s - + = H } I * q f * ] _ 0 z L 0 = _ [  .| ;.7 I ..0 G ` Y.'.U Y M h z 5 5 m.j.x *.P 5 z d 5 } 7 l A 4 ^ _ H G A A q =  .D H q l | l 5..XF.] B.N.f q 0 l I =.4.$.$.5.z F f l 7 e N.6. .] ] %.:.K.} & T =.I #.m.L 0 C.j.' J.J.m.%.z ` k.$.l G G =.x.$.} G l = P 5 4 G = I q :.Z.j.} n.2X;X*.U z z O.& 0 5.).%X#X~.w.!.y.0.A ` ` ].L.P F h.j = 5 F = G  .[ | ;.( V ] I f = =.=.: f * F } =.I I T 0 ` =.0 > j d =.m.kX4.z P z j d z d s j I d 5.1XV.e + [ N.d $.$.s } ` f f j.,Xz j 0 0 0 l P _ Z.= 7 [ %.} $.j.$.I %.k. .S 6.F j K.;X$XB. .Y.n.6.k.'.8XP 5 z z } ;Xk.q k.k._ G G Y..X} } L.=.%.] ] r.r. .9 6.1X .1.[ [ k.Y.1.;.V.] ..%.I '.C.-X'.5.;. .f z _ H ;.$.",
"] f w I q G G f } %.k...Y.] B.1. .;XY.G j.T 5 s z $.4.z l %.G l l w l ` 5 d d s P f : C.T.0 0 z 5 0 s P I.I f d T d f * & f | } '.5.F C.I.rX'.C.H [ 6.%X6.$X:X .).B.;.5.q z :._ F I I | l l 0 & f A _.%...N.N.] Y.A 7 0 w 4 H  .H 7XFXrX] [ N.1.k._.1.Z.[. .A 6.] ,.,.X.5.H w e ^ 2.] %.Y.k.} s d s .XkX4.F w G ] q 0 z f z L s T =.j.` s j C.} } | k.6.;.V._.;XV.D ;X).6.'.] B.;XH [ I 1.[.[._ ..[.).%.] ..;.k.| f } l = = = $.I.P z 5 h T &.L x.h.;.;XN._.).).s s h 5 * * F z =...G = P c.w G k.| } s P P q w 1.G ] 6.1.A 7 I _ * d d h v u u & s s I P j.j & F F I z.z l | 8 w 1.2. ._ l H A ] n.l 4 0 H } N.[.6.8.[.`.J w } l f _ } & G .Xn.T 5 z * A 2.1.7 1.A ] =Xm.F 0 = & f d ` F * ` Z.C.#.P m $.$.F d z d :.%.} ;.L._ G G ] n.;.F 8 r %.%.` I j.i + * G n.m y ` L Y f d Y.$XD B.$Xr.) r.q.l *.:.j.` | :.$.s = f G 5.8X<Xf d m.1.n.=.5.4.z k.| } T Z T F =.$.G j.` ..} | w w N.1.$.$.f : s T $.s s z f T.uXx.L ).A A G 4 l = #.` & 6X.X0 f z j.T f P x.C.f f l 4.H [ 1.A ] [ H C.A.4._ 1.[.] ..} x.;X$X`. .1.] D e S n.h < g L x.T.k.l k.;Xl 4.L.F 4 0 5 F $.l = w 1.[ A {  .{ l H 6.Y.'.A q & f 5.L.'.G P j.l.*.f T 6.| A.Y.l z P ",
").6._ A %.Z.A n.'.1.P I |  .<X;XY.=X).l 5 ` m.T f Z.} z G l F _  .G F z $.T j 5 T f = f F 0 :.=.T P.j.u L =.` 5 $.oX} } f f $.].5.= %..XH  .%.1.[ A S w 4 S  .N.Y.).;X| 0 $..X:.I '.n.} ] %.F Z.%.l n.N.I k.C.L.[.N. .H 0 G 7 w w  .6._.:X1.A.N.1.lX6.[.rXqX1.[ ).1.[.tX.XC.=._ Y.L.[ w  .1.'.=.` s f ,X,X| [ H ;.6.].f : :.$.T F P f F j T I._ ;.n.C.] Z.;X:X[.B.H [.A.]  . .V.B.N.| 0 4.I ..G '.7Xk.Z.G x.-X8X;X;..X..G 4.L.I.oX:.#.` 5 > d s $.Y.;X.X6. .2.=.i @ ; * ` $.I C.4.l %.'.].L.| k.).F d T x.=.]..X;XG 6.=XuX).N.Z.4.x.n.d s M h j z.s.` T l F 5 = } ` ` *.I ].0X| ] n.G A Z.).0 | ;.H ;.H 5.n.F n.;.Z.] ).[.e L.'.F G Y.,X_ 4 G | F l $.} _ _ 7 n.].Y.5..X'.d ` F 0 G d z ` = 0 P $.P h * d 5.G o I ` 4.Z.=XH G F } _ ;.F._.6.5.F.A..XT.P i M n ; w 4.m i I f } ` ` ].6.8 ] { ) {  .H d d u m z ` uX].f L I 5 F '.` 5 m L | n.F 0 F 4.Z.k.L.8X| c.k.c.%.P I H = A B.7 J L.'.5.| :.: } 4.:.C.I 5 4.x.=.j z 4.I A.:X} + s P $.P 4.I %.0 0 :.T P C.mXqX:.4.P G ;.;XA.J ^ ] `.[.1.= & 8 1. .[ N.G  .1.6.] A H * ] X.H $.u s 4.` F L.4.o = f q I f d = : : =.T 0 F k.5.4 D o.e.] k.). .| 7 = F I I } $.F * : i ; : * q _  .q.w * O.",
"1.4.1XL.%.).L.).%.w ..=XC.G A J ] S H 1.1. Xx.Z.$.4 q l q ;.I 4 ] Y.;.'.C.F j 5 P z f f $.=.=.} m.K.:.s L T.Y s j.J.h.h.P f P x.[.1.'.L.l w w l 7 S  .e w S G H H F %.;.I H | I %.Z.'.MXC.F d I c.n.d f x.k.x.<X,X'.H I ;.] .._.G l =.I w = G ;.H ;.H A ;.G H ] 6.2.6...F $.F d ].5.0 G 4.1..X$.} P & 4 6.2.] N.'.5.5...L.$.l I P =.| P F T $.0 = 0 } P =.=.I I = q f G l = q 0 %.Y.G f G 0 ` m.=.#.T.P.; : h.Y T P G l L. XC.j.=.F f d ` T l | Z.| L.H w ;.%.x.j m m h d I x.f T 4.c.L.n.f w 7 w = F J.T * N.7XV.V.7X1.C... .1._.1.1.N.G } =.=.:.z 0XK.:.` P ` %.5.` * z :.Y.;._ 1.6.| 7 q l  .H Y.<X_.I l _ = j *.z F T = $.T & P C.6.Z.5.0 k.k.;.1.C.;.4 G Z.j.C.: F f l ;.I.Y.:.f _ %.} 0 Z.$.z L s I.T.f z m.=.$.| _ & 4 5._.<X).] l ).].1.z $.z s u O.m i | } @ @.kXk.I T.z = _ n.n.6.o.A.;.G = + j.I.C.0 5.6X%.} z F 5 d z T < h I q - L 4._.[..X%.%.6.6.H _ f q } q G [.).q.q.).Z.| C.k.f 4.C.'.=.P G d $.f d } =.f H 2.:.Y d 0 ] } 0 I z q z :.:.P ` P = 0 4.C.V.tX6.] [.N.2.;XB.e H w  .A.1.n.2.N.H 6.Z.%.6.[.[ [ F.~.;XC.).=X%.I z 0 z l q q 4.P : P s * L 5 f '.'...w  .,.,.S H 2.Z.%.0 G C.7XL.=.5.=.|.m M s h =.k.6.$X$XS 5 ` ",
"] l ] ,XZ.I  .J [ B.4.5.H 0 = = 1.[.$XN.Z.,X0 | Y.=X .l ).<XZ.l [ N.] _ F L T x.x.$.T -.$.z.5 P T 0 & 5 I I s I I F G P Z.5.].L.4.=.| 4..X].'. .2.:X1XL.6.] H N.;.* | j.4 l ] ] 1.l l ].=.= 0 5 I f 0 =.T.T f Z.Z.5.q I | G ] l 7 Y..X'.} F .X7X| A 4.,X1X;.Z._.Y.A %.-X%.L 0 5 C.x.| 6.6.A ] _ f T $.} 4.H H 1.7 & l _._.I 4 0 L.k.f } l & 0 5 = ` XXm.P 0 h.'.#.h.4.Z.'.G f x.F * q I f :.uXT.5 5 5 Y o - u O.T  X} & k.c.F I F q 0 q T G G G A A I = %.=.;.-.* s #.' : d F T C..XC.| f F | A w H $.P Y #.} | ] N.4.A w l = w F.B.;.A.;X2._ z F z I.cXm.f d 5.).N.:.s : s :.F  .<XY.A.).N.Y.C.N.0X).C.Z.n.A d L T #.` z l.j.: L T f F _ Z.Z.l l 4.B.] 5 5 d G 4.5 d } =.G _ 1..X=.0 0 z %.0 %.;.L s s z P f I *.G 4 4.'.H = 6.lXxXC._ l _ I I 5 + h s s.j.z : l d - i #.F G qX` 0 I l _ C.N.] | f d ` z.C.:X1.A | '.,X} T z f ` L M u f _ u d G N.b.9.w 4.BXI = f & G P G I 6.%.;.0 = = f 4.f f P %.N.} 0 4.x.f = q l F w V S f j F =.k.| n.T.=.T =.| T F 4 * = & G =.I N.V.[ | H ] H _ A H A G ] n._.~.>X] =.| T } | T G * H 6.;XV.S l q z x.P.* = G c.} =.:.d L 5.4 w  ._.;.3.[.,.V.[. .J [ w 4 0 $.x.n.8XZX.XoXP : & s 4.=X`.B._.B.` m.",
"x.I l f l ] S N.N.N.).7 w 7 q | )._.S B.).A.1.] ;.0XpXn.[.1XZ.= q.;X] q 5 I.oX-X=.$.I G 0 L.Z.P q j.5.%.n.'.| } G | I q } =.} | m.f = f =.:.:.` [.rX;X] f _ ] Y.N.5 d } C.5.] ] 6.N.| 5.x._ = l z : #.I.=.P s F T G f l w 6.1.7 I '.<X'.4.| F k.N.n.6.A.0XuX.X].` f F =.oX-XF 0 F qX8XrX1Xe.;X1.5 5 f | .. .6.H e ^  .w ] ).Z.P H ] 6.6.0 5 F ` F ;...F 5.| | x.n..X_.2.1XB. ..X<X5.| n.4.x.` z > 0 `  XP ; u *.oX,XG $.L.f = k.).f A 1.w ] '.I k. .;.f * & z P m d z.P =.j.| ;X<X7XG F H ;XuXH ] x.j - z h.].L..X;.7 H k.1.F 6.%XH ] ]._._ q =.` I.=.5 I f F 4.wX3.f ; + h z G %.=XY.H Y.'.1.= _ Z.1.q Z.,Xq F T : s f P 4.h : L x.0 4.'._ G l 1.,X1.0 ` } m z.*.: P ` z l n.4.f 4 = = ` k.] = w F z 5 x.Z.} + 5 q l n.n.} = l _ k._ 4 * } n.>.z 5 5 I <XtX).sXL.z < y I _ w w l d f =.f G I w = f P F F H wXB.H q %.'..Xl * G C.T - j n.;.f d F A 3 7 H [ rXA.A I ..4 = d 5 : P * f 0 & } Z.l w w A l _ f k.T.d z ] ] | L.B.] f =.Z. .q q u j $.m.J.T.j.f 4 0 T $.,X8X1.Y.=X2.l G I 4 w f G F G H l J { >Xn.=.Y & s s s : f F $.5.| ] K.z P L P =.P } 4.5.T.=.0 '.,XY.A.A ] ~.6.6.] ,.B.[.[ 7 A 4.k.] f %.n.-XZ.G P 5 d $.6.n.q.X.2.C.' Y ",
"Y.5.=.5.G L.[.rXrX .l A %.%.l l A S 3.,.S S _ 5.;.B.Z.;.G n.A.r r 1._ 0 l } h.L 0 0 G ;.= 1..X1.%.4. .L.0X_.k.k.Y.0 N._._ } f G C.=.5. X8Xx.& & %.Z.} q m.T.lXk.= f = j.| G D A.[.7Xz l c.G $.l 4.m.5 z j j } j.x.q | k.k.V.N.%.%..XZ.l * q ] [ ]  .1.q n.4.4 l s s X & P ;.f l 0 l 4..X] ^ B.] P } I k.Z.[.;Xe.,.A 4  .,X7X=.} G .X;.k._ } [.C.F F ..5.).| '.q * G V.,.6.V.N.k.;XC.%.C.,X-Xh.'.| } x.uXm.L s I T.| = %.m.F F H A.A.1._._.;XL.f C.L.].uX` m L I #.z l q z f C.1.H w q ..f } 4.0 5.| : s j ` $._ 5.w A ] %._ 7 w D S F l r  .F *.j.j.` 0 z z j z F.).=.j.i h Y $.;X_.;.l =.} 5.l _ N.[ 6.4 n.x.C.T T ` ` } } =.= z %.Z.5.Y.} A A..X;.l j.6X5Xs.#.s : d L P ` | 4.I 0 | L.n.K._ G 4 q =.$.j.Y._ = P 4 %.4.G I | 5.F = = I $.:.$.* + + ; I Z._.#X$X| d i h 4.T ;.n.P P T _ f q 4 l G ;.4._ f Z./. .F %.o q I 0 T 5.x.T s ` ` I =.$.| I G  .%.1.[.S.I $.k.0 j P s : * d j.J.G = f f | | 1.6.` 4.G x.j.j _ [ C.=.I 6.G  .[.H r ..` ` j.` P *.I.5.G %.G } ` n. .[.Z.1.z 0 ,X=.f 4 z j 0 } x.N.%X_.T & u h T s.&.o h d d 0 z G $.F L 5 P '.} 0 G z P f P }  .6.;X>XX.] ] J e H J 1.B.J ;X7X1.1.;.6X8X=.%.| :.T =.6. . .;.<X;.5 * ; ",
"=.` %.L.I Y.).A.1.w G %.k.4.4.G ] =X_.1.,.V.N.tXtXA.0 0 | ]  .k.] 1.6.H G T & > f P _ ] l _ ] l n.q ;.1.[ B.A.H 1.F.[.1X6.[.;X'.C.'.4.Z.K.d s ' 5.] q q n.4.5.4.F F f x.0 4.n.4.I F d %.].f 5.I d L s h h z T ` *.f %.I 4.6.I 4.P z s s s & [.1X).>X . .F f 5 d d + X s G n.5.4 %.L.} l  .H _ f f %.I G 4.`.). .[ B.N.[ | F ` L.L.].m.C.} G 5.I ..;X=X_._.k.Y.$.P $.I F H ).;X] ;.C.;.k.7XL.4.G I A } } z F P z 0 d G q = f q * H  .6.1.k..Xw l 0 F F $.F ` z j.} A ).=X| = P ` F A G :.0 4 0 G G } h.C.5 s f f } ] [.].0 w ] ;.w Z.Z.H q.S F d } z j T d z T s d f x 4Xx.h u ` N.S N.Y.5.'.oXF D >XDX>X7 7 f ` 5. X} P G m.x.z C..Xn.f ;.C.| ;.Y._ d U h x O.< j h z x.P Y = 0 = f I.L.4.l w 6.n._ P.AXn.q l G _ } 0Xn.%._.;.1.I f 4.].C.P = z f * * L z I { w w | I P z + =.m.I T 5 & 0 P * l ).;X| F 0 A ] | :.C.F T C.$.T f d 0 d P P T I.'.;.& Z.;X..Y.Z.| j b T * h L L = z 5 f $.x.` d $.5.I V.1.4.x.} q ` L q _ ` q G C.1.V.>XH { ~./.yXL.5 5 5 Y.n.l _ P l q q ].0XY.x.P d '..X'.$.` 5 h d d s =.s h T g ; I.XX4.F z 0 T } F | 4.=.x.$.: s G L.=.` j o z F 1.r A 2.w w Z.:XV. .D e D A  .Y.] l 0 P C.0 = F -.j.j.Y.;X_.,X-Xz l s h ",
"l %.| f J F.e.D ]  .l ] I } 6.6.N.[.6.q.A.F.).F. .f l ;.'.Z.1.Y.7XL.].8X,XI.L C.x.=.Z.6.'.<X .H F.q.1XtX1.B.>X[ ^ ~.V.6.^ ] | ] _ ^ D | | 0 m.-Xk.l Z.} z $.` f L $.k.4.q _ _ } F T K.4.| C..X.X` :.j.J.j.F 0 P 4.| l 4.n.| f = f G F C.:.5 Y.%X`.B.& [.1XY.I m I x M P G [.Y.| Y.C.m.,X[. .G 4 0 z q 0 I  .D 2. .J N.Z.Z.F L :.4.j I f G } f * q %.| 1.H A ] L.T 0 = l 6.=X| 7 k.L.I | I F } } _ ;.=XI q 0 P F f k.L.} z F = G A e S  .Z.$.T 5 q & + = %..X=.1.C.B.pX_.z d * 4.Z.5.;.5.d q _ z | x.h.F d z } N.Y.n.Y.6.f %.1.B.A ).Z.;. .N.2XC.f z.qXqX#.d x Y u + * L O.u i j.5.D [ ] f j.$.0 D e.sXvXpX_ z 4.P.z F I.5.* 0 } ;.n.l 5 F l A q w q 5 ` j s * y s $.T.4.: + d = * I :.T.7X4.I %.C.| F Z._ & w ] Z.'.%.d j.oX} 6.G 1.'.1.;.:.` ` x.z z z I T 6.V.$XsX;X_ : 5 ` ` = :._ & s T P m. .V.A.1.H f K.-X` :.P.` ' z & * = 0 5 j P d 0 G q q 4.%._ k.Y.` : O.#.L z *.T 0 f } K.F | x.I 4.k.k.H I T :.x.0 0 f P =.G I 5.C.k.<X .S _.~.t.r.l d $.| :.:.l H | l 4.} '.Z.:.x.f _ %.;.C.m.I 5 5 ; + * h h &.O.- Y =.T F P * : } :.0 G L.,XK.:.z s F '.C.C.T.:.s f Z.1.:XrX4.G k. .] 2.;.Z.N.] J _ [.C.} f j s #.=.F z T C.A._ _ w 0 I : h ",
"] [.[.] N.VX%XB.~.F.1.] ...._ ;.6.Z.n.G | T.*.d 4.k.k.m.G %.` $.K.Y $.T.m.0 } oX-X* ;.'.C.6.q 6.;.;.F ;.;XpX_.1./.3.3.[ w q ` ..( D.`._.:XZ.;._ q :.5.I G F f = : F m.P ;.4._ I ` } =.F %.'.).1.| ] N.=XY.6. .Y.rX| H Z.F 0 I Z.1X6.e.;X$.| ,X~.] 9  .] n.l s :.:.h d d L G n.Y.n.%.$.I 5.[.4.0 F 5.4.l G q V.iXN.f H pX.Xf $.:.4.=.:.P } K.G q 0 & l A w Z.qX[.%. .{ D ] 1. .| <XY.H } = P F = G ] L.I l F ` ` 4.].N.G k.,X'.V.6.] l 4.4.x.'.: f } P ;.C.'.lX%.q 6.F.0 0 z + f } Z.5.| n.5.l F I 5.5.P 5.} F k.Z.4 } n.l } iXZ.G 1.k.] A o.| G F :.T.T.d d m s s d z -XqXx.u d f ^  . .N.I : d %._ G C.;.5.C.4 ` $.%.5.| = H 4 * _ qXN.F F * D 6.| _ 4.G F h.` O.I.Z.K.h - h d x.=.x.oXC.4.rXuX*.& + & & 7 X.$X<X4.L *.` L j.] ] _.2.q.Z.5.5.%.Z.5 >.P.:.m.6.4.` %._ 0 5 + h = H Y. X=.s : T cX,XH 5.;XA.Z.8Xh.s P.J.: L m d z z z T L * d 0 F | Y.C.=XP F F f ` Y.Z.5.L j d z 0 G f 4.-XC.h.'.4.f A 4.'.` } } k.P G | 7 c.].'.k.` f G G ]  .A H A._.n.' d d P ' x :.z.s.m Y 5 d l * G _ F P h d *.O.Y &.p.h : l.'.F = I | | T d 0 l q _ H F I z 5 j h *.O.T E.d F $.c.L.5.j L $.} ] 5.F =.6.1. .6.%.L.4.0 $.z ` P.d 0 T q } f & 4 l z L j ",
"=.].A.A A B.V.] ,.1.| 1.H 5...w _ n.5.G P z 5 4.T.} ` G 5 0 d j j u M ` & F f C.=.} | } l F f } l 4 4 l _ 1.A ^ 3.e.6.G + 5 c.N.8 >X`.X.n.N.L.F ` Y.m.} l F '.'.T j P & f ;.n.L.T :.I.4.l 0 * 7 ] ^ [ r ^ ;._ 1.;.] ;.G * 0 P 6.1X!.`.[.0 } | =  .).:X).<Xm.>.: 5 4 } _ z P F 4.n.l ` } _ | 5.f = | L.n.).G N.N.| I G C.%.0 } h.d f j.J.z + 4.k.N.,Xn.= S Y.Z.7 ] 6.e.2.).1.Z.K.%.| I 0 F $.` h.=.k.I 7 _ C.:.$.} =.| z F | Z.=X=X .] %.I C.x.` C.6.;.6.H A 7 w ;.;._ 5.;.z :.:.n.l } %.Z.4.].$.q f l F G 4.] ..%.F l 5.L.q _ ..] 6.| H 3.,.H = P ' * + * z *.z z I z %.5.:.u u * ;.6.n.] ;.q $.=X%.I L.;.z ;.G G n.Y.k. .I 4 F G 6..X_ 0 4 * _.2X,.1.1.G w :.z 0 z I k.` z.I d = 5 f F G 6.Y.5.q + I | 0 } q.N.G f h U m Y >.l ^ ]  .[ A H L.F z $._ ` ].m.} :.q q q 5.J.y P I f | Z.` 5 h s z ` I ;XV.3.] %.d s T s j T.j.:.#.T.oXT P f F $.Z.,XrXZ.P I d & f  .[.1X`.z s ` ` 0 P F = =.C.;.n.5.k.,X].=.d & f F = 0 0 0 T ].$.=.x.N.G _ ).N.G A.N.;.4.+ : L d + z *.z d 5 5 d z = 7 ;.;.5.m.T g p.*.z.T L h Y x.0 F G l 4.$.f h.T.;.L..XG _ 0 5 L - ; +.&.m h j P ` > F d ; h j } I I F L _ = A _ w G q = o 0 F ` L $.F & & I 5.H n.1XI.5 ",
"h #.` P I w 4.N.2.%.= w 4.| l I.n.=.l 5 T G 4.'.].I G 5.| f s d j h Y ` :  XI.%.G 5.I f G } 0 P F 4 P C.4.%.| ;.1X_.I & h #._ 0 ^ 1.;.I l & L P z | | } 4.z x.K.:.$.0 ` I.%.C.L.$.5 C.'.q G ).[ o. .S ( V.[.1.2.o 6.n.q 0 f = 4 N.3.<.<.A f } _ 3.).).<X=X Xm.F 5 ` 1.N.I : s =.I L.1X_ I _ '.G | 1.A ] ).%.;.C.` 6X'.0 = 0 * l I.| z.C.f : G =.Z.k.G A [.Z.| l | N.] C.C.F ; u = ;.1.k.T.4.j 8X8X:.q q | N.F = = j L j j : * | 1X5.H Y.} 5 =.P _ z ;.Z.f 4 _ ^ 5.5.+ F } = l ` %.l x.Z.G T.j.4 > s } I.P P z 0 * q f F 0 7 F =X5.1.I w 1.( ;XL.q ' =.T : z T d + 5 %.} 6.%.* d n.n.<X0 X } r S ;.T T $._ = 5.n.A 6.|  .).L._ n.N.).1.] '.1.A F.%X,.H 2. .A f 0 5 T A.N.F $.F f * 0 f 0 $.I G H G A _ F 4 q 5 I q } m.; + 5 0 q f F G z 5 >.qX*.` :.} oX,X| ;.[.5.q.).<Xm.i v T $.7 F z j z 5 h 5 s A N.). .k.P : f d =._ F j.:.=.T I z x.T.| } L.L.H q = F P.F _.1X&XwX} F Y.Y.C.ZX8X4 f P f I ` %.=.T F 4 } z T ;.I F I l q w  .6. .6.q.).n.G F._ G l l j.m.h G ;.A.| q Z.n.} I 4 l ] N.5.P P < - X j x.h < s d G ;.1.w 7 = = =.=.| Z.L.%.n.G = P Y m u h Y : 5 x.z.| :.f ` s.u 5 G 0 ` h.` _ | f ..n.F G %.,X%.G | =.L L f f $.I tX0XI l ",
"O.L #.,Xk.H [.lXZ.F l ] | k.L.] f l q l 6.H n.Y.=X5.l G q q T } x.L h * j } :.f q _ _ F F d q f 4 q j.L.C.5.k._ ` T z z #.J.l G ] G 4.%.& X L z 0 P F ` Y.z = L :.` = f H k.'.0 z : + l F _ n.q.N.e.2.$XfXB.;X=X4 q G %.4.T.%.} k.5.{ V.B.=.=.L._.D 6.;.q & & G z z F F 5 d s 5 '.1XN.A P F l S H H G C.L.` 5 F s P $.G 4 I } %.=.8X4.z z z s z :.;.7 _ V.4.<XlX5._ H F G f - s L. .H %.} ` T d T.,XI l 1.4.[.%.f ` :.:.J.$.I x.;XN.L..XG & = s x.5.].} | l N.6.r [ | G w 4 & >.$.z ` f f f q T x.4.s z h 5 f z m.P F C.I 7 A _ N.] + 0 N.F.=X-Xn.*.j.:.` J.qXJ.= } Z.;X[.n.0 Y.6X` _ * & 0  .A.].F q l F 1.tX;X[ S X.q.B.[.B._._ ] q w C.5.* { B.V.1.[ _ B.C.L.G =.[.J = } T.} ` :.=.P }  .6.V.;XZ.q 0 P ;.:.P 5.=Xj.j * =.6XZ.q 4 4 4 = _ L s * d z k.1.l 4 2.yXyXD.F.j.5 * z | 6.].` : Y *.s.O.& F L.1.V.iXY.G G 6.%.0 4 _ } 0 q I f T K.P 0 ] w 0 N.=.4.` * [ 6.3.] F _ ] k.C.G $.= f c.4.Z.=.z d :._.H ] K.c.5.| } %.'.| | [._.S 6.1X_ } H B.4.P f $.m.#.d L.1X .6.1._.%.G | %.1.B. .0 f s : < - : *.Y i L K.'.2.~.tXiXN.Z.'.G l I G 4 G H | j.| x.* s :.j.=.T f 4.=.| #.*.h f %.4.P P :.G %.%.` C.5.L.;XtXk.4 4.P =.=.s x.6XA 1.6.;.Y.",
"$.| | L.[.n.2.B.w Y..Xn.7XN.k._ D X.A [ ).6.N._.N.| %.7X} G %.;.'.'.n.'.-X0 0 ;.n.I G ] I ` T F q P f z f 4 l * a v P ` =XZ.A 6.^ 3.;X[ l | ;.q 4.I.T 0 $.$.x.P z : T $.& I ;.z f f & P l 0 I q.H ).[.X.F.).ZXH 7 4.Z.-XL..X5.x.=.L H ~.Y.-.C.'. .( r w 5.C.} Y.'.4 ` m.5 ' m 5 d _ Z.A.j.f H ^ 1.B...Z.L.T : T + * ` 4.I 1.1X.Xq T } z s j }  X4.'.pX[. .Z.6.C.%.7 l ;X:XN.] %.Z.[.0 0 } s * & s $.x.L.H 1.1X:XI Z.'.C.} $.F f J | | I .XF z =.I } lX| ;.;.I w 1.;X,Xz | Y.I m.Z.I w * q j.L.L.` : $.z 0 0 P Z.4.} 0 n.,Xf & ] ;.H G _ V.$XL.;.:.' L z T <XqXj.5 C.).).q.q l j ' z m.j.'.N. .N.=X6.k.].1XrXNX[.,.X.e.rX$XD ] 1X[.G 7 7 w 1.^ ] ] A G J f N.I.4.5.1.H 7 P j.4.k.C.4.C.C.%.4.k.k.6.F f _ Z.;.Y.=X.XN.` x.m.oXpX .8 ] _ = _ H F oXL #.%.] 6.1..._.pX&X<.!.] F  .H | | } 4 f #.=.j P : T | = 0 [.). .] [..X6...5.%.} n.P = F G } F l G =.'.4.| | ;.l I ] [ q G 1.).6.f q F _ I | } z 0 & G :X1.0 } = 0 F G G n.F A 1.6.k.G | j s x d = z q ` z F 5 4 _ P P * f ` ' d z ..4.[ l :.m ; o s & & U s s :.].V.( V.;X).].,XG G ;.n.C.Z.G ].qXN.wX1._.uXK.P K._.G S | =.P ` =.N.rXk.5 Z. X=.` :.L.Z.4.[ G  .%.XXj.Y h : #.=Xw q.nX;X_ ",
").). .S w D ] w l k.1.I _ F 7 w ^ ).).A ] 2.;.A ;.5.L.L._ ..%.G ] ;.N.).Y.L.Z.L.;XZ.)..X5.m. X` _ T.P.=.F P %.m.v y L f ;.n.6.[ 9 [ [.F. .C.} _ k.;.H oX,XZ.=.j -.I 0 l l <XlXl = j %.'.Y.| Z.tX2.^ 5.S D w l 5.;.w $.:.| C.5.` < < %.| | I j 5 G e.l k._.Y.C.K.5.f d ' :.I.T d 0 A  .4.} P 5.A.[.[.k.= > s L 0 4.m.` 5 n.).[.[.G =.I ` ` I :.m.x.;.=XB.[ ,X1.H 0 P H w 6.B.w %.k.[.n.= T T.z 5 h P =.;...L._._ A H ] } '.` & w  .A.H P 5.:.$.T d _ C.G | L.;.F | ;.:.` | '.G :.I F F 7 F L.L.4.l I '..Xn.7 I ] P C.6X<XC.$.& 4.n.| d P N._ | f G 4.F q 4 G :.l + 4 X.2X1XA.%.L * u C.Y.C.Y.[.Y.G n.L.0XrXtXe.N.V.V.] A { ,.1.F. .A _ q.N.A ] [ A q.'.G ] =.q d } Z.[ 0 P P ` F P | 0 F q f f 7 o 5 T ` _ I Y.n.q H q %.0X4.| S 2.;.2.n.0X6.] Z.m m k.A. .H w ] 3.3.,.`.S 1.;XF.[.Y._ =.k.I P f s d P f f f ] 2.J 1.A.A.). .1.1.f f A | A f G z ` j.C.4.I l k._ } } %.rXV.H [.6.A %.l 0 l L.n.& z F = H :X1XN.4.= l ;.| H f 0 q } %.H } 5 5 5 P G.T.Z.`  XiX,X6.5 } Y.z 0 n.m.m J.|.f A  .:X} 0 : 5 j I *.&.h d 5 = w 9 = 1._.P G l 0 F } G C.| H | V.%XV.[ } q z '.).6.6.| L.].` } Z.:X1.f L.c.T F } 5.| N.L.| <XrX$.L s m h P z q 6.~.N.A ",
"D ;XtX).^ B.[ w 1X,Xw = n.L.l T H 4 H } I l T f * '.uX .l I ;.$.& k.,XZ.A.Y.;XC._ H | n.P F z ` I.oX<X].G _ T. XM m ` G f ;.[.F.q._.F.1.H G & _ Y.%.N.N.x.=.f = F P ;.k.H } N._ F l =.k.5.F G 0X_.( [ ,.o.B.6.'.} 4 _ =._ 6XuXL h b } F =.j - = H A.F q [ H 0 z f 0 * L T.} P k.L.A w q d ` [.tX1.G :.s s m } 4.x.m.l = G 5.tXxXL.l 5 | K.T.z m.mX..o (  .A ;X2XN.| q q 0 | l C.4.| c.0 : =.` o h #.4.:.5.A  ._ [ Z.Z.'.].5._ ).[.N.G f =.K.5X` f G q l G n.%.f $.& f 4.l f 5.Y.G  ..X} 4 ..| P f x.4.L.iXZ.4.G s P $.K.x.%.z j Y u s h G 0 } Y.,XX.).,.] w l F :.;.S 2.A.| I *.d 5 d = = G =.} =.q |  .A S 7 A X.1.q.D $Xe.( [.N.D 6. . .o.rX!.9 e.5.d j.m.f . 0 I A %.| d m j T 5.=.| l I Z.j.z P >.P d 5.G & l n.f } f * _  . .5.| 1Xq.A  . .& h A.B.[ w w = ] _ ] L.1...| l f ;..X;X[.V._  .L 5 f = _ n.d 0 q q 7 I = 7 1. .= l A._.w H 0 z F 0 } L.Z.k.[ n.).sX1X[.2.B.[.6.5.I 0 0 H 4.$.j = =.f H B.`.[.ZX_.H =X0XV.] A H 4.` N.C.c.k.S [ 5.F 0 w ;.=X.X} 5 F n.A q Y.'.h.$.P.j =.).vX4.P x.:. XT.XXj.P P j n.rX;XA ).,Xf 0 s m.F G C.,X%.f f G f w G P * * 0  . .2.H ;.k.5.G _.[.} I I f P ` I I G 1.1.H '.L.L P T s.z :._ I A.N.F F ",
" .r  .2. ._.N.n.[.N.l q %.F $.k.5.q P ,XC.G | z = l n. .| L.].` 5 *.qXlXY.] ]  .^ n.F G _ 0 * #.m.T 4.5.0 * %.C.L : z z s 5 } 5.| rX$X1.5.A.;. .>XV.A 0 1.` = } =.C.,X=.l ;.4.1XZ.f + 0 I Z._ [ S { V.B.5.6.5.l + q Y.I f l j.:.h =.} =.=.s ; m 4..X:.P w 1.x.I.$.5 d } Z.k.w S A k.].$.5 I | 5.4._ C.P s 5 ` ].=X..f _ 1.] n.k.G 0 q f P T ;.I 5.}  .[._.%.:X1X_.I =.uXI.j.d =.=.m.F j.#.: s j h P -.x.7 & 7 7 | A.%.A I l w ] _ [ ] | z.*.:.d 4 5 H l k.6XT.d d #.m.:.T 5.k.5.I 1.4._ f l ].,XI I F Z.} F G = s s j f G .XI : T h y P x 5 F } l [ fX>XF.r q f I n.} 8 | q 4 %.$.P.J.T.=XI ` 5 d z %.| F ;XZ.;.N.).A.F.2.q.B.F.D A | ] [ [.pX2.6.3.f z 0 4.5.G Z._.V.=.F =.M L d } I 5.| %.mXj.4 4 = q F 4 * * ^ _ q _ l ;.Z. .r [ Y.[.N.2. .I *.s 2.V.1. ._. .P ` I } T z =.F 0 _ Z.%.Z. .{  .5 u z.%.` T j XXx.=.P ] J 1.6.6.A A w S G ;.Y.;.G } ,XK.} ] _ 6.V.V.( A ^ B.1Xq.G I d :  .] d j.T q } } 6. .N.rX[.6.uX_.[.,X%._ I =.Z.;XN.1.).`.[ l 0 f ;.A.C._ l %.N.q.5.;X,XK.` T ; h.[.e 4.rXj.F c.| } ` s f =.4.lXrX^ A.Y.$.=.I.-Xd z x.x.} | <X<XF $.$.F P l %.{ V.3.7 f } | T 5.F 0 q 0 0 q = w S 6. .7 1.5.0 d s : T =.:.` Y._.l d $.",
"Z.H ..| 1. . .Z.5.G * 4 q 4.F F ` I ` =.} 4.<X| _ ].n.Z.Y.F I ` T.m.*.C.;.w r  .).)._ C.uXz.: ` :.q 5.} + d l j.#.L :.;.z.F 4.H * A H l 1.A.B.[ 1.e.`.)._.L.G _ } Z.....C.4.%.N.H w G | 5.uX6.A ^ [ 3.7 | n.| l f H Z.;.G _  X XL s $.6X` 0 T z s j h P | %.4.Y s z m.h.| C.[.Z.N.N.4.=.} G l } N.H : s Y J.j.G G 4.%.Z.;X .f H 7 %. .l w l ] f 5 I _ V.<XA.B.6.] ] 5.-Xx.} G m.=.` K.L.0 & j T =.z z :.4._ ] I | F = | L.H X. .1.V.K [.T.h s l 4 | 6._ | Z.*.K.j.$.m I.j.G = H ;.k.).= + 0 6.).%.A 5.HX,X} 0 0 z u z F C.Z.,X-X' ; z P.*.z 5 4 z | Z.D o.F.| 0 o * = _ G A q.[.N.5.].,X| A _ H * _ F ] | 5.] f n.'.| f 4 C.Z.5.= | Z.uX=X] S H [.%.F P P L.<XN.~.1.6. .0 4.$.} ..w 0 6.] A 4.w G } | l 0 q A _ H =XZ.d s ` | ;.A.;XL.} k.` d d ; 5 6.8.9.k.E I j z j j T T.T * = l  .6.] ^ H 1.I 0 Y.=XL.G P XXI.=.T I 1.1.pXB.H  .= f 5.Z..X4.d F P z 4.;.I Y.'.A 7 6.6.= D e j.I.z ` '.2.4.7X.Xw F P %.G C 6.Y.I | Y.n.G } L.=.F Z.N.4.C.{ [.6._.'.f H A ] q.B.$XB.;XZ.F.[.[.G z T oXZ.H G '.| f $.z f I 5 f F 0 L.:X2.6._ : L :.L - ; L x.x.5.6.H  .A.6.).Y.| C.V.rXV.A 4 I f z $.$.F T } F f | V.;X>X;Xe.).%.z s s - 5 ` I $.Y._ r q d ",
"=X[.;XrXN.A F | <XN.I 5.L.Y.=.%.f 0 G q ` C.:.` ;.| 4.=X[.H T f d L f 0 H 8 A H ;.f G K.-X,X' f j.:.4.L.5.| z j.T.m.C.%.#.L _ $.n.'.T.%.z G  .G ,.{ }.~.2. .H ] l A l w q q _ G } G Z.'.,Xk.f | F.,.^ Y.;XY.l F F Y.L.).I H | z j s z _ l ` =.T h h M L j.$.* s d 0 :.'.F N.:Xk.4.N.} 4.F j.n.5.G 5 = z j.oX4...q w r 2.`.1X6.5.w k.[ B.>X[ _ | } k.C.= %.N.S 8 G ] 0 $.K.I f l F 5.} T 0 P z K.x.0 d ` :.5.T.` l 5.1.5.7X7X:X:X).6.V.e.j + f _ %. Xk.Y.]. X*.:.` d d ` F & 4 H N.4.G 0 =.P = = H = A =X%.$.P d s 5 ` P ;.Y.,XL.f X T :.F m.5.$.` P iX[.B.yXtX_.;.} q ` k.N.).1X=X0 5 F q } 5.l q 7 * 4.Z.| 4 } 4.5._ f l 0 5 & G  .F C.k.& 7 I L.I : T x.'.rX{.] 1.] A.6.A ] ]  .q H 1.5.0 q | k.=XZ.5.| 6.4.A.C.-X_ . & 5 7 N.2.H 0 d s z T T o $.2X~.B.H w f j } s o z $.+ P Y.;.H [.X.^ n.Y.H X | %.} %. X=.s : I 4.L.A J e 6.;XH ` 5.C.2.N.f _ ;.C.%._ | F | f G 4.%.1.%.= %.F ; T ;.l Z.k.H F : F k.N.3.e.n.f * _ l q } } ` F 0 4.).n.w [ e G Y.k._ A r D B.tX1.0 l  ./.V.w : G h.E ..I | P k.I.F ] N._ =.T.j.5.I l F %.0 5 0 L z + 5 h z ] w S D ] 4.1X_.P 7 S A ( 1.} m.x.J.K.K.h.d I P _ _.).N.3.2.N.I z z P j L I.x.F ` l S r  .=X",
"=.=.G 4.;.f f 6.L...C.C.4.C.N.'.G l ;.%.j.k.f l =.l | B._.;XT.` * d P G w 4 [ 6.] G } ` T.8X#.5 j.G I %.<X.X} 5 j.L. .q m Y z j.$.J.9X` G Z.P 4.wXDXe.V ;XY.7 I ] 1.[.<XI G ;.0 ] ).'.L.Y.q = ] H [.B.;.$.= * I ;.%. . .] 2.6.f f I w G 1.] ` XXoX*.g T j.f d =.} } ] f %.6.%.k.1.H G q d q %.k.P j I ` * f I ] & q ] [.V.N..X| _ B.[.1.V.L.6.} <X,Xx.L I ] H | C.K.l f k.%.f } Z.| 5.] 0 qX| G :.` G | z s P q 4.).k. .} .X4.G | H 8 { u - z 0 C.R.;.uX_ = z >.O.P Y #.Z.` ;.[.4.0 q $.] P I A H 1.k.4.0 o z z d F f n.N.6.J S w l C.$.l } >.` : s 4.k.] S _ 0XF.2.| j.:.m.Z.d L z 5 5 = =.f G L.f ;.L._  .n.'.| } f G q :.Y.G F l 0 } =XF & = 1.z j m d I 6.6.[.iX ._ [. .& _ 1.] G q f x.;.q z x.*.` :.L f } %.,Xj.* 5 F 4._ l m.J.5 5. XL.%.& :.rX2.3 %.(.= f %.F I $.$.f I  .w S 1.H 6.Y.| A w I & F G '.5.| :.%..XN.H w ,.~.wX'.;.z q =  . .6.=XC.6.1.V...7 ] G k...l F ] N.C.F : f H j * * G ` 0 G l ,.>XN.I G Z.j.} q 0 ;.5.= 4.F.S q.A. .A.C.[._.] 6.4 [ | o z 5 z .._ Z.4.I G T -.%.I l l 5 0 1.] 5..X| G G f * F I } G A | G G f ..4.] A S 4 N.nX .w ] l 4 H >X:XY.C.:.F ` d f P 4.} d d %.Z. .=.| z s 5 F } F :.$.P _ G V.F.1._.",
"P } F f G %.} ..k.| | Z.V.6.| 5.;.l I %. .G f :.;.A = X.Z.=X4.0 ' } ` _ G H tXtX^ A G 0 j.=.5 *.m.} ].C.;.Z.n.q | C.N.H * M :.5 * L 9XP ' T f L.6.,.H e.)._ ).Y.f I N.;XN.C.%.Z.<X_.n._ 5 Z.'.C.].1.q | P j.T :.] q A.2.H 6.Y.A f q 7 2.J | F j.C.:.u : :.5.f =.4.] H A V.;._ L.Y.5.F } F _ N.m.*.m z L N.=X..F z z ] { D D _ s } ;.6. .6.n.Z.%.z I ; j G | '.| F f f G x.L.Z.C.C...6.I I ).7X;X[.1.'.L.F = ` } | Y.1.0 o I I = f  .e.] d + d $.Y.H + Z._   w ' z z m.E.5.4.n.1.%.Z.].].l | 1.).;.H 1.Z.} 4 0 z P '.C.f 6.A ( 1X2.6.n.l z 5 X * s x & 7 %.| 4 %.X.4 7 _ f P P f x u T z l F q P ].} ].rX5.] q.tX5.| | | _ 4.L.H ;.1.N.%.| G | N.N.Z.L.z = 0 F l 5.G %.=.l  .2.H  .H = q z L.K.& * s z m 5 z *.P 4 L.T.z | P _ 0 l _ L.G %.Z._ 0 d L b.H Z .X7...w f A '.L.6.H w w [ B._.] 4.G 1.).l I f L.Y.4.Z.k.4.4 _ 5.H ] [ e.,._ n.F 0 H [.=Xw 6.V.[ A C.k._.Z.G | '._ = 1.[.).4.4.%.= 5 5 f k.F q q & = w w w G _ F P 7 = | | d C.N.] B.[ w _ 5.N.....Z.pXY.4.` F *.T | %.Z._.[.[.-.s f c.j.4.$.m.1X:X= * 7 = z z P } P G f 7 0 Z.n. .I 6. .6. .[ 2.C.l G H ] ,.V.[ B.5.* s T s d T =.$.Y z d ` %.G =.f T $.& 0 L.5.:.P ` } [.wXV.S A ",
"P :.K.j.L.Z.0 } [.A.%.,X:XH ] 1.Z._ l f H l * } G _  .1.w 1.Y.=.*.z.| _ B.N.N. .4 G } m.L d * ` *.$.m.1.I | G ` j.n.n.L.x Q T j s s h z s 5 z G G l _ k.q F n.0 4 * A A %._ %.Y.6.q l L.} | ;.G L.C._ .XJ.:.x d l 2.DXyXH  .6.G %.} J V.)._.| = = } $.J.;X_.A 4 3.e.2.]  .f f 0 _ c.z : ;.'.1Xj.g i *.jXlXiX1XlX:.G 3.%Xe.D P 5 P l F f s : : j.L ` s T 4.[.C.T q z f 5 $.| n.w ;.] f H w N.V.2.V k.Z.| d 5 x.4.z 7 = G 4.5.L..XqX.X=X).` 5 =.C.$.4 0 G 4 = 4 4 & s L L G * = 7 f m.n.` I k.1.G G F = = F 1.1.x.q N.6.w 6.3.,.3.V.1.] | x.j.$.5 x z | k.n.T.L - s _ w ;.vX[.+ I $.T =X7X} f 4 l ;.4.l X.1.q. .8 r D w [ 1.G = | >X>XZ.N.1.pX[.2.!.rXZ.0 f I } f : T =.4.=.| [.N.H ..G %.l f $.K.z F >.I '  XK.P f _ $.` | z | ] _.q.Z.5. .=X:Xf s * J 6.] f G 9.1X3.1.iX6.2Xe.( 2.N.:X,Xl w F G C..X5._ n.C.rXpX7 0 P f A A _ H ] ( 6.w H  .4.mXL.& | L...f G C.k.%.I q 7 q f P | ..f 4.lXk.0 0 G P G qX:XA.9 V X.] S H C. .4 7  .f ` L.B.) 6.] e [ rX..w n.n.N.6.4.[ N.).| H F ;.] 1.S.s * L  XI :.,XN.1.4._ N.] %.5.` P z 5 f $.` ` T.h.F f = * G I H f 0 ` ` f ] 6.6.J Z.5.: z T C.'.=.C.j : f 5.;XvXN.A f x.} : 0 ,X,X'.F s ` z G ] T P ",
"T & } I.%.0 0 = 4.uXZ.G ;.[..X1.w ] %.| ,XtX;.N.[.;X;XA.D A F *.L f + l 1.2.2.,.F.| k.m.T d 5 5 5 j.=X| l G ` l 0 :.Z.].j.i m Y Y *.G.=.L z Y J.T.:.` 5 _ I f f [.%.& I Y.%.} _ H w * _ P 5 & l P G ` ` z 5 * f H N.{ D 6.>X).1.} =.l S 1.1.f P ;.$.s 5.[.A l A ,.%XF.4.4.;.;.I P ` z z %.F 2.Y.u i h :.Z.%.G $.d = A 6.e.,.G = F d d * L l.L j s : j P ).7XT L 4.z T 5 f G 6.N.6.L.5.} q H & 9 [.rX5.f P L O.& & = P 4.;.= w =XpX%.= 0 5 5 T _ Y.| l 6.C.C.].5.>.` 5 z F f ` C.c.C.%.'.,XN.| f 5 = } Z.k.lXxX| ..).6.6.:XfX>Xr.%Xe.] n.0 _ P s m L 6..Xm.d P Y X G 5.7 3.).F f P _ 4.F q G | .X0X5. .).1XF.o.( sX$X2.[ w N.n.1. .A ).;.H q.] S 1.F.Z.5 f :.n.T d ` j d d 0 ....Z.C.4.V.| = Z.8X} q 5 0 f '.,X$.| Y.Z.Z.` l 5.F._.D A.Y.Z.=X[.%.x.T A.7.%.] G 7 {.9.A 3.] 3.e.%X:XA.[.F ;.I 0 F 5.=Xm.z q 5.V.2.w $.w q I I A S 6.] V.N.N. .4 5 = q l A [.7Xf f f f & w ..].} = 4.l d | V.%.l G f f ] [.rXNX).e  .3.w A Y._.N.] A = = 5.[.V.:XN.w S L.] _ =.| 0 q H ^ B.q._ A q f 7 ,. .& s F h o } 7XZ.0 H V.vX$X6.| P z =.%.} :.P ` z T 0 d L L F x.z m.,XuXXX` & = A 4.iXk.> d s 5.Z.%.$.d 5 d N._.tX2.7 w I.'.} H w l F = s 5 0 5.;.0 T ",
"I 4.n.= f l q | ..,X[.H | 5.n.= l H | q.).Z.6.1.A.[.).N.B.4.5 5 m z 5 w ] `.D.`.=X;.%.f $.P z d f F =X].=.T ` z F f F z :.#.& * ` J.:.u i M p m #.P z F P l ` } ,X_ F C.[.Y.1.H  ._ 1.P s M j.x.=.C.j & d T } H ^ ( ( = ,.`.6.H L * & G 6.B.Y.x.U h & * _ H A l B.F.6.l 1.=X].C.` f $.G F n.N.1.:.=.h ` q w = = z :.q 8 _.>X_.| G d U U U L h j & * j P ].Y.5 P T =.l = l ..A  .N.5.I.G q 0 7 ,.e.A  .Z.:.P z z ` 4.} k.k.| l G I ] q f z P F :.N.5.f z T K.T.G d $.F 4 l l ` qX Xj.d ;.L.| z ` T | ,XL.Z.).k.l ..=X1XX. .H B.>Xn.] * F f 5.j.j h & $.Y.j.q I [.2.V.S ^ 1.N.| F s z f G  .| f $..X_.D 9 { 2X3.<.;X2X~.1.5 z L.4.I _ ]._ l 4 l ;.G 5.[.:X4.$.x.=.Y.4.$.m.f q G f G _ 2.6.V.S f d z %.4.F 5 G ].L. .=X;.7Xn.q H N._.1.'.4.4.%.:XN.2.pX;X] ] _ I H | 2.[.w 6.1.A 6.%.] T 5 k.4.0 :.n.0 4 5 = q r r 1.Z.l G 1.L.k.H V.q.1.S _.B.q 5 P d G 1.N.).G F G A N._.Z.N.5.G N.A._ A H V  .[.;.4.[.J ] 6.N.0 S .. .H 3.B.[ [ _ = %.6.A { 6.[.;XG A H 4.f ` =.:.5.'.Z.I | | P q = 6.2.G T L s s T '.Z. .[.S ^ { ( 0 f 5 : } I j : d 5.'.* f K.x.$.} f m.qX X` l I w G Z.C.%.P m m | A.{ N.4.= ;.[.>X] ] S ] F $.F q G G F s 0 5 c.Z.| G G ",
"P 4.} P 0 | L.].k.G F H H 7 q ]  .n.;.6._ 4 4 w | ).V.A. .l 5 s P 5 G 4 A N.2.3.N.} k.$.z 5 0 } | q F q ,XmX4.k.I.= x.T.J.:.z z :.m.d & I s m h x 5 :.5X-X5 5 F _ %.Y.A C.[.;.1.[ _.<XJ.z i :.,Xz.Y =.m.C.k.Z.A ( [.rX1.V.>X^ ;.j.m _ ;.l D 1.L h - 5 G H A l F N.7 = A ;.} } I f P $.G =.=XiX1.` G ` G 4 N._ G j.m.4.2.X.3.F.Z.k.4.L Y s u *.L P j.L I.[.f f = f L.} 0 f F = f K.T 0 + =  .[ _.!.3.B.4.I } | L.$.` ] n.4.,Xn._ _ l :.l q } I I _ Y.C.z d $.%.| + _ 1.1.] H & z $.5 0 = P 1.I | P =.K.4 7 l G | 0 I 1XrXf o 4.Z.| I :.I d ` *.5 i m z z Y m.;.>XFX>XA 1.N.5.z ' d 5 %.=X=XC.d L N.|  .] o.).( w l _ | Y.u - m 0 4 0 4.x.4.} G P d l 2.fX] & z I l I %.$.:.I f %.;.^ X.1.e.N.} * ] | %.4 q q %.G l %.4 :.%.4 _ | 7 ] L.P =.T k.( 9 B._.S = = F k.=.4.'.I k.=Xn.G A ;.} T.8XxXK.T z f C.,X;.I 6.^ Z.l | C.4.<X7X_ ] ^ G ] [.).:.z f d Z.L.l n._ = S A.F.,.l _.vX6.[ :X .H S A V.<XG 0 6.8  .H S k.6.6.w  .;X] [ ).1.1..X_.e 3 9 V. .,.H w ;.1.G m.I I _ } ` L.oX$.q I 6.[.Z.| } j.s.m = J 5._ J 1XnX`.f F L z : j m s ` n.n.6.;.=.O.#.: 5 & 5 F q | _ S [ G H ] } < z.,XN.] 2.%.I '.=XF.7 G J G A G q ] Z.%.G G | ..k.mXZ.f f ",
"] 0 f l f 4.'.5.Y.k.l %._ H 4.[.rXL. .| <XA.r ).B.^  .;Xn.f 4 _ | F 4 _ Z._ _ ;._ w 0 4.T F F K.x.F d 0 _ k.Z.K.].m.T.J.5 + L ` G _ } ;.5.n.6.H l 4 :.C.` d F L 5.,X| 7 = A H _ B._.m.m * d T P m - h C.k.%. .B.S  .6.$XV.6.6.4.` - z 4.Z.Y.q 5 x : C..X4.%.P z z d A n.k.` = H 1.l z } =X.XY.I = f q G n.Z.} + z T _ ;.S q.3.3.[.k.] Z.C._ T.z.z $.P 4.$.;.f %.k.n.6.C.F 5 L F $.d z & s '.6.A 1.V.[ H l f _ P f = 5.| 0 1.I ] n.I _ F F ] | 4 1.kX>.m L m.].7Xl ;.B.q.B._.).$.5 5 z } L..XH 4.] l 0 * : 0 x.C.F k.4._ T s f 4.T } m.z & ` J.h M *.5 L m :.x.4.] ) &X;XZ.| 4 4 F } ,X] 1.rXY.;XtX[.).C.l l q f P z $.` h h M * & z I & q z P d s = = 6.C.l %.%.l 4 G Y._ + F _ D 2.:XF.{ `.N.+ G _ A 7 %.6.G I  .G 0 F $.G _ ;.f q d : g 5 q N._.D 9 S H ] w 0 z F z T : I m.f | C.| T.0X[.1.x.z j K.qXY.F ] [.6.n.=X].%._.V.1.1.[ _ 6.S S l F k._ j.4.L.C.* [  .J w  .V.;. .f A Z.[.1X%.1..X=X7 A.;X .;X1.1.).7X.XI k.C.l _ A.H ..%.w 4 w B.[.[ 1XV.= [ 1.q q s ` |.#.d O.:.T J.C.%.2._ G | m.4.0 A [.vX[.] Y.;X .f z I P } j d h.oX5.Y.N.F x.z j d 0 P q | V.B.D ] V.6.w [ L.x.T | _ l ;...C.6.[ S e F 7 F n.....N.C...k.,Xn.%.5.4.%._ _ ",
"F } n.4.Y.4.I l f l f | c.] ] _ L.4.H G Z.4. .;.q.D 8 6.'.Y.n.-XL.]._ ).,X].| _ H 5.;.I P F 0 :.C.T G =.$.= x.4.T I z z z d G ;.0 A _ 1.F.>X,.1.).Z.C.* 5 d s P m.Z.Z.1.I ] ] w N.iXY h s F ` f d : F ] I B.A.[.V.N.[.Z.l 1.H + *.i 5 ;. .N.j.5 h m j.Y.} ;.` s d s 4.f = f 6.6.H ..%.} k.'.k.5.G _ | L.uXC.} G l I 4 ] [ F.;XV.S [ 2._.F.[ 4.0 : F P z =.F $.C.=X.X;.5.P C.4.f s 5 s j P.k.w [ [ 6.H f G %.I 7 P ..1.%.%.I I Y._.| %.Z.I Z.4.;.G f s h P :.j.A A _.>X( 9 ,.q.;.f s } m.=.] H A H %.s ` d F T + 0 } d L T s f P F d z } z T ` z h h P z u m x q S $XwX3.` q F 5.} ] q.^ D A 7 D ^ 6.;.I } 5 ' s.s h *.j.*.*.s.j.j ` u d L >.>._ d l ] ).%.F 1.] C.k.I Y.Y.| 0 _.;X1.e.,. .A.H = D F.[.6.| w N. .N.;.= G F | C.F F } ` L ; & l 1.~.>X6.7 N.'.4.=.} L h h b u f 0 P ` s 5 | A.} =.h & f f G } ;.B.[.vX5.l 0 o A ).5.] _ H A A.N.[ ;XC.|  XoXF 5.).1XN. .5.k.q k.0 4 f 0 ] ` d I ).A.B.H ] bXZ.A G '.k.} F = 4 1.7X| f ] Z.n.H  ._.[.;X_.e.)._.I x.#.d s u Y O.: 5 P 0 I H 1.N.4.f z q Z.nX1.] I I G f f _ } z F f & s h...] ..x.4.s j T ` 4.I ] [._.).V V.~.e.A.1._.k.=.T 5 f ).A._.1.l l C.A H ] w q 6.L.G | iX'.I } f I G G ",
"f G %._ k..X4.6.n.G k.l m.'.I $.d q z G 5.m.I ] | 2.] A l 6.n.].%.L.=XG | N.f w C.<XG 4 f f d ].].| | | ` :.k.P 5 z [.NX;X5.Y.=.0 _  .N.( o.3.~.$X_.Z.P.5 * 5 s =.` } [.N._ H | ] $.T h $.] 0 H S { 6.7 ;.L.5.F Z.k.4.| _ %.k.` +.@.5 I } F l d ' 5 l | F 0 + m z.s I A 0 q [.F.| ).] + 4 | L.G G q F _ '.=X| q l 0 N.B.A.B.1.n.I I 1.A.1X;Xn.: T -XK.z z T T 5 $.F = f f n.5.q =.x.: s T P 0 A G | | A 4.| 0 G ] .X7XL.| | L.:.*.:.#.=.' J.P.` z d * u m d = A `./.r.`.F.3.{ { T m 5 ` Y.} ;.w %.;.d =.5 } m.H d } *.: F L d =.$.d z z $.j._ 5 l n.xXn.j.7XI $.2XB.V.:X.Xd } <XT.q ^ `.eXF.q q * Z.;X0 0 :.` + u h h L Y h m #.d #.:.:.F $.j.5.0 f Z.k.o G L.C.6.4.| k.0X5.G =X<X .4 G L.;. .2.q._ N.q.7 ;.A.2.N._ G 4 4 l l 1.).A.;.F f I [ /.e.e.B.w I k.$.I :.=.b u M s f j.m.z u +.` G #.h s s 5 4 q l 5.[.]  .* + _ %.| G w f * * A 1.A.B.1.] _ ` P z =XA.k.[ l } } _ 4.} 0 q 5.6XT.0 T 8X1X>XB.S A G $.=.P G A 5.} l 0 0 ;.x.:.Z.5.$.].k.[.~.X.N._ L.=.s & s * s m.Y u z j s 0XiX1X[.T.#.P =.[.;XS S l | T q q | 4. .+ I ' * 5 '.A.C.<Xf = z.$.F } P F Z.).V. .= ] >X] ] :Xn.$.j m s | L._.).A  ..Xn.] ] %.] L.Z.0 l 4.$.} } I ].L.I ",
"'.].I .X[.F } l 4.rX=X;.m.I f f d G =.Y.m.z 5.=X_.$XA.l = 4 _ ]._ F | l k.%.H | w 0 o l x.C.P F } z f f 0 _ } 0 4.k.H F.B. .Y.n.| 4.;.[.q.e.1.,.n.} n.x.F 4.j.I | _ k.L.l 7 Y.5.G d s j.4.G 1.A ,.&Xe.9 | F = } P f F } 4 G } z l.U L | | C.n.5 f P =X'.f I #.m z P '.L.%.n.1.N.S 5.).n._ f f 4 f | C.Z.w X. .D [ [.rX_.5.H 6.n.k.c.P | ;X,X,XF |.7X$.f :.J.T z L I 0 & I L.1.0 x.m.s *.x.,X6.G  .0 P C.,XG J J G f f ] ;.5.k.:.I I 5 d h z X T j.=.z * L K. .B.%X&X%X`.%XeXeX2X=XP m.P.=.l n._ 1.I w 5 0 l =XC.l f F 0 q P q & q } H 5.;.0 4. .| <X0X%.Z..X` 5 2.#XF.1XmX} F J.T.'.o.D.VX[.| =._ 5.N.0 I N.Z.T u i i Y L | I.I *.j.` z d J.=.;.k.} | d 5 G  .A = %.C.I l Y.[.4.5.k.| ` $.l ;.F.;.] G 1.5.A 6.).;._ H ] 4.Z.] Y.1X[ %.4.=.I  .V.{ 2.:X[.5.oX:.0 Z.'.M < g u f n.P 5 m h 5 F : x j.O.} =._ | [.5.l l 4 q %.7XuXC.;.I _ 2X5.G _.:X_.$XY.| 5 q _ A.w 7 f I G P P T : j P J.I.* j n.`.gX>X`.n.F =.T | k.| ;.` * = & 0 q d 0 5 I C.f %.A.A F l m.|.s m z m s : 5 P x.P f k. .D k.` j L z ;X_.J `.L.} P F 4.n.]  .n.x.O.z $.4.n.5.4.F f z f } ` L F %...Y.0X .4.:X .e H  .| * z d q _ [.N.%.F k.k.4.,XL.q _ F F 4.f 5.<X} N.Z.| %.",
"1.N.%.4.} ] | l _ | T G :.0 k.]._ d d F f 4 F I 2.F.).N._ 4.C.#.' :.I ;._.V.,.D S ` ` 0 %.c.G 4.=.` _ l l & P n.Z.iX .1.w w A.n._ _ ).;.5.H F j.j.z f X z L.5.k._ } _.].6.;.| l l f P |.` f _.,.%X`.,.V.;XZ.G K.$.f 4.4.q $.:.*.U - f _ N.[.4.5 ` $.| F f x.=.; w ] 4.4.n.4.q 7  .N.Y.pXC.+ 4 :.5.uXpX). .r S [ D [ r G I } h.$.$.F T x.T P $.0 k.$.j j } x.} q | I 0 f P I.} & f x.:.} j.` 5..Xk.f L.]._.:XtX2.4.A.l C.7X:.I G 4 l ].I q l f  .Y.} f 5 } Z._.3.!.r.S D A ,./.F.;.z h.5.;.L.,XA.1.G 1.C...4 4 0 ).L.f f  .3.Y.4.S N.). .( [ 1.F.:XH :.z $.f y : A ,.] [.n.8 T #.:.kXC.l | 4.>.G _ C.5.q.%XB.`.[.z s ; m 6.6..XJ.C.$.z : ` T.$.$.6.0XoXf 0 l 4 4 4.5.0 l f } n.w T m.j.Y M M P _ 5.;.l n.;.q n.%.0 _ 4.5.| L.A._ ] k.4.` z | %. .{ [ [.'.k.m.4.I 1.;.: < U P 4.B.4.P L 5 4 4 #.m.m.#.:.:.4. . . .] A ] %.] 1..XCX;.* H B.F G `.yX).7XL.k.rX,X4._ A ;.kXoXP : d =.z s : d #.: 5 0 3.w.{ 6.I d 0 f 5.5.F q 5 P C.o q = & & 5 s ` 0 q l l : : h j z z T F f = $.|.qXK.P G w J = * j s + f _ A 6.V.] j h.=._ w  .;Xx.m O.F q q  ._.} %.L.| F x.` d P ` l } 4..Xn.A S :XN.0 * Y T f 5 ;.A 5.,X| } ).uXZ.H _ o P n.I G 5.F %.} _ =X",
"& %.qX'.} 5.| k.k.F 4.6X,X%.T. X:.* d 5 d f f ] D V.).Y._ G ` z j h l ).N.F.e.e.Y.| Y.-Xx.P z l G =.f | ;.N.vX[.).[.k.;X).Y.>X_ ] n.;.l _ ;.%.=.P x.4.q F 6.1.A w 6.).} } j.4 * = j.T.4.d 0 6. .[.F.H 1.n.1.C._ F F f z I :.P d s s _ 6.B.N.0 ;.7Xk.l G 5.I h   ] [.| f } G = 4 * w f G P + $.Z.=.].C._ 0 5.[.] [ $XV._ F & s j P P j O.b + * 0 | I 0 } } f %.] = F 5.<XL |.$.s f ` =.s 5 $.1.I * & F P I [ ;XV.=Xk.4.G } } z f l ;.iX;.;.%.lX_.6._ I w l H S ~.V.V.[ w n._.] { ` d F f G A %.I ..H 6.N.A f H | =X;XF &  .).N.).2.]  .2.) V [ q.tX0 s J.,X#.h h Y.6.w q S  .5.z h *.x.z = l z f ;.G 4 ] S S 2.3.} d + d ;.).| d = ` -Xj.5 5 d F r G s d H l k.n.G ;.,XC.;.F ;.I G #.x - M Y 5 z _ $.0 0 l 4 4 F z l =.] f q H 4 I } d d * z %._.[.]  .I = = j.%. . .d + 5 P 2XN.| F I j.L.].cXI.' j _ f l ] | Z.H n.qXY.G F f w P 4.X.= 0 q 6.sX4.* $.G 4.K.P F k.] | 4.P 0 #.h.L T 5 L z Y ` C.B.&X>XN.} _ f d c.l f f $.K.5.= 4.` 0 T Y P x.P.-.d F j i h j L : s P 4 4 _ =.XXm.: 7 6. .A 0 : + 5 z l  .$XpXZ.j Y x.n._ A } j.s.x T 5.G G ;.G Z.<Xl & F z + 5 m.T z C.f & A 6.A. .5.%.s F f 0 ..1.4.Y.C.N.Z.] 5.%.P I G F f c.Y.} _ n.| | ",
"G H ;.Y.k..XZ.G n.k.| 4.` F x.$.P *.:.j.j.].].Y.q.S l A l ;.%.d Y z I ).=X^  .6.A 5.} I k.'.I q n.H q H _ ;.vXq.5.N.C..XZ._.n.] n. .7 4 ;.Z._ Y.;X).Z.4.I 5..XtXn.q l 0 d P 4.4._ 4.| = l 5.6.J H w w = q _ l 5 P q 5 :.T.z = f z $.;.$X[.F...F P 0 | Y.'.'.].I 2.iXC.F H I I 5.%.| G n.].q L d 0 F h * : =.| 0 T 7XL.0 0 #.:.T x.n.N.| j : 0 I %.K.G C.4.= F ).B.rX_.4.f =.l.#.L h.'.| = :.l & 7 H G 1...= H ;.5.4.P 4.=.q & = l 5.H I Z.).Z._.;.6.| k.qXrXq.>X>X`.q.=XY.;XY.N.c.0 P A =.0 o G ] 1.] | ] 6.,X;X[ = u j z.L.;.P q q B.`./ 2.e.] _ G & j.5.f P 5 =.5.q d 0 =.` f & F  X} q D ;.f j.$.].| 4 l L.1Xf 4 4 T | F 1.Y.$.-.-Xj.f I I x..X .* f C.=X5.q f ;Xn.;._ F _ _ f + 5 L j.' & 5 5 0 f 4 w G k.Z.4.h.q 0 6...G 5.k.f d 4.6XT 0 I f = = } %.I P f | k.0 * m _ H A G G | :.m.m.| $.$.l ` =.Y.G 4.Z.6.'.Z.n.| I | %.=.8XL.] 4.` %.I : j T l G %.P 4.uX.X4 z P 4 } L h.#.0 L L } K.'.C.H k.'.'.7Xn.$.=.f K.h.j.x.k...| 4.I P L s l.5X$.h.L j m h f z =.T G l o f l f } C.C.%.N.F & T | = d 4.V.~.N.f d h L f L >.I z z q j.'._ G | 1.^ Z.n.z L $.z 5 F :.XX$.s 0 l Y.:Xw | %.0 0 F l Z.[.} =.P G 0 0 I n.:.'.'.T = Z.qX_ ;.Z.G _ ",
"G P } | I G G V.C.5.G = 5 : F F 0 ` ` ` N.Z.;.6.N.A 4 n..X;.f 5 ` z Z.rXZ.q  .G f .X,XG 5.L.] f N.rX'.f F | 5.k.n.Z.| w 4 4 0 = w f f G ;.] w ).B.w _ %.F k.Z..X,X_ ).7X0 z..Xk.5.} ;.5.k.7XrX;XC.C.Y.G $.x.I z z P T z :.=.} q 4 6.G 6.2X). .] G A N.P =.%.4.] ] ,XuX%.1.A.| 4.n.Z.| H 5.n.>.z z =.I j h I z j : o & = T x.T %.f  .pX:XL s } ` f q l k.<X .= ] _.;X4.l f I.h.: z m.,Xm.%.%.= _ qXiXY.I %.L.k.Y.P 0 } ].;.d 0 | m.G 4 ;.;.G A | I | 4.;.uXN.9 q.`. .B.$Xl w 6.L.w G k.C.'. .J %.} V.I 4.Z.1.H C.L.d h h *.m ` I.T ;.pXq.[ fX[._ F '.n.Z.C.q _ _ 5.j.%.I.=.0 = & l F 5 f 4 1.;.= ` C.Y..Xd f } L.;.f T I } d C.-X4.f } ` 8X,X$.Z..Xk.| m.n.n.1.N.L.Y.4._ 6.'.5.} K.G w G } = 4 q ;.%.n.7XC.;.<XI.} m.I 5.k.w N.'.l %.$.I L 5 ` G 4 & k.k.} =.I c.5.q = d I _ 5..X_ l d d ` G = #.P :.T.K.} P L.C.$.f 4 4 0 4 k.k.] 4.H 6.K.I 5 s h j P x.P q j L.[.[.l =  .B.I d m Y z =.T T T 5 } P 5.k.F G } %.| Z.} F F + A )..X7X} & * 5 5 + d 4.I & s =.G 0 =.f } P f ].| 4..XoXuX5.f P 5 P f G z d ..N.w = #.j z d + s z #.I d ;._ [ 2.] r 7  .$.: L } C.Z.$.$.} f T f P C.Y.5...6.G w A q k.;.0 } 5.G %.C.I } I 0 T } z z G | _ w _ 1.",
"C.4.I f I Z.1.[  .l d T F T | 5._ f F G %._ l | | l I _ f f H ;.` z H 2.1.n.;XY.l G L.;X].%.A.w 7 2.q.w q q q | } 1.1.G q G I _ l G | | ] [ [ J 7 G Z.%.F } q + 5 l ..Z.f f } ..I H N.0 5.Z.L.| f $.4.} q & _ | 4.K.| } T :.x.H H 1.;. .A 5._.6.S 6...G A } } f f P %.5 _ ;.G 2.6.n.| f G m.Z.G k.` _ Z.1.C.=.L j d : %.I $.L.L.N.| e.pXP : T f P f A 6.,X6.H & S k.).} f z j j.d $.4.P =.l 0 I k.L.G G C.uXk.C.,X| P f 0 f =.K.` = ` %.f ` Z.>.d & 5 5 f '..Xq.q.>X~.w B.1X_ q f = 4.C.f q ].4.Z.C.0 P F = * f f = h h a u #.` - *.-X5.N.N.[ F.5.=X[.,X'.n.A.Z.1XNXB.)._.q A [  .n.l 5 G %.f L.;X>X_.).z z ;.} _ 0 q 5 T F 0 T 0 L =.I K.K.f I 4.G | ;.5.).Y.Y.] k.5.1.Y.Z._ ;.1X].rX).] [.;.6.lX1.| <X;.* ;.5.d 0 c.]...H N.| q I F T F & T T.I.` $.Z.} f ` z F | 0 G ] 4 } j.I *.' m.K.P x m '  XC.>.5 h.P o T =.w = P ] f f F G x.L j : : P L =.=.T j : f J 2.] ] w  .[.;X4.$.=.z T I P F * j.x.G f f d I F _ [ J 1.3. ._ k.,XK.z : T - L 5 L | `.,.A G l 1.C.d z h d ` d F %.I P j j T | K.:.J.L ` F I P m d s : 4.j.d s T z Y Z.x.n.).2.D ] _ G F 0 0 } oX:.K.q f l q | 5.5.k.I 4._ 6.N.H k._.%.I.} F C.6.G = F = $.=.0 f X.)._.n.l ;.",
"L.%.G F F c.I ] r ] G $.L.| q 1.N.F | 0 Z..Xq 6.5.l _ _ q N.L.` j j 6.;.S H ] :X..A f | } F | l  .k.S  ._ = l | I l I I N.=X%.I 5 f | _ G  .] J H L.,XC.$.T z :.m.= } } T z z = = A ] & _ N.F l F & P L.n.d = q 0 l $.I.} } j.n.).1.A 4 l Y.6.^  .%.'.7X=.] f 0 f P d 0 0 H G F q 7 w l l 4 4 | 6._  .H ] 4.%.` z s : 0 } F f L._.[._.[.=.5 d s T q  .1X6.] %.f _.rXN._ h.h.m.|.L T _ ` ` } f q + = & 7 } 4.F I I 0 } I.C.| 0 = l + f ;._ q | f : 5 d d | C.[.F.6.$X[.D 5.0X1.l I 7 = 7 = E I f f f f x.x.` z f 0 f z h.i < :.I ; < s & = 0 ]  .$X;X4 q & } tX).1.~.r r 1.N.tXyX`.6.:.s 5.k.` -X).6.tX;Xd z.Z.G z _ = F l d T } f F d 0 d F + X = 0 7 1.Y. .w = 0 1.f %.I w f N.<XA Z.6.4 6. .r H = 0 [ q * I C.d f '.N.H 1.N...f G } =XjXC.f P =.0 & d 0 L d = P 5 A H A 6.} d P d I I z I ' #.' j 5 5 L J.4.I =.T G %.N.L.F f Z x.$.L L P h Y L = = F L f } f r { 1.N.w N.uXK.d P d L L f z 0 s f } _ | q 0 l %.] 1.2X[.pXk.7 0 ` C.j.=.0 ` $.T %.( %XH G I  .;.=.u - Y T } G 0 5 h h L m $.} L ` #.p.Y s T z L : * L -X9X:.z L T.].| 0X6. .6.Y.m.:.$.` = : d F m...w  .L.G h.Z.%.q 7 f L.V.V.A.n.4.=.f q 0 ] I q :.` C.x.+ F w [ B._.].6.",
"].L.5.P I =.G [ w = T $.:.4.G l A.>X1.} Z.qX` %.5.N.I %.H G L.C.P h ;.;.1.] o | Z.4.] c.pX%.0 I I | Z.Z.)._.6.;.;.S + 5.k.G 0 0 & P } l l n.] I F $.} I h.+ F C.T G m.} T n.= f } k.....,X=XF G G | Y.,XL.4.4 } $._ | F | P & A n.N.5.f f H w [ %.I f C.| k.'.G 4.] Y.Z.l l z 0 f z G f l l _ ,XN.%.;.5 5 I '.'._ F F L P x.F o = = I ] N.G F s z ` A.r ( [ 7 } <XL.0 } I.C.T ` P f f I ;.] I G 5.P q G f & ] ;.I F ..C._.Y.[ 4.5.D A.6.S N.A. .H 0 + 1.q.^ 9 [ yX[  .N.S F.iXrXN.,X..A 4.,X%.G G G x.I.oX` m.L.;. ._._.P _ { 1.5 s j.z d x.l l Y.| 5 5 ; j ;.1.S ] ^ S N._.Z. .{ e.I.s 5 %.x.C.x + z z #.#.q G H _ G ;.0 =.T $.| :.4.4.$.} P = G ] 1.1.%.l G l 4 H G 4 4 G l l f f n.4.G 0 = & l I ;.l 7 A l f I c.| 6.I 7 [ %.N.L.4.4.'.L.F & F :.T ` s P #.x.:.F  .J _ ).j.* s u z f 5 G f l | G | T.:.%.[.[.8XY.4.C.Z.,XI * s -.T : j F L G q f R I 0 f 4.A [._. .w q = X T $.I.F s s :.T f 5 F c.f | '.} F k.x.* z I d 4 4 = } J.j f z :.I.q l 6.&XH 1.C.k.6.f + - : s 0 l } f T P h s $.C.o 5 : h h h x m j f z 5 T :. .H l A.n.=X<X5 5 P $.:.` ` z d j P T ` 0 %._.Z.0 $.;.j.I f w ..] S [ 4.d #.x.=.=.N.%.P x.|.$.z P k.;.2.B.X.X.q.",
"].'.k.5.[.[.N.A. .I j.F I _ Z.X.X.A.1.n.4 :.:.;.} m.l 0 I I 5.Z.f s * G _.~.= ..Z.C.,X5.k.5._ G f q f %.Z.2X[.N.[.$X] '.4.| C.l 5. X=.G | | e H T z * =.x.d #.T 0 0 s d G _ G q G ..;.4.C.=.L.'.I I G I 5.:.%.=Xx.z } G m.` 5 _ F.;X_.N.| %.A A Z.=X4.f I f ]  .H 4.6.H :.4.F 5 q _ Y.l ;.Y.q.4.7 I j.I d 0 T k.` P } 4.:.cX4.1.4. .C.1.L.L.z : %.F  .N.1.w * q } 1.= = _ =.h.0 d I d 0 w q F 0 } 4.n.N.A k...C.'.4.] f J V.[.[.5. .$X6.>XtX>XB. .l n.1Xq.e.2.{ [ ] _ D D 1.`.wX).[.C.].'.F G f l k.x.= & & F F A B.[.] l 5.,.{ X.5.K.z z :.I ;.| f j.T h Y n.Z.| S q N.F.G * ] ~.3.d * d j.} l :.u G G P z _ Z.F _ G :.'.F : d F =.:.G T %.4.G k.lXY.q _ 1.;.1.Y.Z.0 f } %.q q 4 j.uX,X.X$.k.n.k.k.Y.<X0XxXk.'.'.n.H A L.| N.6._ F f =.P 0 & f :.T T f j J.'.C.C.| } H l | 5.+ 6 L d * f F G P ` | C.<X6.1.5.* 5.C.;.%.F f P z L s s F L f Z.Z.5.H 4.E q 4...] 6._ e H s d L m ` ` d z :.K.0 f ` P %.H Y.7XN.5.k.4.T u * & d z J.=.} =.s 5 F 6.P N.%XB. .G k.A.rX6.w 5 G '.l H 4.4.-X*.s s s F 5 T 4.x.*.s d } ` k.4.m.} F  .n.F.q.[ r q 5 d 5 5 : * z } s + s ` T =.] 4 l 0 5 l F F ] _ ). .w J 7 0 = L :.k.L.4.T P =.L : s =.n.l _ _ ;._.",
"0 f x.5.'.Z.).vX;XG | l 0 F q.[.B.{ r 4 w Z.J.` C. XG l 4.5.l 0 I z 4 1.#X2.S F 0 l | f & = 4.=.Z.H f N.Z.N.n.N.F.).X.$X;X<X[.G _ I T x.Z.A.A.C.T L Y x.J.j : L $.T * d ;. .G & d } 4.4.| C.qXc.= w q I } l 4.k.4 = q 0 z 5 P '..X6.] N.$Xn.l = | ,X,X5.f I 7 I 1.;.P G C.,Xk.= _ z f q G H | w q $.` $.:.5 * F #.$.$.z.4.F f n.F.).6.| H A.%.C.f f [  .e + H 6.0 ..q 6..XL.j.* F d l 1.l w F l f F 6.=X;XZ.w * =._ H G  .k._.Z.q 4 ] 1.N. .l w l | uX;.G | H $XA H ;.H  .q.{ e.1.1.(.N.%.%.Z.%.G ] F 0 0 I %.| A J G = w  .rX/.<.V. .= X & l _ r D m.M h *.Z.1.0X$.l } } %.= %.NX[ * : XX1X_._.0Xk.;.;.$.*.9X].` | H Z.'.P x._ F F z l & l x.K...;.Z.).5.| n.[.=X;.4 | _ | l 7 0 4  .H n._ ;.Y.| _ >XNX,X<X<XL.XXF 7 A | C.6.6.5.q L z ,XoXx.` F F : F 0 ` P 0 | } = T T ` F n._ l 6 I #._ P G G z ` j.Z.} G & 4 * G G 0 4 =.;.T : : q f J 6.] A H S A Z | 6.;X[.D ) `.4.: f f 5 5 5 f =.z 0 $.4.f %.k.uX..1.N.Y.%.5.L.I q = F T.:.m.$.P ` I ).[.4.1.%.z d P C.pX1X[.!.rX`.%.G 0 q T T Z.| : d z L.MXFX=.: h.7XI.j.L.'.k.n.} _ q.n.X.6.P d 5 0 & $.=.z I.4.0 I 4.$.P f z K.'.F = 4 | <X| ] H ]  .] %.;._ $.L.%.G F =.L L z d 5 0 l 4.$Xn.X.",
":.d f 0 q 0 A ( V [ ] 5.A r S e.$X[ { 1.] | P z j.;.l N.| H 5.T z C.4.H ,.e.;XC.q H =.G ] l ] ] ..Z.). . .[.|  .A.^ w e.1.X.X.q 4 = 5 P =.5.6.8X` & I f } oX` h x.$.L :.'.%.& L C.C.5.oX'.=.0 F ..4.| k.k.I I = %.m. X` P ` =.%.| 4 q ^ F. ._ %.] w f ..w G H | '.;.G | q 4.Z.I 5.:.G z ;.C.A.` ` 5 j ' j.j z L =.$.j > %._ 4 w H 6.[..XV.N.N.` 4 I 0 = ^ A  .5.} w 0 I | G = I $.` x.1.} } c.k.` P 4.;XL.l * I 5..X:X6.n.G 6.Y.} q =X<Xq G } | 1.4._ L 5 C.2.] 7 l | ].;X`.%XC e. .A = 3 | '.7.;.;XL.I L.'.C.'. .;.P : k. .w  .<.dXtX6.=.d & n.1X_.d 5 & d F 4 5.:.T $.K.5.f f 6.w 5 + L Y._.B.I | 6.1.d I j.T I G G Z.n.w l | $.` I I P = 0 f G 4.<X;X| N.} l 5.0 w w %.4.%.* q ] ^ A Z.rX .w 6.0 H [.` ` ` P F P = S.b.1.e ).%.%.T f #.6X,X} FXuXF T d ;.;.| 4.F * f d P C.'.l q z z z 5 d d d + 4 ` _ 5.].f = = l | C.I f } F P 4.E e.V.D 9 9.{.(._.[...3 A.`.,.`.~.1.n._ P z : d d h.-.P F I C.Z.7X5.= w q q 4 | FX;Xq l z h : j 5 L F c.).5.$.T u s d =.2. .6.!./.V.{ q : f 0 P 5.n...F * ` '.'.] : I %.n.Y.| F P j.f 0 G P | 2.0XP.z 4 q F j.4.} C.x.l } } f j z s J.uX,X} C.,XY.=.N.4.6.1.H ;.| 0 _ I.C.=.} F : f s : * 5 ;.Z.| 4 0 ",
"'.f 0 T _ _  .D 6.).).6.] S 9 { D.) D S _ Y.l l _ ` %.} 0 } 5.} z _ %.].5 l ].L.f %.'.;XuXN.F f ] | L.F l =X[._.$X_ r V.). .k.7X=.j :.x.f z j P ` d T F %.m.` s z j d j s * ' I.m.P = f l q =.5.I | 1.N.=Xn.H G 5.=X.XqX].'.L.-XC.| J H A.[ ..Z.4.Y.1.;.G = = ` F 4 f ;.q n.'._ G G P %.=X'.;.L.| } T n..XI z l.x.h.} %.5.N.l 1.q.,.). .1.6.5.q Z.=X| | N.n.H | 1._ | G l 4 l } G $.q & 5.Z.%.z f j.j.0 d l ` C.K.Y.5.D 2.F l z x.I F L.n.1.G .X1X].F z s ;.1.= w 6XI.F } S ) 7. .4.3 I w 7 ..I = =.k.1.'.] P } L s h d 6.J & G _ 2.).).T.5 l Y.>XY.l 6X` 5 A H 4 ;.T.j.5 G z & q 5 5 5 d x.%.4 5 = d j.` & 5 m.m.l 4 2.V.) A A _ 0 ` x.;.q _ w F | ;.l l ;..Xk.%.6.I q G ;.4.| _._. .A.F.).6.6.Z.0 0  .d $.%.G =.] 6.wX1.H e N.6.F 0 5 5 F I 5.pX).' * } ,X'._ } j.5 : d ` N.6.%.%.` f :.' ' ` u : l l %._.].l f _ ;.;.k.5.5.4...| 6. .o.`.{ { 6.2.B.[.B.J r  .D D %X{ w  .'.I.} z k.[.5.1.L.} | uXL.H G } | q _ G 8 _ f 0 6.j.m u & P J.$.I 0 F j.s.y h d 1.r. .6. .e.6.q 5 f d o L 6Xn.A 0 4 4.m.z 0 s f 0 f = z P d f F j.| 0 = n.;.I 5 q G _ f 4 C.Z.P l 4 f x.J.m s $.j._ F ` :.z l N.4.6.1X).N.P _ P 4.K.I.%.l } F j g ; x j.;.I q | ",
"n.%.= j F L.V. .F.:X%.A N.6.S V.~.B.2.S 5.;._ _ G n.lXC.A I Y.C.z F C.].} P %.4.l %.k.} 6.G f F C.l 7 0 f 6._.N.n.] w  . .H :.K.P ` 6XJ.5 #.T T 5 = =.n.|  X*.5 P *. XqXW.Y z ` q d d h.'.I 0 I ;.qX;.w ;.1.A 5.} q l G _ $.Z.Z.N.6.] f ] ;.} ].c.uX=X| G 0 I [.%.q 4.5.G 6.] = I f = f f q  .k.n._ ;._ 7 f =.K.z #.x.[.6.[ 1.<XZ.B.n.] 1.'._ j.T.T.H j.;.;.j.%.} _  .Z.[.Y.G A.Z.` + = | ` f G q m.:.= = d T.| = * ] 1.2.G G ` z z I Z.A.] | G ;X1.d : d & q.A.| .X4.& w B.`.FXA.G ;X;.f I k.F q 0 & & f f I 4.h h j & 1.[.%.` Z.Z.6.] I $.l 1.] & 0 n.5.A.n.H q Y.:.q + P * d %.T L I G x.4.:.4.| K.ZX>.= z j.k.= D V.eXyX2.B.q l  XK.I K.4.} Z.| 4 _ n.l 4.4.4 6.C.F G ,XC.n.A.5.5.;XA.N.n.=XT 5 4.;.z T ;.;.l F B.[.H l w .XGX;.q I %.;.n.=Xn.= 0 f %.G 0 q | K.5.F * f %.C.H w G $.Z.$.4.:.z z F m.n.| I 5.4.l I 4.L.5..X;.6.A.6.2.B.r.V.rX[.H  .S S _.N.A ] ,.( ;XA.+ f ` z T ;.n.| C.-Xc.H [.] = | Y.|  .l ;.q.A.| L _ _ s P I z I Y P _ _ z h Y *.f 7 ~.;.%.;XN.;.l L ` I.-X5 #.Z.2._ w T T f j P & q q ` 5 q f f $.} ` ` n.N.} f z F | P z 5 } I 4.C.0 %..X=.j ` z k.H F G & f 0 l } w  .N.8XC.F ` $.C.C.G A  .6.x.u < h P | n.n.Z.",
"Z.6.s m.4.G 7 [.A.4.k.f C.1.H 1.n.n.q.N.Z.1. .| _ L.;.l 5.1.L._ } 5.*.4.1.N.n.G I 6.k.k.=.F F $.=.= 4 =.A.L.n.N.).4.= l F 0 s s + d x.$.P = F _ F 4.=.L.n.L.:.+ =.Z.x.=Xm.m j T z z } L.4.;.I 4 ].].6.q ] $XZ.=XY.f =.Y.:.F ` l } l l } Y.].P 5.;.l f w I 7 ;.'.).] H 5.B.=XC._ =.} F ` 4.1.I | 4.| ;.4 ..:.x.K.d F | r = [.[.4.1.;.N.n.H 5.m.z q 5 5 & d P h z f G l 4 N.[.A.rX[.Z.:.s I z H _.Z. XE.+ j x m.Z.f 7 A.vXq.H F ` z :.%.I w  .;.H 2X .+ F L ` 6.e.f 0 d d 4  .3.%X;X).1Xb.f %.k.] =.4.x.q _ T P T j 5 z I 1.).I T '.pX$XA.& z 5.Y.6.S = A Z.;.] | H ;._ } 0 | $.l l l G _ q _ | G ;.G l A.| =XY._ 5.).B.3.0.F.2.1XtX%.C.;.q f l ;.Z.k.f 4.].%.4.;.= = & | F _ _ f 0 l G G T } C.j.+ j #.T T %.N.[ f ..A wXpXG  .k.K.4 1.l  .=X.XI & T $XrX'._ q f w ;.tX-Xi + ` _ A G _ k.n.F w _ l I d ` J.` T T. ._ | 4.;.F ;.V.2.6.1X1.1.N.[.=X4.w H 1.;.).1.D ).).).[.A.I ..x.j Y ; o h T.` 5 = A.<Xw H '.C.;.I I n.Y.| ' l 4 5 T N.} X y :.#.F $.G l f 0 l } l n.xX] _ | 5 L 4XE.s ` uX6.] H | H F 0 = * F f f L.N.H %.l F G G P _ | l 5 5 0 l l | G q 4.<X .X.6.1..XL.1.N.~.A.N.G 0 j j 0 f =.T T L 5 : : ` | } ]  .A = : ` I q 1.`.Z.G ",
"rXZ.z $.L 5 1.Z.5.| } $.-X8XT f P l G | ] A 7 n. .l 4 _ n.F 0 4 n.%.5 ` | A =.T.n.0 P A G w f T z ` '..X4.4.N.L.qX0X=.| F 5 d d j m s 4.uX1.1.[.[ A F f G } $.;.l F 4 f m h } 4.` z C..XI F ] q _ ;.l G 5.Y.] _ w 4 n.-Xx.j.x.` I q F 4.%.7 | ] 4.G _ 7 F G w ] [. .r l N.1.n.Z.z } ` } } G w ..| l | ].iX4.0 q f * A V.6.N.Z.4 5 q f C.].T.-Xm.5 d L I m.j.P ' : f _ * 7 ^ ). .] 5.P 5 d q I Y.k.:.m.*.L ` #.z l ;.;.X.] n.T.j.Y s f B._.F.] 1.N.A l $.= =.X.8 _ :.%.$.G F. .w S ] I = =.5.F P c.5.T ` $.T s F z * 0 F ( [ P :.C.1.1.D 4 5 1. .;.q.X.q. .S n.[.6.C.'.L.} F kXZ.= f l 4 Z.lX| = | 4 ] 1.] B.6.A A.B.w ] A 6.A.;.[._ f l f l 4.Y.G 4 7 G | L.5.0 f l | L.:._ Z.} 0 l I G :.L m.4X< y ` :.0 k.:X .N.<Xe.e.V.1.] } G I 1.B.nX6.F l *.$.1X>X).G P 4.A B.$X_ @ 2 x.Z.l N.0Xl A | l D 8 ;.} z #.* j 5.;.6.I } f P 1.] [ H 1._ G q l G & F Z.Y.| w [ ,X2X6.1.;.l P $.f j.Y y u a ; P = I ;XZ.%.5.,XN. .Y.C.l H | P l l } I N.| 5 ; h I h :.%.6._ l z z T.| G ] 6.n.s u y + y :.'.l I A 0 ..1X7XN.H Y.k.'.4.I ;.1.l l q l H 4 n.T.' 5.:.=.Y.m.$.T f k.} ] S ;.I.4.0 ] V._.n._ f ` :.T Y j ` T.x.j m P 0 k.L.6.:X1X,XN._ V.N.1. .w 4 ",
"6.V.4.z d : P :.j.G & z j I T =.:.L F =.;.5.;.I 1.A Z.4.I %.0 | _._ d * S Z.L.XX=X} f > F } 0 = d h ` ' } Z.L.| l ` 5.5.z 5 z O.s j =.j.1XrX~.V.H H l & =.I.} ;.F 4.5.Y.uX X` L.4.| } C.| ;.N.] 5.] 5.q.l 0 _ } 0 4 q } G 0 z C.oX:.'.4.0 F F ..6.%.L.4.| | G 6.%.T ` 0 I F *.L * d L 4.5.P N.k.k.1.P =.H = G 4.Z._ H [.1XG l ` P d + q ].x. Xn.} L.N.5.m.L.=X;.G f _ _ ] ).Z.H ;.4.} 5.H f P h * : ` L.z G L d I P _ ^ 8 G Z.:.5 z D pXyX~.X.X.D D '.n.$.'.xXZ.G ` n.C.1.D D A.q * j : T P.j : 5 L s 5 :.` j.I.0 4 = ;.tX1.5 h = & * r * 5 _ q.X.^ 1.NXVX2X1Xn. .Y.;.4 f G Y.4.l = = A _ Z.;.w H ). .{ _.[.e.[.).w  .6.F } 6.G _ f 7 G Y.5.G } 4 * l G | } | l l %.k.} f q l I K.j.= P | 0 z z < < ; : } I A w | n.1XwX . .H A %.rXe.V.`.S _ ;.z.f A.q.w f F l ] B.A.* ; < ` Y.] 6.B._ 0XN.8 ^ 1.A.| f m L ` 5.| ] C.C.w 4.Z.[.vX[ q ] $.} l q = 1.Z.).k.f  .Y.N.H l _ f * f 5 z z h i - u j z l _ S _ ^ 5.D N.,Xn.5.Y.;.| $.| Z.A.tX2Xj.x ` #.z $.=X[. ._ 5 L j. .;.1.1.T + ; @ y *.E.I.f I I = f Z.).L.| _ G ;XH _ 1.L.1.G q | k.` C.].4.Z.L.I.5.T 5.| k.k.n.| F + = - T F F ] f 0 P |.x.u m ; : L ` :.=.f f k.,X'.5.[.Y.6.2.V.$X1.d z z ",
"{ [ | } #.* = z d 0 d j m 0 P $.I ' $.j.n.=XZ.0 5.;.I L.C.G G 4.} n.} 0 q ;.'.T.'.L...;.;X,X=.$.h s m h I :.l q w f 5.5 + T z | z =.` I Y.6.S V.N.= d * : 5._ l q I A ;.'.P _ Y.| G %.| ;._.%.A.Z.B.rX;Xn.[.N.4 C.%.I l & = q } I =.%.C.Z.'.q = q P n.5.I F %..Xj.z * = 5 4.,X' & s d 4.Z.k.Y.N.Y.n.G 0 q 7 f [.<XZ.J J 1.G G d + T :.s ' l $.G G j.H w k.4.I | ;.G N._.).n.A.G %.Y.;.| I l ` P z z l _ Y.;.f I T T ] rX$Xl & s j T ] e./.!.V.2XA. .N.f 0 5.| ;.= + l  .2Xe.D ..d Y *.b < =.U : #.$.z h.j.T L F l G q.1X,.[ P m f %.q.1.%.j.G S 6.A.l ] N.] %. .I  .F 4.G 4 0 l l F l k.n.q A 5.X.F.X.~.>X:X%Xe.N.;.4.$.z $.=.P F 0 q l | 0 _ } l | L..X<X,X| '.C.F F %.z 0 I _ I I 5 d 4.j.T L O.z.i o } k.6.A F I `.V.e G f '.$X1.q.V.o.^ D w %.4 1X[.%.I q L.Y.,X<XF M h 4 * [ B.^ A ;X;Xw r  .5.4.q ' ` z z 0 | L._ H F %.FXFX7X%.=.4.s f P 4.].f ] '.| G  .Z.6.n.n.:.x I #.o L x ; Y m P F %.C.=X0X1.] ] D C._ _ j.G _ =Xn.;.;.q.$Xj.F I P 4 G ;XB.;._ Y P z | [.;X1.d & ; < a h h h h m.Y.f H | f H F G F l 0 H H H ;.N.C.} f f j.} q l m.I ` f f l G k.Y.} x.z ; O.m.P =.C.| ;.$.#.` Y T u h & z .X$.F Z.G P } 0 q S B.`.2._ w f d x.",
"yXA.N.8X#.d z ` Z.4.f #.#.$.x.x.4.oX>.d z s 5 5 _ z Y.uX} 0 z H f Z.;.l q 4 G ..G | A I H =.K.K.#.5 O.*.L j.l F ;.B.[.4.=.Y..X..I ] l 4.n.H D 2.| 0 z j + d I f n._ ;.[ G * } [.Z.[.A.H ....0  .N.,XA.=X[.L.;.f I k.:.f 4.T 0 I F j.'.oXn.4.I .X.XI | 0 l Z.Z.C.| | } | 0 H 4.P L 5 f = q G l n.qXY.|  .1.k.].,XI  .6.;X2X] + X X F K.` z L f z ` F d =._ = 0 l f A  ._ q l z 5 G F | 4.F :.T.:.z.$.z ` T :.j.m.` ` ] B.2.;.q T Y.|  .{ t `.wX;.;XMX6.] 4._ l G d m.;.2.2X{ 7 %.T s : : U =.L s P.#.P XX=.d L d w 3.2.,.e.B.} L P 5.B.6.` 5.Y.%.Y.| * 4 0 5.4.%.4.4.4.qXxX;.F 0 5 ` I..XY.= 4 A | r r _.A.A 2.)._.6.5 & * Y ` 4 o & & f G F  .q 4.=X=X6.n.;.5.'.G T T.Z.} } _ l ;.%.k.1.Y.pX).6.$.J.P 5 F %.:.P I } 1.1.k.A 5.:XH V A.q.B.q.,.B.A.= } =.| G G k.n.T.` d *.z A o.q.:X$XpX] [ 2.4 * & 5.H k.n._ l 4 l = q %.G q =.l l = q } $.o | L...I [.[.I A 6.N.%.d 0 d - P J.L z ;.G ;.'.=.P _ ;.A.1.1.<Xn._ 6._ d d [ B._ w } } ).N.l ` 4 ] 1.w  .'.L.z P j.I l F.2XY.l + - v N Y j < b h.j.f f } l z F z P = F f f = l L.CXZ.z 5 z Z.N.G 5 = 4 P I = 4 ] 1.=XZ.f * K.,X=.C.} T x.q j 5 T x.= f f ` 4.6.Y.2.l L s L 0 ..] ( V ^  .} $.T ",
"B.1XZ.Z.=.5 f 4.4.P d T x.m.N..Xn.j.$.s h * 5 ' L l n.5.4 4 * I H _ ;XA.P j.L.%.} k.L.f G ;.} 5 d & * ` :.4.H  .<X1.6.Y.'.k.;X;.2.[.Y.j.F l ]  .F ;.I.=.O.z._ F 4. .[.rXC.& k.<X_.Y.).H %.] I '.Z.5.%.[.6.[ A q f } G C.,XC.q f 4.#.5.n.L.%.x.T.j.I | G ,X'.).vX<XY.'.n.G ] _ %.Y.G q F C.%.0 & F ` l G ..=.=.F I w A B. .A q F 4.x.T.m.s d =.=.I L O.P #.F 0 4 _ Z.N.q.I l ` j.G | _ 0 z ` 5.l d 5 4 m.m.F T f L j.l 1.,.] z T 5._ [.%XV.o. . .4 | l 1._.F F } J.-Xn.).X.A ^ ;XC.s s  X=.s &.d : 0 | I.I.Y L P.Z._.~.r.,.8 _ } q } | r & m.6XP | I j d d P j.5.* 1.). .;X} _ j.P z | j.T._ z f X.e.] l H ] ).Z._ 5.l $.d 5 L f n.].7 _ ;.1.] G G ;.I w 0 0 %.4 4 } | l | 5.j.6X:.G k.%.C.%.f '.uXK.h.s l q =.L T ` A.`.1.} pX[.e.1.H S A A.e.e.;.& Y O.q N.].K.T I s ` J.P w ] ] [ B.).A.;X_.} 5 5 f _ ;.A.1.H | l f '..XH q l %.5.q C.} :.4 f H 1.MXZX;.w ;._.G 5 G =.s - 5 O.d I Z.Z.] l 0 4.k.G  .A ;.Y.G N.)._ z :.Y.| + 4 f f Z.| G n.1.>X).1.Z.| 0 *.*.: 4 G ).n.'.'.} j y N h.J.h g f 0 w ` $.5 T z : d q = q l I 7 l x.T L h z C.<XY.F 5 :.$.T F ` F F A.;.} I =.%...} * j s f x.1.q q & = } w S  .2.6.'.J.Y h.T } B.;XN. .| z d z ",
"F.k.;.0 %.K.K.=.#.:.} 0 ` %.G | C.%.& 5 T J.$.m.:._ _.B.f F H I Z.2./.;X6.4.C.Y.k.L.L.I F _ 4.k.Y.m.T $.m.f _ ] [.=Xn.} G f G $.'.C.5.$.q ` P C.4.q l F ' | z z 0 0 n.xXL.F | Z.4.G A ] L.=.w %.} f J H !.yX6.w w _ G 4.| l j.j U p.F 4.1.4 I } 0 f z 5.[.G 7 [ Y.Y.^ A ;.n.} } T =.$.,XC.C.} ` z l | ;.l n._ f %.F.q.| 6.[.[.L.x.j.T z z 5 P $.` Y P & d $.q 4.qX1.N.q.].j.: d G Y.[.4 %.j.I _ $.z f $.m.I _ j.F 4 ] q.B.1X;.%.F H [.;XfX_. . .l H H 0 | I G w G G 1. .r 2.,.D } : =.h.: =.x.0 .Xn...C.m.d i m G r D.sX;X3.S D | %._.F.F Y x.d _ T.*.i i 5 f l  .q.1.| :X>Xw F z z q + L.} #.P A.[.4 = } G f I I Y.| 4.m.T f q j.].G n.[.).B.q. .7 I z 4 l F l d $.T l ` d 5 } T .X,X} l = 0 P 5.C.z & f F %.} : j  .A 0 f 4.1XtX[ 6.[.k.0X1X[ d 5 h 5 l ] 4.F q _ d 0 =.I.T.5.f } 5.I A.2.1.C.P P G l A 6.N.6.I | G k.Y._ = _ <X]...lX,XC.w 0 ] 6.c.0 z j._.MX;.q l I z h ` 5 s j.).k.j u u ` ] H H w J 1.J S Z.6.X. .^ 4 q %.%.4 A G } C.l X.{ V.A.` Y P j 4 0 G  .4.x.cXoX=.-.G } n.4.%.I G G [.=Xl P P : ` k.,X;X;.[.k.%.` #.z s f f C..Xz * '.J.P -XP.: : 6.2.I %.k.).c.0 5 $.:.T 6.Z.'.f w 1.Y. .G e e.:X;X%.4._ H G V.bX%.f F u z +.",
"Z.1.<X] q :.4.z F I.T q w w ] N._._ _ %.T :.j.>.5.%. .] 0 N.<X1.G A.r.{ w P Z.,X} _ F f G |  .k.].0XC.;.%.| 6.| I %._ P & ` $.,X%.l 5.4.F } T :.Z.f 5 $.=.` _ 4 * f 7 7 4 0 0 A = q 4.G 4.%.P 4.F z.[.H e.~.>X{ [  .| G P =.} : - T $. .H 1.I ` s } k.P 7 l H A q q X.N._ 4 H k.} } x.>.l d ` f d _ :.| P :.Y.Z.F n.0X[.[.[.;X7X5.T } P.jX:.T =.5 : h j. X| k..X_.1.7 ] Z.= + + ` C._ f q F z q | ]  .H G Z.pX0XL.'.pX .S 1.I x.:.L.| ).tX2.Z.G Z.pXZ.} | 5.} A q.[.Y.[ H  .V = F P C.} = I z.I _  .Y.8Xs h h x l C.,.{ ].F.2./ =X<XF.F.0 L h z T.:.x * *.` 5 k.[.vX2.q.F.B.N.[.:.` | N.[.;.F G 1.).5.k.* 0 G I w 0 $.} :.m.I l & F ;.F.] ] [.2XY.n.;.$.F l 5 f z 0 $.T P d T s * $.T 5 5.| =.| %.K.,XI ..Z.f : : 5 ;.L.8X} l ;XF.w k.6.G  .;.w z ' j z 4 * 5.I 5 >.` $.4 z =.K.T.6X'.| = ;.T 4 ` :.H A.<X$X;X .F I = G _ G ] %.J w = A =.l 4 I ] 0 = q z | Z.).[ ] S G 5 5 z x L 4.7Xc.j u z P |  .H ] ;.S A 6._ 2.( { 6.l _ ).C.= . q | F l 4 H 5._ 5 + X * 0 * d I  Xm * s F '.1.f Y.<X[.).rX| | G w l f : x.C.rX;Xk.'.Z.Z..X$.5 s u d m.C.C.$.=.-XT : j s 4.1.] H = 4.1.= 5 j L $.K.Z.4.6.H Z.A.%.1.[ 7 J [.| I ).2.w * = G f T P z m j ",
"=.4.'.| q G | 4.k.Y.H ] ]  .,.1.,.).F.Z.1._ ;.'.= d d F %.k.Y.%.d ;.V.`.l G I f q P } d k.k.N.[ | Y._._ ;.).;.l 5 z d z z 4 B.[.] 4 | k._ ;.<XqXn.q f 0XL.Z.Z.F | _ %.1.] A.k.| q = q %.L.} Z ;.F I 4.I F A N.9.2.w A L h.L U L : z 4.[.V.B.6.%.P =.m.q %.A.] 6.$X| | Y.1.H G ] | } L 5 L m.5.4 & q d * z $.j._ _ | l | %.= I T T.qXP.=. Xx.P x s *.O.I.Y.m.=XZXn.7 A _.| l d & 0 _ I G z q :.n.).B.{  .r A 5.| ).'.Y.= & 0 L #.:.f X F k.f 6.k.H '.L.G =X'.q 2.1Xe.6._ | q n. .4.T C.).[.).f f A _ ,XT.E.J.h M h 4.] 4 l r 7 r Y.A.[ ;XoXJ.i s d _ ;.f 5.%.l ;.A [.F. .4 f wXtXG q | =XtX6.=X;X2X).=Xn.4 G _ ] H C.5.f f $.Y.} G 5.A._ ] B.;X] ;.| _ A..Xl 0 _ F G 0 0 P z ` I 5 * 0 * j T =.$.f G x.4.| L.c.0 :.:.} L.XXq q Z.).5.4 4 F 4 ;.5.;._ q.;.= z C.I d ` j.` z z f F n.Y.=XI ` } d d L *.T.<X ._.$XG  .f | rX%.=  .uXA.6.N.] | = f C.C.A ,. .>XpX{ V q.yX{ 1.H & G z 5 ' '.I f j = A 6.D 4 S 5. .[ V.1.B.,.2.Y.f ;.L.w | _ ;.%.| Y.Z.2.A l d 5 L *.h.m L : d < - : : = 0 A ;.w f ;X(.H w H  .l P } =.l f I G 5.;.C.lX` * y h *.m b =.$.K.k.| 6.C.H ] A [ q f )._ * j s & I ,X;.1.Y._.6.q l A 6._.[.4.0 } k.4.L.Z.q F q d z 5 d m ",
"L.lXY.G I L.'.=.I F A H 6.1.V H ~.[.B.A.A.).l l G P m L z 4 z h.j.k.pX;Xf f =.L.P | ].5.4.'.Z.H ] _ H H 5.5.A  ._ ` z P L f ;.r 4 = 4 Z.;X,XC.1.I F * H l P T :.Z.5.4.Y.n.5.k.Y.F & f c.K.} P | | 4.#.*.s : A ] 1.w F 5.j h j 5 = 0 A 2.] ] 6.I =.` ` f H | S ).[.[.MX[.Y.k.D [.%.l L #.d C.A._ A 5.T * Y J.n.].Y.z P P F } T o u j & = I.I m j u G.6X` f q _ ,X;.4 | F.1.C.& * '.T.;.5.| C.5..XrX1X>X$X3.1.F.] 1.H 0 } I T 0 =.G & H %.%...6.A = k.C.I f _ f ] q.2.5.4.j.|  .N.$.G ..] ).;XI > | 4.+ ` j.P O.j z.>.l H _ r F.:Xn.Z.yX_.` x m i d %.N.2.A q.G 4 4 A 6.A.` _ A.$X .5. .A G n.6.A.sX6.G 0 G j.;.Y.N.4.j.5 L P w l N.6.1.Y.1.N.2._ 0 q l ;.l 4..XxXn.q G f F ].%.= = = z m.=.s j q P G P f f 4.L.* L m P z = * | Z.N.} F _ I } P l r !.yX&Xf $._ P $.h s O.` #.I 5 5 1.Z.$.T d d ` 5 =.].G 4  .^ G w | ] ,X5.7 G [.[.:X_.A 0 f :.K.4.l 1.e.3.tXX. ._.0XsXn.H 4 G >.s d F | G f ] 6.V.1.%.] J 7 Z.A.H H  .6.;X .7 f %.'..Xf q | _ n.N..XL.| L :.*.s.h P :.J.M N j 0 f 4.N.k.| ] 6.'.<XZ.= H Z.].l q w 0 & & f q G %.z d m i < T z j #.T : P ).uX).B.H  .q } [.;XT P L z 0 0 q 1.1...1. .A A | 5.L.=.0 4 7 q } } G l 0 f d 5 ' *.",
"k.1.%.;.P 4.<Xk._ ..Z.A w B.,.D r 2.[.1.q | Z.5.F d x Y C.| f z s I 6.).m.P x.L.f z L.| } n. .] ;.A & N._. .n.Y.[._.Y.#.m u ` ` _ 5.6.Z.Z.| | ;.l = G C.L.C.z $.P _ =.oXI.* j F = q } T 0 G c.1.Z.=.I : - : 4.,XA. .(.'...Z f G 6.V.H V. .| 4.5.| P P 5.H ;.N.A q l n._ C.C.] 1.G l & h ' z q ;.C.} 5 ; h x l ;.4.} j.` =.T : & X : I T =.z O.m s d |.` 0 l q } d q = w n.n.q = I z f l f %.G G = l ] C.<X| I | A.Z.I 0XtX_._.1XN.w )..X} 4.| %.Z.N..Xk.} ].;.G q z l 4 m.=X* 6.Z.q = 7 A ..G f =...5 =.5 : z 5 *.' ' G l l _.rX| ].rX .d O.O.u j.0XsXq.X.Y.5.$.` A.;.[.sX1Xf G A [ 1._.| _ A r 6.A l L.$.4 A ( N.4.d + d d 4 w ]  .2. . .1.A 5.;.G | <XZ.n.4.Z.5.1.I _ Z.6.l =XC.5.q f F ` =.l q G } } w n.%.} h : * 5 P 1..XY.T 4 G ` d T z F =X$XyXF.A f | j.U < h M g @ y h O.J.:.T l | ].Z.G .XA.5.5. .B. .l ] q l 4.f f  .^ S J  .I ` =.j.F ` F 1.1._ d 0 l q _ %.d z I.` 5 d T Y.iX1.A.V.;XZ._.1.S ] 2.1.]  ._.:XV.N.| 5.Z.} j.P f 0 G f l n.1.G z ` z.h y h m.qXs.a - F n..XH 4.'.1X1.%.[.[.} k.rX .S n.A.A 6.).5.A 4 %.;.4 u h m I._.4.O.u : > f > ] 6.~.[ 4.L.[.Y.=.$.L P f q F %.4.Z.[.B.= w G } _ | l G f = d $.| c.$._ l q _ Z.",
"'.Y.%.k.H F ;.| G I ,X'.k.;XpXA [ A.| l | 4.1.F F } I ` 5.%.` P T P I G L #.T P F f = 0 n.,X;XN.[  .N.] ;.5.4.;.B._.,X#.: & & T ].).H  .;.n.n.Y.$.G G %.lXmX$.F P.4.z j.' 5 s 5 d 5.} 0 f 0 & ] .XL.Y s : L h z.4.w ] (.J  .B.3.V.;X1.L.Y._ %.| z 0 F I P Z.7XN.G 5.5.l I ] 6.;.Z._ } =.' T C..Xq 4 d * P d d } l w l & P = & + & T 4.F h.:.: : h j 5 z m.;.5.Z.I d G ] _  .z 5 d I I q I ;.Y.=Xl q | Z.:.G F I * H %.;.C.2.~.pXF.A ] %.k.I f _ k.%.q G j.Y.5.* 5 T 5 & } I V.1.4.C.f k.,X(.(.| f f 4.:.z L d d #.K.s.s _ Z.;.= 4 q { N.k.:.x s d x.=X;.Z.l ` CXj.Z.%.G rXZ.5 d  .rXL.m.l F l ] 6.7 | K.k.;.`.`.`.n.4.h : d 1.q.B.B.0X .= ] _ l ;.Y.G n.| %.n.] | Y.6.Y.n.4 0 _ 1.C.=.w = | '.n.F k.C.P w G ;.:.#.h ; j.].G C.'.T f F } f ` G } 6.1.e._ w l = 5.j.*.y X h - y M s d j z } | MX=X4.Z.5.| r A 1.[.5.I I 4.} 4 0 = H Z.;X[.=.=.$.} =.$.l I } _ F d | q f z ` z m P G 6.m.k.).3. .Z.;X[.6. .B.N.F.1.A.).=X6.e.V.N.| 1.k.;._ q ;.T.G 0 _ [.2._ ` 5 + s ` ` s y + * = q Z.%...;.;.4.} } q %.C.n. .[.tXB.0 n._.[.1.q Y.<X| d ; T J.[.[.h.; L 4.;. .[.2X~.6.;XiX4.G =.*.* z :.P l A q | H A N.A...I ;.5.1.5.4._ C..Xn._ } %.;.l G H ",
";.| l } H _ G 0 : = j T I I H  .;.A G l l G z l %. .A._.%.}  XI.j.C.P } O.f.=.Y 5 =.| F %.5.N.Y.} Z.Y.C.'.4.| 0 _ } *.z * ` T q l q F z n.%.l G z } =.C.K.m._ Y.x.4.I | 4.Z.=.].Z.1.P f q A J f %.} %.I j g < g , + L -.E 6.2XH {  .| F s z z s T ` s $.k. .).=XD 1.1.] | } l f ;.%.Z.=X'.n.6XuX*.z F I n.} G l G I Z.N.l H %.] F F 0 0 F ` 0 =.L P d 0 } G ;.k.5 *.I.6.;.G G P z 5 L Z.n. .Y.tXn.A.).5.6.;.]  .5.5.=.z & d f n.'..X| T ` F I =.= F G d 0 f l ` ;.| 5 5 s 4..X,X[.].s z.p.Y -.E l } %.$.| j.K.m.#.P 6 d j.C.F z l q [ [.$.+ z :.} =.P + 5 h ' >.d T } q :.z f z l 4.z P s } * H G 0 F T.'.6.) ,.).;Xj.5 U j ] F.F.~.;X0Xn.G } | G w 5.n.l _ | _ ;.6.1.).6.n.1.H ] .X6.] H Z.1.0 = A l q = G %.P = h < Y G = P f P =.j.-XT.5 * m.5.4 z C.tX2X_ 4.cXC.d d 5.} f d l T.Y.q 0 4 T $.T z q H 6.F.`.Z.A | L.4.= 0 .X| ...X[.I :.| T P j.L.5.P l ;.A.).] A 4.;XZ.f 4 [ F._.w w 3.~.1.H C._.2.J ] [ H 6.V._.k.= A.V.] | 5.=X| F } n.4.k.4.xX=XtX).` h m P  XZ.0 * z } q = 4.Z.H ;.k.} q = 5 P 0 G V.yX;X| P 4 q G $.P $.5.L.E.a v d.K.x.z h.x.I 8.wX%X`.,.{ L.;.=.7X` & d & } j.A I f H N.] [.V.H q S  .N.2.).;XA.[.1.0 0 I 5. .).1.",
"| ] | F 4.j.L d P d P } I P _ n.H 4 | %.$.K.=.f l  .6.q.l j.x.j f L q F F Y s.Y : f 4.4.$.;.I 5.l | l F %.:.z 5 l P 5 * I T 0 Z.=.5 L z 0 q z d =.:.0 q N.} f I l 6.=XZ.H 5.| 5.k. .] I 4.| E A } I f } $.Y b g < - p.j.k.(.[.1.1. .| L - d #.d m.XXx.$.= = ]  .S 4 8 S l  .%.= + z ;.n.l & q ` f f _ ).;X| | n.<X[.2.[.7 | q.`.pX.Xf $.L h.C.j.z L L F & 5 q 5 & 5 q _ l 4 _ _ ` 5 * P ;.H A D 1X_.Z.=Xn.6.5.].ZXL.* d 5 s P f _ L.C.=.].4.j.k.* $.} = j.;.:.k.j.4.$.` d #.f 0 f I h.< O : = ] G G = F I G f :.G + + 6 ;. X;.5 T.,XS B.4.l j h Y.j.h ; h s.=.z l I _ d * 0 C.Z.;X$.j : Y j.$.| F 4 5 } ` _ [ ) F.;.F h y & 1.F.D D r _.1XG _ l F 7 A.6.l w F.;X6.).H ;.).L.6.N.%.Y.Z.6...Z.N.f l = | I f 5.G f x.$.h L | A 4 P L.Z.z z #.& z z >.d z 4.;.A.1.I l q G _ G ;.} H 6.=X4.q 5 l q ` } j d I =XY.l A k.} x.-X=.= 4.C.0 _ 1.;.` d f } =.m.C.%.q | N.e.q.] [  .4 q $._ B.).H = 1.e.Z.G f w N.V.;XH w C.| A I 4.;X%XN.] 4 S 4  .).| 4 ] q | 1.;.| 5.` L ` #.I G T ` :.| A ).,X;X;Xk.E P j z & 4.| A.vX~.[.K.0 f & x.z s 2.6.d ; , p g s > oXmX} A.S.<.~.V.] N.| F 4.4 f I.4.T I 4.[.1.A e H [. .] e.,.H A 6.$X1. .k.;.0 5..X} ] ).).",
"K.l G F P #.P T P.=.P #.T.C.;.| I ;.0XT..Xm.5 l 4 B.1.1.;.} z d d 5 1._.^ m.$.: q L.5.P I c.%.P | %.} z -.P 0 = = = 0 F T $.P :.' : 5 s $.z 5 5 4.j.$.P Y..X..F F 1.A.H r  .0X .A 6.H k.vX4.| 6.G 0 %.=.h s h : s ` J.6Xx.C.q H l $.oXI 0 m.4.j j ` n.G j.'.n.5.rXD A D 2.[.n.5 m ` l A 2.( 1.%.I Y.[.wX%XD f =.'.6.w l = S N.Z.5.I d d P *.x s j j z T ` ` K.Z.#.=.I } L.f o _ z.T f 0 _ N.<XB.[ f f & f L z L :.f #.J.P q | _ P 4.j.z I f l z 0 5.K.G I T 4.:.f :.jXXXXX` d 0 C.,X:.Y s s _ C.;.4 | :.4.` d } n.z & f F d z | -XlXw | ] $.` z F f f d I s.J.' d | | G Z.Y.[.[.lX:.* j L d 4.} j.L.z f d %.=.w B.H 0 P y *.>X$X).1.^ l H | 5.A w 7 D _ ..| Y.1.o H { 1.6.A ] A q } k.] _ ;.k.Z.=.5 z | %._ z.j.%.H Z.7XxX] G n. .A.P & * h ` G  .7 & 0 H N.C.5 G k.]  .[.1.I n.7XL.=.& 4 *.:.I P z d d q 4 _ N.'._ f m.$.d d = & = 5 K.z.L j I _ P z f } ).).S n. .4 2.0 _ L.:._ | 4 P 1.w ] _ 5.;X[  .N.l f I w 1.qXL.] 6.).5.q  .,.{ r  .2.;.5.w [ 7 7 4.f P } f o H f j .XY.2.k.;.Y.2.9 r | Y ; U 8X'.A [.nX2.H G F s ` =.T  .] : ; s.*.< h 0 } x.z ] 6.w  .I.= = %.4 w H 4.5.$.I f I ;.] w w 2.).~.&X`.&X3.1.[ N.G : j d d '..X4.k.1.).",
"l } L.$.= : 5 Y P z s F 4.F P G f n.4.l $.f '.=X;.<X[.F F =.z * d f  .F.rX[.I d F '.T.m.=.c.K.6X,X5.} f o P '.K.4.$.5 F f Y.5.* s : z x.x.:.5.Z.} _ $.T.T.I.| %.f 6._. .e [ [. .6.iXV.).).| Z..X| ` k.I.s d s C. X0 z d * f ` z 5 0 ` * l | P & & q | I :.m.'.%._ 1.,.V.V.1.0 P ` #.:.C.dX~.n.%.%.n.2.~.eX2.] Y.} 0 | C.Z.%.L._.;.4 & P ` * + + 5 F $.T k.C._ ` ,XC.l } ;.| %.5.} 0 | Y.5.1.B.] [ _ _ m.s s u g s + d =.l f Z.C.q q I l 4 4 = 4 5 5 F f 4 * * | d I 4.j :.j o $.L.4.P 4.z * ` $.G 4.<X-XT.L #.j.Y.mX4.5 F = F K.5.4.%.].:.f T z = = d ` :.0 j z 4 G } G '.).A.C.<X$.` z.j.#.| =.T.,X=.G 0 ` x.Y._._ } I + *.B.2.~.q. .7  .qX_.N.C.S  .F.Y.tXH & 4 6.[.H = G rXZ.0 q f F Z.;.G G u & 4 ;.C.>.P x 5 7 0 4.n._ H l 2.6.H z *.*.L G [ ( B.>X).Y.` 0 ` j.6.] | l G = d P ` ` _ } 4.f 5 & = z } q | F G _ 0 z ` m.T = f j.` T z.*.h & * 0 z T Z.1XA.w F %.`.`.n.;.:.=.m.O.: F $.z f l z %.A.;XN.5.f G 0  .| ] ] 2.[.7 1.1X>XF.`.e.D | Z.2. .;.n.%.| G ` H H 1.j z C.).).N.=  .N.A  .%.g i i P :.I _ k.w f f F XX=.5 4._._ = j.8X:.- L C.k.j : 4.,X0 0 j z } ..& P rXiXC.A I ;...G G 0 ;. .H V.fX!.!.,.6.%.e ] O.u h 5 f z | I _ '.",
"6.G | %.6.w f j *.=.P 5 5 z } F 5.%.0 F G ;.Y.uXA.] H 7 = I } T m =.6.q.V.5.:.` z n.Z.:.= I j.].k.d = f $.z ` x.L.4.P = 4 l F L T z =.} l } Z..XH A | ;.h.=.d : * ] $XB.6.[ [ G Z.=XV.;X$X2.f G P L.<XL.: s T.uX'.f f _ F T $.T | %.k.4.` =.` ;.1.1XN.| 1XY.Z.P + 4 H ,.e.B.N._ F *.].[.2.l ] [.` s G l G .X%.q P z l %.n.'.=X1.6.q.6.$X6.H Y.n.L.uXn.F I C.$.x.k.| F I = 1.=Xd d 5 F 4.= 0 4.] :XZ.5.$.0 P j T U P z F l } qXY.I _ 1.q G Z.I z l Z.%.5.Y.T.P $.| } T P $.=.x.#.s s d j ; - + z T.,X Xz.*.U M *.0 Y.xX4.f G P z $.L K.j.T =.I * l ;.T.iX0XG | _ A l = f _ H $.m.P f z z z K.$.F F : f } F P C.j.A 7 f q * * 7 r A ] Y.n.1XNXA.] 1.0XZ._ V.fX6.7 k.A.6.D H I 5.Z.n.d q 0 | %.* 6.z _ P P *.x m @ y 5 0 P : d _ _.%X:Xn.z *.*.Y T wX<.~.sXG F d s.$.#.;.w 0 f P 0 = $.G ].mX=.| I ` } | } Y._ A  .N.Y.F l | =.d * $.5.$.q j.*.5 F * z :.K._ } 6.F 5 } F.~.$XX.q z L h h h Q b a i Y d ;.1XtX2.G | Z.rXn.n.[.;.1.7 1.;X_.,.q._.( q.Y.1.q.n._ H n.'.'.Y.:X0XY m I.K.4.k.A.1.T z $.d z #.d ` J.-.d f F I P z 4..XG Y.~. .%.'.A.] G = w ] P - T I.G G f =.k.} * G 6.N.6.L.5.5.;.G 0 | A.).2.{ >XaX#X,.B.S 8 4.C.L =.4.$.G F 0 0 P ",
"2.w I ..pXB.G f d m L Y #.j.=.x.5.I n.6.;.n.] f H  .N. .A 6.=X4.F :.Z.;X] 4 | 5 ` j.4.z 0 q = f m.x.f 0 I.m.0 = f | I 4 q F F 5 d u z T G %...w e w N.k.T j.#.* & * e 2.B. .| _ 1.|  . .N.V.N.| = 0 4.$.s m.K.4.} 4.0 N.'.| 4.5.} :.| _ m.L.%.,X2.6.%.%.Z.[.>.z $.j.1.o.%XtXF.] _ _ ;X>XF _ I H z : s & d x.%.& } 4.G | D N.6.[ 2.6.;XF.[.Y.Y.=X7X,X;.I =X;._ C.L.l ..l l =X6Xz I.4.: d } MX=X .1.H = P j ` E.l.u u d 4.m._ Z.H w l 1.0 q '.].| 4.T._ j.4.m.d d P m.j.4.` I -X4.f * s #.#.T 5 L } I 5 j O.i a #.f _ A.4.f f I :.T 5 P 5 m.8Xf * T 4.} 5.| _ ;._ 5.F.= = z T T m ' ` F d & d } d j f P ,Xj.f 0 d F  .w G F 5 %.A.5.5.1X[.| n. .^ S ] I f 9 C ).C.1.[.[.k.] G w H G * = P H I 4.} ` G 5 4 d m T U h h T I u O.oXT._ 1.| q 5 F =.` q.C { ^ * z h s d 5 F A A.C.f f 5 = d } I.Z.uX,XY.5.| | k.I | 0X1.l H %.1.} C.Y.0 = q = = F Z.m.l F T ` 4 %.n.5 5 } q.{ o.A * s =.z Y O.v ; y g M z l L.[.] D q.;X=X_ A.1.1.G A w D 2.rXA.4 r ^ 4 & H n.A 6.4.5.%.A 6.6.5 ; P z ` ].5.0 z 5 s 0 I } T 5 5 s s m h s z P q A N.e.). .Z.2.H V.[.Z.H ] d 5 s f | 6.=.$.| l q %.6.H A  .5.} ,X_ l %.k.N.6.3.;X&X,.,.J ] ,.6.} #.'.T.5.Y.C.s f ` ",
"G B.:XN.k.[ ] 5.= s j + } I f ..F _ n.'.l q 4 l 2.B.~.^ 7 B.[.H _.H _ V.$X1.7 n.-XZ.Z.` F G 0 = 0 q l l G %.| C.m.f P f L.Y.| L 5 * d f 5.Z...l S ] A =.} #.#.: : f ).>X3.;X] P l A .X1X..=.%.G q f l 0 =.z.} d  . . .N.| n.| l n.%.4 4 5.` q z d s X * ` Y.5.j I } 6.,.{ &Xe.N.;.H X. .f *.N.n.m i h s.s.z 7 1.;X6.$X$X{ [.r.] H l G | _ H = ;.L.z 5 ` } 0 G F 5.F P I f 4._ s 4.:.C.F Z.Z.A.rX .1.N.4.f f h.E.m u ` C.4.4.%.D l l 4.;.F w 4.G q k.` * 0 _ 0 q 0 4.m.0 F | _ | ] I _ | 5.5.).,Xz 5 I Y h i @.O.' =.l f l l j.K.z s j d f T f * F q _ 1.l l | l q ;.C.| s M T x =.Y.C.I d z j s -.f F | l f f 0 f C.[.] I C.5.] 5.<X<Xw = D  .[.2XN.& G A.3._.Z.N._.L.A.6.w ] H G F I } m.%.j.#.s.s + s ` ` :.J.z s T 5 T $.j.T + + d 0 7 5.0X;XD [ H ] '.1..Xf f j.I C.[.N.f I T s l G 4.m.m.n.} z F m.*.: x P.'.S H 5.] f '.0Xl _ _ 4 f ;.-X| F z m.I.=.z ` z d 5 >X2X&X[ P } ].N.].K.* L ` 5 L =.T.:.N.>XA.] 6.H 4.%.w  .| w & q ] 2.A S  .l * %.n.n._ } $.d & & G F + j 4.%.0 : : 5 %.N.l = _ 4._ 5 h h h < ; s.` : 4.5._.;Xe.V 2.1.{ <.).V.J %.P z s 5 0 4 f : =.4.%.N.[. .G f q l | L.6.q G %.1.2.`.A o.%XS D e.{ } T j.F 1.k.$.f z ` ",
"l  .[.1X .[ )._.Z.m.| :.G l G A n.1.G l I 5.l * q G 1.V.B.) 2.D [  .H ] 2XV.w _.0X5.q = f G $.I.f H k.C.%.I I } G 5 G P m.` G ` $.f 0 = j.4.;.=X[.tX| 0 5.$.j : q -X7X:X6.1.I 5.4.%.=X'._ L.m.P F $...L.$.x =.F |  .6.1.| ;.A.L..XL.= l ].;._ G Y M M T f l P } $.4 4 9 7 B.F.w ] =X<XZ.*.L n.:.- ; i P.U 5 I Y.B.%X2.D ] N.V.).-X:.I ` f 5 | :.$.j.Y.5.F 0 F 0 5.%.k.Y.= * & 4.4.s 0 q } %.] H ] 6.n.H & f h.h + m =.F f 6.A.N.N.Z.=Xn.G 4 j.:.} jXn.} n.k.} } f =.} F P f _ '.].%.f f A I | } 4 q _ P * y i M m L z 5 q '.[.| f 0 : P =.d = k..Xk.k.C.[.$X=X| 0 J.<X Xh m O.' f >.:.z ` I P T =.0 f ` 4.5 z F & H ,.{ ;.G f 0 7 6.A.l 6.A.S D 6.2.H  .:X6.B.[.).A l ;.D =  .6.6.C.'.k.| z 5 h 5 m T y h ' G =X<XG O.m. XY.d #.i U >.f w [ A.[.1.D H A A 0 k.l L =.;.6.H I I :.L.F f $.I 4 G n.m.I |  X Xu u d 4.[._._ 6.A l | | I n._ l I _ * f q l k.K.C.P 5 I l I F.`.[ G 4.| A.tXMX6.Y.4 + l l ` ` ;.Y.q.X.w 1.N.;.H 6.A H 1.6.N.1.0 | Y.4.+  .C._ _ ;.n.4.#.0 ;.F 5 F Z.6.0 * $.L.2.q.4.I A.).:.=.Y Y M s s L P | 0 I k.1.6.] H F.^.<.V A l l k.T h d I %.P 5 f T 1.;X6.J 0 A 4.;._ I 0 G P d n._.[.] ,.fXF.V.y.V.F 5 %.6.k.<XY.f d j.",
"P f l 1. .~.%X] Z.| k.rXrX6.] ;X2X1XZ.1.=X_ H C.Y.^ ] _.r.{ `.e.3.[.F.5.2.S N.N.| I F 4 l H G ] I H ...XrXY.Z.A = l I G 0 } I =.' z ` 4.Y.k.} L.| 4.f 0 I n.x. XK.=.[.).).A * ` %.F w ..| P z x.=.0 =.$.s $.$.* G r G G l 1.'.6._ q 4 %.| 5.m.=.| 4.6.5.4.} =.F | 1._.&X:X1.0 7 { V.Y. X` 5 l 0 h N , ; *.G _ `.;.z 0 q T %._ C.m.*.5 T l * F _ 5.I.N.l P n.%.).Z.5.;.F 4.j.l z z G l ].C.A S N.B. .A H A q } d 0 f T z } k.%.| ;.l ` T 4 P P d * >.C.} P :.x.:.` :.4.m.$.f z } 0 0 ` I.$.G %.& w =XC.* 5 h u 5 5 d 5 * 0 G  . .| = q F l = & 6.G 1.L.6.Z.;.4.` z ` =.M u s 5 z $.& z =.} P.|.j.$.| w k.,X$.oXXX:.T 1.V.N.4 :.4.G ;X_.} .X;X] 4 ] $XpXN.6.F 6.$X2.H _  .B.1.e _ V S | F 5 z s z ;.x.m U h s = T.xX| 1..XC._ 5.j.x T C.1.] r l ;.2.( 6.1.H 6.| z f q H H J 0 l T } C.n.` 4 A q 7 =XA.n.Y.P L ' G C.A.A.^ r r ).=X5.] ).5.I C._ _ 2.] l } T  XXX: >.` q & ^ q.;.l 4 1.;.6.rXVXD D S e.-X$.m.;.Z. .A ] Z.n.| } A N.uX5.G %.A q q 4 %.n.] w L.,Xk.1.G 0 l F 0 0 $.1.w r  .[ w w n.| 4.Y.K.m.T L L ' } Z.6XkX:.z | k.k.| I 1.!.<.1.wX] %..XT m #.).<Xn.:.z I _ w l H 0 } '.C.| 6.l l l q T .X[.1.( ,.) /.&XV.).f = q _ I F l l C.",
"Z.4.z | 1.).X.w G | 1. .2.e. .B.e._.1.| | l F '.).^ | 2.r ( `.e.] X.2.S 4 ] 6.;.l _.5.G ..G w ] 5.4.l N.:X;XV. .1.1.| k.G f z 4.F 0 T j.K.xXZ.= + & = 7 f I .X7X=.& I 6.).k.f 0 d 0 F 4.| ;.z P I 0 f q L =.j...5.Z.n.5.] q.n.G ] ] l f f I l 5 4 F ] [.x.* F | G ;.A.q._.;.;.[.>X~._ * l _ l | z.T ; + $._ r V.} & 5 u s + h z * + L =.=.P x.=.;.| = q 6.n.f ;.] H ).6.Z.-XL.| f %.C..Xk.* w N.;X .S A.N.] %.n.| l P | ;._ = I | 4 l P =.L L >.h * P & f 5 = z } T } T * d L * = = d P #.T.} 5.n.;X>X .d z z ` L T P.'.T.I w ,X'.I %.k.=.,X'..XI 0 q w F n..X=.: s i x 4.].m.z :.z X 5 $.T P T %.1.0 G A | x.'.E.T  .D ;.z j.5.D q.| | Z.} l l A 3.] ] '.P 7 B.6.| I 5.tX).7 8 ]  .k.x.5 j *.I.n._ & s Y Y ` | I ;.1.8 q q n.G 5 O.T G 6.n.;.4.$Xo.e.<X'.Y.T ` j $.4.H q.G F h.} | F F Z.l w X.[  .A.;.l j.z } | A q.^ 2.N. ._.).w S H _ N.=X,X;XB.^ Y.*.T Y : q q 5 l q.0XFXn.| C.G 4._.$X[ `.`.F.N.= & G 6.4 = 4 4 l G f n._.n.G 4 F _ T $.m.'.C.] k.k.H H 6.F f I 5.G 0 P G 7 6.%Xe.1.1.I G d = z d P 5 z j.| 4.m.5XXX5 I T 0 5.} _ ;X!.!.[ w L.=XG j =.Z.C.I.x.` :.6.N.[.n.6.] } n.[.k.C.;.0 w 0 } | S ,.,.,.`.e.V.L.I I k.:.d q A %._.",
"=.4.=.k.k.q | H f F =.k. . .] { B.r r B.1X_ & F _ S n.N.%.w F I w S  .= H 6.I ] ] _ |  .l l 0X0X[. .G H ^ D B.N.;.,X;X5.k.G %.'.| I 0 F m.$.I = 0 0 N.N.= H G } =.I ..G | 4.%.F P G l w | ;.F L & F '.I C.6X=.Y.ZX1X4.;.Y.n._ 2.;X1XA.w 0 | G $.:.z = * d h L J.G q q _ _ 0 f 1.[ B._ 0 I ] [ J =.P : d & [ 3.A ].T ; b a =.m.` z 5 n.-X5.#.s.L 5 F $.6.I e H  .4.G w 1.f l F & l q | 5.F = 1.).=Xq l A 6.)._.n.l _ 4.F H 5.l Z.C.A.Y.| n.*.j j z :.oXI.P P s 5 = F $.& = 0 F T ,Xx.$.%.} P | 1XV.{ `.~.0 * + ` j.$.P.m.l q * O.| :.,XY.l :.1X6.4.| 4 I I } ].n.u z.:.6. .Z..X'.T d P d * L d 0 A 9 S _.F I F F T y s : 4.P _ Z.A. ._ q z 5 7 4 H ^ l =.} ;. .;.C.5.H  .1.q.A S 9  .=XT.u s ` m._ 0 } f } H ].A.%.6.] 2.q 0 H H s z ` F ] 7Xn.B.~.3.3. .n.` 5 L d _ I | ).;.x.-Xz.P d n.;Xn.1.N.X.{ B. .F f = 0 H ] 1.6.$XG q 1X;X] 1.4.F P m.5.w D w l f L z & Z.| 4 } ).)._.G T.P.=.f %.6.Z.;X5.0 = z ' 0 z 0  .<X| } P F 1.;.n.| 0 4.` 5 ` #.T 5 F n._.6.] [.1.w H | I $.C.Y.4. .Z.Z.| Z.:.=.q 5 = P :.:.<X$._ _ 4 T d j F f T = f H ,.tXnX] H 1.P 0 d z k.I =.$.z T N.A.A.Y.%.= P k.J 1.1X6.1.G ] w 6.`.e.B.nXNXe.e F 4.Z.Z.I I F z ;.I ",
"z T L =.j._ %.A F I n.<X<Xr { B.2.A ] A.1.w 7 Y.rX1X6.Z.5.T.4.;.H %.1.6.J H 6.4.n.6.B.;.4 l 4.Z.5.4 4 | ] A q.=X1.^ ;X[.%.%.Z.G F T c..X7X.X.X=X] [ V.2.%.] | P m.Y.'.=X1.;.N.l = 0 7 '.5.l ` } I } .XN.F l = 4 Y. .o A q.;.;.4.;.<X1XA.5.n._ f s z j s h T h } 4 0 _ T P | I 4 X.>X;Xn.4.| X.A } F z | 1.1.( ] 6.$.T a ; j $.:.:.z 4 } :.m p < 5 G T $.[ V._.N..XN.6.1.} } F | C.C.G ;._ q G F f } 4 A w 2XbX).l ;X7Xn.H 4.5.1.n.ZX].H G P f 0 z 5 Z.;X5.;XZ.d I } K.L.C.j.F C.7Xx.L.lX=X_ G l ( aX>X,.C.F P ;.;.* o 5 $.z j m 5 F T x.F f m.q F 4 0 5.} d I f ; $..XA.& H ).Z.d h :.z.: T ` I.2X) 1.N.5.G Z.].J.M h Y Y 5 d I ;.w _ 0 f  X6.5.>X1Xz * P Y.;.[ I  XqX| 7 ^ ^ 6.| _ P h : s 5 q G .XZ._ G G } G f _ ] F.I X 1.).:.T.8Xk.G G l A.S N.[.1.T.=.5 L F z * ;.$XZ.T z 5 I l q  .] { e.1.e.1XZ.l f j.| ..I ] A.F.[ 1.A.| w %.j.5 F L._ H ;XL.4.q ` I *.L.] _ 5.G 4 I = d F F f G _ ] | 0 l %.4.$.T I 4 ;.rXY.m.G G l N.1X).A N.F F K.h.u u : + H  .{ 3.6.A 7 F G %.| 6.l = H n.| G P q 5 0 5 I n.P H * G N.P ` L ` I.j.k.5.Y.1.9 t.nX6.S | 4.4.P 0 =.F + d T Z. .= 1.4.F = 4 * Z.1.] ] [ 1.[.3.).3.e.%XV.rX%X] 0 q 4.j.P z P G =.` ",
"Y m < < g f w J F l ..n.G _ [.).n.;._ X. .D ] r q.B.l n.Z. X'.1._.V.V.tXe.,.6.).e.,.1.4.4.:.` ` z F Z.5.G D V.F._ | n.k.%.].].H * q 1.| ;.L.5.N.] J ] F.Y.1.} = f ] B.V.1X2X[.] %.A | .Xf F I =.Z.7XC.H ] A.2.2.Y.[ 5.Z.G 4 4 %.=XZ.1._ | ;.| I G } I > s z : : f ` k.0 d $.O.= B.;X] $.| '.vX2.G G f 4.6.| [ f H k.=.` L s * =.z :.I %.P 5 Y i } 4.* z V.3.A ] | '._.).%.C.=.4.tX=XG k.= I _ 4 | L.5.n.l n.tXn.l n.'.| %._ | 6.N.X.A 5.P :.P T | [ ~.!.`.nXV.H } f T I I.8X` j.-Xq w A ] l 0 l 2XtX~.2Xm.` _ n.q } ` $.=XT : M O.j.d & z ` G } ` d z ` :.f l F u  X7XL._.vX:Xq 4 = T K.s P L =.Y.0 )._.Y.A.B.).H P d $.Y ' L :.:.*.z & 0 A.N.F.ZXY.4 ;.I.:._  ._ l } C.1X%X] 5.;.=.Y i s 5 _ Y.;.1.| d L :.Y + & l w A l o I <X=.=.6XY.G 4.A.4.k.6._ T z 5 u P.].G 0 f ;.^ * + s j.;.G w B. .[ ] [ V.G 0 A | | l l F =  .A._ f F d P P f C.iX0XN.Z.:.$.s *.I z z I N.C.4 F F = * *.:.f G } G 7 I F f | 4.l 7 r S N.;.I 0 q = ^ { %X_.r H ;.6.#.: < : = S V.8.`.$X%.] w 4.<X.X| I N.,XoXJ.5 } .X5.w 5.A.G _ _  .w G 0 L d d Y.=Xk.k.).B.( ] 1.H S vX.XP 0 f } F f } x.} %.Z..XC.I G G l L.).* f A [ [.V.D 9 r A = A ] [ G :.` | iX)...I f j ",
"L i i , g O.'.V.n.C.f I | N.Z.L.;.f _ 4  .[.>X,._.5.4 l m.T 4.8X;.G w w D ^ 1.1.[ 6. .6.P f *.T $.m.Z.C.H [.1.q ).F.N.<Xk.k.Y.C.=.C.<X| } P G G 1.6.;XL._ 4.I = A  .J A 1.N.;X| | I | P f f f G k.C.2._.rXtXN. .| l ;.G H | z G Z.H ;.H I n.H q I ..C.f I d f 0 z =.d P L L x d w ] 0 ` m.x.qX .= =  .A.C.G f 4.6.0 0 =.I q F F l n.;.=.T.T b s $.n.U * 3.{ = ] 0 q H %.F ` f 0 | _ 4 4 4 %.4.I & :.n.L.%.Z.'.w = _ l & w q l >X).& A 5.I z $.I.L.;X%Xt.aX3.S 0 0 : } ` z $.x.T j.$.| N.J G f z Z.H q 1.q 5 Z.tX6.6.m.+ q $.m u j.J.J.} F 5 q l F _ C.*._ z ` 4.T ,XT._ n.[.6. .] ;.c.C.` * : z j : 4 G H 5.N.=X .} & f j.h s T z G F l _ _ 6.A k.} q | z & * 7 H ` 5 j._.V.q.] z s m h 5 I '.Y.0 l j.#.u P U L :._.5.q G 7 ] .X] l P x._ } %.G C.$.x.h.m : ; j.Z.} z z H H I z =.J.m.C. .V.A.6. .A. .1.] A l f * = l 1.l H G z j f z d G | Y.).%.= l f 5 d 5 & = 5.n.7 0 _ 5.` 5 $.' o f %.G w Y.Z.G Y.'.;.] N.;XY.I & 4 F q.2.( ~._.B.$X;.G 0 L m j w w 3.w.{ ] 6.1.G %.C.7X;XL.K.:.P m z Z._._ 5.,Xk.z L.n.6.4.z =.'.K.4.x.C.[.X.D e.3.J  .w _ %.H 5.f l 0 F C.Y.F & q ;.} H F l _ Z.C.k.5.L.1.H 1.1.^ B.J = S 6. .H 4.8XI._ =XvX| f F | ",
"} h.m , i Y F P Z.$.P } x.} : d f $.C.Y.[ X.V.`.sX>X5._ G f } F s | f & l 4.` : & f 4.P q F  XC.' d * 5 C.].| A '.rXC.6.5.l %.n.5.L.| H 4.I |  .1.pX[.[ = q I I ;X.XD ] w w 6.[ w n.G * m.q F G P 5 =.;.5.Z.l f F z w _ f ' 6.n.C.Y.C.G N.Z.w  .:X:XV...F F ` K.,X].G P L z * z m.6.` d 5 z %.1.]  .V.:X4.+ & %.| = %...w 4 G I 0 ;.f 5 s j #.*.-X-XU s r.<.3.A = F Z.[.z z T L.A.A.4.%.} _ %._ 5 0 5 0 T oXm.4 F %.;.4 5.5.H ;.q.] | ;.H _ #.$.4.n.).).{.H l f : f :.=.:.'.'.=.=.Y.1X).( ;.P s d f q F L j 0 ;.Y.G 5 P } m.5 u 5 *.:.G 0 f } 4 4 n.x.:.$.} } | $.T F + = l _.fX1.[ 1.C.x.L m Y L I G ..| w S ).n.q.f G 4.L f F 4..X=X1.<XC.z z 4 * ] ;.& = F 0 w q 5 :.F.,.,.;XF u h x s } Z.$.l d T h 5 5 P 5.A.[.1.1.w G ;X ._ 4.0 z c.` z } z *.` P O.j 5 d | C.x d I | I C.=.5 | 6.J  . .w k.| w ..H  .C.k.Z.] | ).1.} ;.j.z ` 5 d l w w G q 4 | f q I q I | _ I | 4 _ Z.qX} 5 z = l 4.C.] _.FX1.Y.0X[ ] [.>X>X$.5 ` 5.rX{ o.r.`.>Xq.G 6.1.k.G | _ 4 V.`.& 1.A.7 G _ ` ` F $.=.s s j z I q ;.` z 5 z j.#.z $.x.m.=.;.K.Z.;.A.6.>XV. .[ | ] l f f G } 4.P 5.1.w } P P n.d I _ %.;._ _ G 5.Y.5.H = * ` 4.6.B.6.V.6.%._ x.=.` _.1.l A H 4.",
"| ` m m - + : G 0 0 f f 0 = s F l 4 ;._.X.4 B.`.:X[.n.G l T P d P } z 0 $.=.=.|.P * I z :.=.G F >.z z #.F f } G H  .l H G f _ _ * = F  .G = 0 = D ).6.%.G G N._.;XA.6.B.B.N.[.n._ '.:.} 0 l C.5.F } 4.%.d $.f $.A.n.C.Z.f _ _ | 6.pXN._ | w 7 1.`.!.V.).f C.C.=.C.| %.F z x.J.G uXT.0 #.=.} P C.A._.1XN._ ` F } q I 7X[._.N.I L.L.].F X + ; U h %.%.L 4.V.3.B.6.L.,X.XA.z & _ 5.Z. .} I } F 4.%.F I.m.d m m.:.5 $.Z.;.| L.L.G 7 ] V.$XF q j.z | 0 ..%.} } f H %.5.} F f :.} P P f F S V.V.H f & P $.n.'.z.*.z z 5.$.*.jX XG h x * * l $.m.$.I.C.:.z + z z + T z = d F f q 7 ] %X,.V.B.f } T h : s d d I '.4.l 6.;.| ;.4.0 = 0 %.5.} Y.%._ ;.#.' *.n.iXF.4 n.K.G Z.n.5 _ :XV.D ] } ' #.T ` x f $.P 4.$.* 5.K.].1.= w I k.A.k.k.V._ A Z.| f l #.h.j j s d T l G | n.4.#.h l l | j.= G n.H & 7  .6.l | w F G  . .N.Y.w k.k.H = I q C.I.f 5.C.F _ ;.;.6.C.q ^ ).;X;X).6.;X.Xq G j.T.P.=.z = P _.<X] D N.S D 6.8 = q.).N.Z.` 4.I  .e.2.e.F.B.l _ H l 2.1.6.] k.6.%.1X`.2.N.] 0 T F 5 :.$.d =.d F P 0 f z x u $.K.T.d z ` = 0 w | } f  .:X).D w = %.[.} P } } 1.'.L.4.A C.pXL.C.,Xz f A 4.;XG 0 F 4.'.%.I L z f 0 Y.A.e.`.6.] = z =.0 F  .A w A  .",
"C.j x.x.` ` ].;X1.6.B. .J P F G f 1.;XA.5.] ;.[ 4 n.1XZ.s * 0 f = } '.$.m.k.4.,X=.z T f G z d x z d d h j } } l %. . .Y.6...%.q & q %.| G 4.4.H >X%X] ` I f _ Z.G q 4.k.[.I H  .k.P P z & z 5.4.C.<X'.I ].5.| .Xn.'.'.| _ ].T.+ 4 | '.1X4.I ;XF./ { ,. .f -.P * : P d T n.oXiX%.} x.` J.Y z G  .1X_.J 0 ] Y.Y.4.G ] A 7 $XB.7 1Xn.} z : u U b T P.5.F R %.1.2.<XZ.f ] k.P = = * l 5.Z._ } A 1.G } -X$.& 5 x M m I :.L.oX'.'.] 7 D ^ ;.G I j.j.c. .H : : L F 6.6.P K.` + F q 0 f 5 0 r 3.V.3.G + q _ Y.Z.O.; N j n.-X#.s =.$.Y s z z z P f 4.L.%.:.P d T.m.P :.l l | j L d | ;X#Xo.`.yX1.4.z : : j I z z 5 5 s s 0 l ;.4.1.] D Z.I I Y.1.H %.f I Y.z ] w D X.z f G ;.5._ w w 3.F.N.F z ` h 5 T j.| ).Y.} n.5.4.|  ._ q q 6.n._ [  .H 6.A G 0 & : P z ` ;.I 6.A.B.N.;.m x T ` 4.I q n.C.4 ( 6.B.A H _ 0 G | * _ [. .l Z.k.G  .;.H n.I f d F :._ H ;. .5.{ q.3.V.C N.N.H w } _ $.I.$.s #.I.k.] ] _.$X] 6.{ 6.D ^ >X| H ZXC.= G ;.X.e.).n.F G T & P L.;.5. .).%.H N.q P c.F [.N.l w 5.Z.$.C.>.` d = f $.Y.;. X XG d z 5 H 1. .I * = N.!.H A S e ;.5.5.I = %.G 0 %.A A | C.;.F I z q | H  .Y.C.f f j I x.0 = 0 q f 1.[.V.2.6.I j.%.0 _  .S 6._.6.",
"j & q =.L.] n. .D  .V.2.N.k.C.1.6.q.).0X6.5.G 6.N.).Z.n.x.P T T z I.].;.Y.,X;.%.| I.x.f 5 d s * h 5 * d F j.T ` I l _ _.<Xk.[... .k.).'.'.L.| '.e.D = z P ` F 4.qX4.= } I w A G } 0 = & F T.L.L.6.1...7 G I 6.4.= | | w | 4.} q H | 4.].C.H [.:XV.e.2. .F Y j d O.:.$.} l } F | 4.f * 5 * s 0 5.;X .q 5.H _ T & 4.1.H H  .F.;X[.8 4 G O.h u u Y *.0 & F f ] 6.1.] & 0 5.F 5.G _ rXtXZ.H 4 G ,XL.%._ F s * + h m j ;.n.uX4._ 1XN.r 8 4 _ l 4 d = =  .j & P =.V.!.|  X$.L G f I C.f 0 F.%XV.,.4.s _ '.k.j + ; i m P } j ' F ;.=.$.z %.K.'.L._ = 4.4.f P T T :.j.;.:.$.*.#.5 I.rX~.~.) e.B.mX8Xs z $.C.=.f 5 d s ` #.4.z _ 0X'.2.;X` ' } G 6.=XG ;.} = F  ._._.l q 0 $.n._ q f 6.;Xq.l I m.P.s.h F | X.q.H | ;.4 X ] 6.G T Y.Y.A.6.V.1X).7 l | f ` :.=.x.k.A X.e.e. .I ` f.j.F 5 4 w q._.2.6.X.] = = = f G 4 = 6.A.l q = :.5.N.V._.] * j.J.=.*.* G A r ,._.`.~.3.) N.} 5.n.| l f j. X` * f l 4._ ).$Xr D ,.2.8 G Z.F.Z.;.f I oXA.).B.1.} $.I m.z L j 0 %._  .] w | d + 0 | N.6.] B.} G ].T.} G F j.G A <XY.} f + ' *.5 F %.B.] 0 5.V.^ ,.).N.A I q %.G f N.C.L.,X_ B.H H | K.:.f 0 w w r 1.q 0 : + h =.z 4.k.] | 1.2.e.A.H H k.4.f G 1X[._ N.rX",
":.5.1.=XP f ..2.2.l S ] 4...Y.1X .] N.4.).ZX].Y.=X$X_.k.'.z.*.T q f G ;.Z.j.=.n.].].m.P I ` z %.K.j.P z m.#.> T 5 %.} | ] f 4.$.4.I $.I 4.f P P P f 4 z ` 4.%.k.Z.1.] Y.N.1.1.] _ H  .[ =.j._ 6.A 4 0 = _ G I | f H ;.;.0 l | = * H l H ] H ] A ;.5.` * : m L j #.P F %.=.} F =.m.d L Y m :.#.T.;.;.4.'.'.f 4 j.q.I z d j j.6.^ J [.:.j.|.u + & X ; d } T l H + w 4 N.1X4.;.;.%.C.n.| G } L.Y.$.0 =.} 5 O.m L *.I j..XG G k.<X<XA ] ] ] = 0 = 4 ( V.#.; &.1.t.`.H * z ` G $.;.0X} G 2.%XD w %.Z.} z j L T *.=.$.P F 5 4.C.Z.Z.q. .6._ 1.X.^ 5.L. .z F j d d _ ` f * d * s z.>.P %.0 e D 1.N.q f l _ $.:.d 5 5 G.E.T.G } I.P.c.4.} } _.1.w ] G 1.5.k.;.1. .xXY.4 } | ] H Y.4.] | [ I qX-XP I 5 4 _ ;.N.A.^ I * 5 ] _.n.z n.<X[.Y.Z.5.;X,.q.;XZ.G %.;.} 4 A H D A 5.` u T m ' I F ] N.2XtXsX$X5.] G ] 4.} q } '.P d z d : z Z./.V.D A } 4.m.P + ] [.~.o.e.F.).q.[ _ l 6.| %.| T -Xn.l + & } n.l G | S 2.B. .w 0 T F.2X4.z l j._.| 7 ;.5.:.>.z *.E.U s m.,X_. .V.2.f ` z 0 w  .B.).F $..Xc.P 0 ` z w [ 1._ _ _ %.%.q 5 0 n.C.4 n.<X6.[ A ] l A ].=X4.Z.5.G %.| ;._ C.C.k.;.4.'.P f ] [ r ..} z j #.$.s 0 A C.N.Z.w D e.A. .N.;X). .G =.| 0 k.V.",
"=.6.1.Y.` z 5.| } %.C.T | | 7 G | C.5.G F %._ 0 F _.n.n._ F $.f & | 0Xz & G z f | ;.m.m.P 4 0 _ 6.-X%.P '.T $.P $.x.` f 4._ F z ` T z z z F ` h s u *.P ` 4.0 A k.).4.H ..6.6.l A A.3.{ ..* w 7 7 _ ;.F 5.N.;.H ;._ _ 4.H k.C.%.q 4 | | ;.6.G F ;.T.u X l.XXx.j =.d f I I F f T } ` T j m ` #.j.f F q _ $.} x.4.l 2.z.+ h d 8 6.[.].z s ` z O.P Y x P C.I.l = _ 1._ _ _ | } :.5.I G I F :.| $.F K.6XF * I h z XXoXd =.:.n.<X1XH & H  .Z.G f =.` n.;XP.s $.).^.&Xz h ' d j.5XT G 5.| D V.wX ._  X=.&.O.O.J.j.'.L.4 k.= G <X).pX).| 7 4 q w [ Z.tXlX_ z z d : f P d $.h : *.z.*.z + 4 6.%X2. .n.H 1.C.| | F T u P ` s $.5XL u 5 P } } ).] A l 7 4.} _ H G w H 5.k.Y.n.| A 4.n.H 4 n.<X.Xm.q 4._ n.N.l n.N.H 0 5 d 4 A ` * 4 } H _ Z.7 1.1.3.2.G _ <X;.[  .q ;.I l :.G s +.U j.qXZ.1.$X1.N.;. .] _ 2.k.| I P } G * : s : L I [ 3.,.[ H l d : P l 1.A.[.,.w l I q o G 2.1.;.N.l $.$.G ` T I ).Z._ | f G ]  .9 l d $.Y.N.:.4.f T ;.r w H F z 5 5 x P y + ` I.%.6.`.[ q =.:.m.N.V.V.C.T $.P z G C.,XF C.pX`.D 4.` C.].k.f 0 Z.;.q 5.5.;.n.] ] l f %.%._ ,XZ.F H H | _.[. .G | 6.Z.f } B.w  .Z.%.f d L d T I.| w Y.).[ 3.`.:X=XV._.y.1.` z L.=.| J ",
"I f 2.J P P I G F f P f * T F f 5.I k.C.f $.7X4.4 l n.L.w q l ] } l 5.m.G 4 f 4 F } _ ` 0 ] } f 4.I l P F :.4.j :.*.j ; i m.h.x ` I s L h s h s : P =.$.T..XG A :X:X .H 1._.[.1.w ~.!./.e.[ ] ] ] _ 4 = G G G C.;.| & G G %.<XxX;.;.'.4. .G w 7 ;.%.L T m.J.=.$.=.$.5.5.} 0 f #.z j #.- z T * * & 5 h m : z m.z ] [.j.5 h G ;.6.:.P : 5 0 -. Xj.P Y z P 4.I Y.lX;X1._ %.T.Z.'.` 0 5 L L ` * * z  X6X#.j.:.T 0 O.j.d : F | ).5.S B.`.N.N.F s *.Y 4.n.L h M =. .N.Y i m u h m z 4.} n.).F.;XB.5.f j m U Y m L | f 7  .5.F G _ ;.F q _ $XF.| Y.N._ %._ F * : * q f = ` x 5 5 h :.z & n.wXfXaXV.6.;. .4.;.P d P s.*.x j.m.XXg + s * q I | ;.Z.H l I w =  .H G A 7 7 F _ 0 F 5.} f 0 $.4.4.j.} rX;.Y.Y.q _ 1.1.q 4 _ l l _ _ } I F f F _ H 4 2.] + 4 B.S [ | F ` z T F & x h y Y 5.%.[  ._.C.= f q z ..F l 1.| q z ; * P =.n.F.) ( ( ).| ` z 5 $._.).^ `.yXpX .* G A 3.V.V.pXbXA.5. .} } z P 5.| 0 L I %.;XA.1XrX1.7 N.Y.C.$.d G G ;.] ;.} | q } '.=.5 : : + F 6.D G G z Y.C.F [ 1.4.T u & * $.'.'._ A <X).).;.4.Y.'.Y.q d 0 d z q _ L.C.q } I F 6.l w  .;.w | | F H ;.| G q q C.G ).!.& H L.z d z * z P.m.] H 1.{ `.wXV.[.k.= A  .] = #.T =.H [ ",
"0 l _.6.I.=.k.4.I.T.T + P ` : & ;.5.5 %.} } L.l 0 N.'.G 8 r ] A ] l I ;.5.l l I l F m.I } k.=.4.%.H I I f q * d L ; ; i @ v *.` d L h & s d 5 * & s z L  X4.G n.Z. .N.).V.6.Y.V.).rXyXB. .B.N.6._ %.P _ G d _ G l P z l l P P } f G | %.q & f 4.F q .XC.F } } K.;.%.` =.,XF 0 T T L ` z P *.:.=.L : h #.m.O.u L =Xk.l 5 5 C.C. .T.L 5 5 ` f d F > f f z C.6.1.N.H = G I :.x.4.| d 4.|.T 5 z s $.|.:.I x.C.XXK.P j z 5 0 L.} A 1.`.).1.0 d z s j l s - ; ; o l Y.s.T O.h d j.4.I _ 5.rX1.A.6.k.x.Y s : i s F } ;.[ k.C.| l * } ].| | _._.5 :.C.F Y.].T z.J.z.4.F 0 f #.z I 5 * z _ B.V C #X0.S 7 l | l * d z L m O.z.F f j T P :.} H ] k.Y.} I H f l [ [ 0 n.Y. .f w F ).6.I m. Xz q F ` F H * q l d 5.H _ [ 7 7  .| & T x.` Y.L.m.| H w _.5.4 %.B.F.%X_ I L L Y * h m h ; m } H | n.} ` ` #.d L l 0 6.2X6.;.Y < u x.lX%X,.wX[.S [.n.F j.m.=X<X$X:X[.;XrXH } Z.5.rXfX1.pX[._ q G 5 F q T 7X<X$.k.` 0 4.;X$X`.3.A 2.A.| = * + H N.;X5._ n.C.%.uXP.z j s 5 =.| ).;.1.5.5.N.P } } T - h h m.I f N.%.= q Z.0X0 P N.8 + 0 0 = + ` G A 5.I _ %._ f  . . .Z.n.n.C.| G 7 F f f G } _ %.Z.;X1.A f F j ` f L $.: = G L.[.rXpX:XH 1.;.w 2.] 5.I H 4.N.1.",
"4.7  .Z.-Xx.5.1.] tX_.} .X4.| 1.L.5.4 I G F l l l _ 5.1.V F.q.2.q. .1.H Z.;.4 ;.5.q =.j.C.L.].4.f Z.x.F F w %.$.u g Y XX|.s.@.y d f ;.Y.k.5.=.} T :.I & $.4.5._.:X6.w ] 1.C.N.6.k.H } q 7 A A ..| n.4.:.T 0 x.].6X5.5.m.J.'.} z d 5 5 h Y T x } F n.6.4 7 %.C.5.;.} = F 4.l l I.K.F :.J.h ` T.qX*.j *.m h Y * L 7XY.;.` m.6Xn.5.:.P T L C.=.5.].` I ` l _ %.1.B.).H C.=X=.z } d z f XXP.: s ` L T.m.z : G P T x.=.L z & P k.;.l  .0 7 %.$.G F f _ f F ` h 5 z } 5 z.$.l 5.C.k.l l 0 4 ] :Xk.;.4.P j m ; : s 4.| 1.;.| C.f * 6.L.F * D %.d I P G 5.C.T E.J.m.I.k.q G $.} I 5 = ` 5.$Xr.!.<.w.tX).).A.uXF f z 5 #.` f ^ _.C.} G ..I ..4.l } L.| ..I G 7 '.vX%.] L.'.].5.G G Y.rX_.1.=XrXL.l z d L x 5 %.5.).F.r ;.vX1.5 * X P =Xq.r ] ,.t.r.0.B.X.2.V.e.H 5 d j u *.|.U y h 5 P 5.H H Y.:.z z x L 0 f 1.N.A.'.d j x *.z ;.S _ l 0 4.G 0 T } L.F.7  .[.A.G 0 ;.n.| ;.] ;._ ` s 5 z L T ;._ z T G I.,X| l q H ] q.`._.] %.$.z 4.N.2.2.A l _ } G 1.=Xx.d z & l %.;.] n.=X ._ Z.L.j.T m u m P.c...C.[.4.l ].;.0 %.>Xq.[.B.A [ A. .| | S _ n.N.G = A l ] G A 5.| * = = q f I Z.'.| G | 4.A 6.0X..G P M +.g g ; * s I 1.N.V.G Y.T.=.n.6.2.| _.).1.6.",
"5.I ;.[ ` j.C.;.= ] A.G %.Z.C.,X].| l F } I H | A.N.).6._.>Xq.N.0X[._ H ;.6._ N.Y.I ` ` } lX.Xf F f d f f ] 4.` j O.L h.I m b + l 0 w %.I | '.C.` =.$.5 P } H A.=X;Xk.N.N.6.rX[.6.f & = 4 N.%.=.5.= =.| F l 5.Y.| } :.:. X,X_ T L j z z z z d 5 G _.N.N.6.A.N.4.Z.k.0 5 : =.C.I P P *.#.5 h 5 h ` P :.d z ' 5 ` '.k._ f T $.z q & : P $.=.G | ` _  X].7 6.%X%X>X$X%.I n._ } l l P 5 L d s z : : z '.uXh.0 = T L L T | =.;.;.P A w l l [.;XP l P ).'.=.I T T.` 5 I $.z F 5..XZ.'.;.+ = _.).I 0 $.T.*.g ; : F P _ 4 _ 1.} I F f ` ;.G G k.z =.F + q q 5 P j j f _ 4 4 %.5.q _ I G Z._.V.:X`.%X>Xn.[.].qX$.F z F oX%.w >XFX).G N.Z.7 k.] c.| } } 1.;.| Z.A.n.H f 7 l Z.* q ;.n.G 1.>XA.1.5.n.z h z ` 5 _ 1XsX5.0 1.X.= P * + *.0X{ ).N.3.&X/.&XfX .A 4 *  .| f d : L :.: j h 5 _ L.[.B.n._ * } C.| ..[._.V.L.G 4.Y m *.X 5 q F ` n.l q q z 4.I B.V.S S [ 2.} Y.%.4 q 1.qXG * 5 5 x L *.q = d ' } Y.).'.:.f ;.rX`.2.] r L.'.` =XY.q.q._. .w ] [.<X;.f & d & f C.F 0 J 6.%._ m.-.x.L Y z.: + P A C.C.4 q 8 7 f f B._.B.e.,.).).X.rXNX>X]  .4.;.| | ] _ ] 6.n.5.5.l H _ G %.} G I l Y.N.= _.;X..=.j h T h T m s > 4 A | %.I 0 5 | 6.).A.6.2.[  .N.",
"G A  .%.5.%.w & ..| 4 q G I $.| %.T G | l I } _.wXfXe.e.2XN.3.1. .A.Z._.=X .n.N.%.I 5.L.,XqX'.f 5 h.T $.N.;X[.Z.Y.C.m.x.= L j.z = P d * L J.| :.` I J.h.c.I A V.N.6.:X2X2.[ _.rX;X:X'.f 6.A.[.] I $.n.5.F G 0 k.4.d #.:. X} + 0 k.;.A 6.6.l F f 4 7 `.`.,.] ] | 7Xm.$.$.s :.Z.} z ` * j j } j.L 0 } J.z l F k.l = _ n.C.d $.I 0 P | f $.} * = = & 0 G f [ 3. .e.;.G I 4 F l 4 5.d f j.j.T.I & f f =.,X4.q T } } * d j.T.G F J 6.[. .C.C.4 f j h.0X_.9 ] ] l f s z P : s 5 F f 4.I 5 I '.} & z Y m < m u d l 4._.1.A.;...G * 5 z  Xj.x ' l %.5.q f m.I.m - 5 l q 0 | H F l ;.I G 0 0  .6.N.rX1.7 Z.,X;.0 =.j m $.j.6.6.[ G $.1.6.G A.L.7X4._ G A Y.7XiX5.l _ ] 0 4 } 5.N.,X%.4 } | = = _ _ 0 ` C.-XF G 5.F.;.q $.4 %.n.5 5 f _ ;.| 5.S [ >X>X).l Z._ %.Z.qXmX| F Z.` m P ` m.C._ r >XN.H w 4.4.5.).[.,X5.f G iX| f 5.4.l $.,X0X,XG w & l %.$.Z.6.q.( Z.5.G %.| A ] 6.Z._ I f } l = G _ w I.XX=.n.B.3. ._ G A f G w H I ` 5 k.;XN.6.F.tX1.1.0XL.H z q F q z x.| f w N.H  .} = j P h L j 4.} & P 7 l 2.B. .` 5 w l S ] 1.r q.2.|  .6.H _ | 5.L.%.| G  .N.5.C.).1.'.;._ I ..Y._ Z.NX).H H w %.L.j :.T P } G 6.] ] q.N.H C.C.F :.).B.1.F w l f G ",
"| 6.6.J l F F %.Z.k.P f =.k.iXL.d q >.L z $.` 5.[ ,.B.B.| 7 4 7 4 q q.Y.%.4  .k.4._ _ } Z.x.#.s d 4.` } ;X7X6.[ q C.].j.F } ' ` 0 P I J.m.z F G j.f P.T.-Xk.4.k.A 7 S A H [ w  ._.Z.4.5.B.).A.k.m.*.Z.;.5.l 0 4.5.z  X:.P 4.q d }  .1.=X=XZ.0X=X6.8 X.`.%XV.B.'.Y.K.d L $.:.=.n.0 z 0 5 F P l f :. X6XT | Z.A.n.G Z.Z.P _ F Y.] 6.%.5.I.K.j.` z $.f %.'.:XG N.N.4 f Z.L._.| H [ A H |  X;.= f } = %.H G 5.:.z & : T I =._ F A 1.V.=XA.A = F ` -.=X~.[.V.).'.P s s s : ' x.f 5 d z 5 l 4.0 G 4.T #.s : s $.C.;.6.w  . .F 4 5 5 * d 5 + & d l C.l f :.j.M ; I | Y.A.;.H ;.Y.;XI l I I S w + l Z.%.z z z F 5 #.' T.qXT.H I 4. X] G G | I } G k.N.6.;. .= | 5.w l | F | Y.7XG | ` '.f = 4.N. .H l %.k.;.] ;.l _ ` = F Z.m.;.` _ } $.` I 7 6.] X.| l _ F F | 1.| 1.'.N._ f z x ,XqX] ^ >X[.6.H F l 7 ).[._ G T I _ H A.1X1X:.F j.Z.Y.1._ n.;.f l A A  .).'.I G f &  .F.).A.1.;.I %.} 5 :._.A.J.L %.[.,.1.n.l z q q 4.4 w Y.].I 4 G } ] | 5.] q.G } 4.;.F f f F =.G q A 1.F l 0 I j T F X F :.C.x.l 4 _.$X2X$XZ.z f } H  .| | Y.n.Z.G 7 F G ;.l I L.| l | ..| 5.l f 6.} P 6...F ..G ] 6.6.2._ f 0 f :.oX,XZ.k.2.D [ `.1._ G h.x.f G 4.] } z =.z ` ",
"1XZ.Y.w * } } Z.uX,X| q c.x..X]. XC.*.z z d ` ` ;.] H l : $.` 0 k.5.G  .Y.} 1.N.=.5 G } *.:.s 5 F f F ] Z. .q H = F H 0 q $.- y L _ | ,X0X| ] H _ 5.j.d F f 1.A. .8 A ] F.pXV.2.F . + } N. .A ..P h } G 5.| l + 5 j 5 T z I f $.k.C.Y.m.].I 6.[.;X1.[ )./.&XA.G } =.5 P :.P l _ q } 5.} ].n.8 N.L m s f _.$X%XV.H 2.} = = I <X] H 1.Z. .f :.z 0 :.:.} =.` s z j *. Xn.].rXY. . .A w 7 ] f G %.| [.).7 ;.;.} _ 0 & d -X6X4.6.l I Z..XI f f 0 | rX[.N.Z.] l %._ z T } %.x.k.0 ` P.P.j k.].Z.m.#.x O.u y T .XZ.w r = 7 S F & d d 5 L f =.f + z P G k.s + : P #.l 4.6.q.n.H N.5.| k.k.L.6.J  .%.I d d + d $.:.j.:.E.L #.=.L.Y. .%. .H l 4.F P  XqXrXn.l n._ l H f 0 & l | l 4.L.P d & o Y.iX6.k.P F | 4.I l 0 l q m.T z :.C.'.=X:.$.$.z _ 1.G w z 5 5 5 d l l S ]  .w | I * & f _.pX .V.vX4.d l w w :XY.f =.x.k.5. .1.$XZ.G l | n.L.5.Z.4._ F ] 1.[.`. .G F L.P l N.B.A._.q 1.Z.C.4 5 n.C.4.P z 4.4.6.xX].& P 7X$.7 l A 5.L._.H l G & = & G ] %.G f 5 T ` 4 I 4.+ & F ,X5.* & I.=.* z 4.4.L.I.1.6.S q.)._.Z.l + z #.5 #.d f k.].].5.L._ l 5.} 6.k.%._ =.,XF z = f l G ` %.z 5.| H 6.H ] 5.L.` j I j z $.L.Y.1.] 1.>X[ H %.%.P | N.L.n.j.d 6 d z.",
"Z._ ] w f F  .H =.;.l T C.C.C.Y.L.5.5 d * * P G l 5.A _ m.:.F ;.| | ] 6.,X| 7 F T z } n.J.C.` I _ 4 0 k.n.6.1XY._ |  .n.q * y M :.} | L.].| 7 _ 6.Z.'.z : q I Z.N.J | ] | k. .;.P & z _ N.B.H I Y s.$.A H [.5.G Z.I : E..X..F f 0 z P K.x.5.6.V.[.6.S H ( ,._ F G l Y #.` } | H l | Y.f ;.n.$X).F + T C.$X`.yXA V.4.4.` F q A J 6. .w w } G F j.F F f h.h.+ ; j z } | F l A.2.w 1.5.'.0XZ.;.A | Z.F I P _ N.| A l ` x.K.n.j.f f ].K.l | 6.n.1.Y.1.H 5.Y.Z.4.P l F L..XI o + z x.=.d $._ 4.x.z m L =.s.#.;. . ._.[.N.=Xx.* & h T $.4.'.[.k.[.4.P 4.4.I #.F 5.%.=.4.Z._ 4 I F ] $.L.f H =XV.G 0 : T I 5 } $.#.P u O.$.0 0 l w 6. .0  .%.F F f l ] [ B.xX;.X A 1. .n.;.w q F _ Y. XI } 4.G = ..| & L :.Y.;.F q 0 f T = l w F G & z I l T 6.k.5 L Y T L G G F ;.N.).] <XL.d l 4 w %.A | ,Xf & * 7 A H 0 | C.} f F H _ l F l f 6 * d = C.].'.Z.6.6.H ^ J } I L : P 7X1X5.7 q %.4._ G = n.k.0 ` f q _ _ G G l | ` I 4 & ] Y._.A._ P f 4 G _ l | _ l T :.h.} %.:.* 5.4.T 7Xx.0 F } ` z I m.T.5.} L.yX{ V {  .l ` ` #.L h ` * f | n.;.j.:.d f ` F F 1.F z h.x.I T f P z :.,XL.} G I n.qXCXY.C.L.T #.=.h ` z f T..._ _._.D 4.N.[.I H [.Z.5.` ; h z z ",
"5. .H _  .%.1. .;.k.Z.Z.uX'.1.;.l q T z * j Y.;.S 5.| ;._.[ 0 H 4.C.%.q L.k.I l 0 f 5.%.q G 4.Z.6._ 4.%._ ;.1.] A X.>X[.N.F d 5 & } C.| l q F d } L.k.f T 5.] N.1.I =.T s 5 5 d G.Y f ] A.).6.f T =.I I ] G G 4.4.z s j G _ :.4.L L m j f %.#X/.B.6.| f ] [ = l x.T z :.m.j.N. .] 4 4 G l w ]  .5.-XoXC.F.).[.1.,Xn.-..Xf 0 c.).5.S = 6.0X| G } T d d 5 P #.h.P 5 5 4 | Y.$X] l s s P | 1.V.4.| z s z f l 7 ] 1.d 5 * L T m d d * 5 l w n.1X;X .[ f | .XI ;.| = = k.6.F %.= l :.:.z = 0 5 T  Xj.m.` T J.%.H ;.| | ;.:.*.5 &.g * 5.%.4.2. .;.k.n.F F q ;.| 0 5 ` ' F $.oX*.5 5 P c.0 f ] ( B.I T 4.0 f d - h } = : j.: q A q 4. .w f w $.d G } D r ;.] q 4 _ 1.5.Y.L.F 0 | n.Y.L.k.1.f  .[.L.F z L $.$.C.Y.$.0 #.=Xj.T.Z.F 4 4 | :.d d q = ` j.` Z.n.f } ` C.tX_. .| q ^ Z.A.G ..;.k.f : > A C.1.7 l _ f ] Y.I $.&.h p y 6 6 5 5 = F .X_.| 2.[  .3.G F F 0 f f H 6.%.= 0 } 4.L.L.I } ` 5 T.=.d } } j.G C._ * %.G 4 G pXN.7 5.K.$.G z F H } F 0 F C.z L h.Z.T 4.f F 0 k.;X).G f T $.T =.%.| 4.6.2. .[.[ H Y.-X>.T T & 5 F F G 4 l } d q n.1.| N.H 5 #.L z &.: s F T C.=.f =.T..X5.:.=.F P x L T Y Y ` ` ].%...L._ Z.H = n.lX1.H G _ z s u d I ",
"H k. .n.] A [ 4.Z.=XL.[.'.] 2.6. .4.m.d *.| _ A e.n.f l  .{ 2.).N.| 5.[.,XL.Y.G = 5.C.f q l } | Z.A.=XN.I ;.D 2. .A ^ D ] l 0 H _ Y.].} = d P 5 } Z.w k.(.6.k.G l * $.J.j h &.=.O.T z.C.Z.| Z.5.4 _ _ w q 0 4 q 0 P =.#.7 G ` 0 P &.s j F N.V.w.`.1X%.= ).).H K.6X' h m.-X:.5.1.r S _ 6.[ 5.N. .A _.C.= l G F P ` l P %.Z %.L...C.2. .V.6.| ).].K.=.I & : x.oX6Xj.= C.Y.%.G | F : j q G Y.;.Z.| & $.` I l _ 6.n.d h 5 5 h h Y h * z z G F [.Y. .;.N.n.;.1.%.1._ %.w 0 l Z. .4.L.T.s = f 0 ` C.j d s * =.1.] l _ 5 f 5 : s m g m x.Z.= H 6.Z.1.=.d $.} G _ 4 z T T 5 m.P.=.z : L } f } ] e.sX=.d =.j.` j j O.Y.| $.4.=..X%.& %.;.7 4.l j.` T 1.5._ ^ _ C.| ).] f 4 F G %.].;.F = l q w A 5.H q z L L = H Z.j.l *.T.5.qXqX4.l ;.n.$.} 0 | '.;.| 0 } _ q P 5 %.Y.A _ 4.S ,.)._.f 5.N.c.j : 0 I G G _ _ ;.l } <X'.4 h g ; 6 d d >. Xz f ;.H * 7 w ).$X;.G f I l P Z.| w q w 4.n.} ;.I 5 5 = G l | Y.'.} %.Y.| | =X=X1.l H H H N.4.Y.].4.4 l G I I 5.m.} s f f | I j f 4 %.6.A H 4.` * T k.4.F = w D S ). ._ _ l 0 5 d & d G } _ ` $.P.T F } Z._.;X| z Y O.P :.f j L z F * ` K.:.| G } L L L j h < - d s 0 = l G ..6.[.[ w 1.rX_.Y.5.P z ' h #.| ",
"k. .| ] 1.7 G G G 1.;.A I ] ]  . .n.;.x.L.Z._ D q.F.Y.5.;XwX[.Z.A A _ .X| L.Z.w f | 4.'.]._ f G 4.] [.1X=X5.A A D 6.] 7 F Z.} =X<X5.4 5 d * T O.z w I Z.1.'.'.I : - g U T L h.J.h.f $.G = H N.H l Z.=Xn.F ` f q A I j.$.| ;XlXI k..XF z ` k.] D 1._.G * _ 6._.Z.G z *.:.#.P Y.V.^ N._.Z.] ;.Z._.) r 4 f H I z : I c.8XC.5.k.] w _ %.4 B.'.] Z.=X].F q l F & ` .XC.q 5._ & q C.} C.uX-.P U j =.G 5.[._.k.k. X_ 5 I : X :.*.O.*.*.j.5Xx.l F ;.] A | L.%.I I 0 5.%.).5...q * _ w = 4 f s ` T z.j.` d d u s _ 1.)._ | z.5 : s h h h d m.4.Z.Z.]. X} L ` P | 5.0 z =.` d d 5 ` I 5 I * f A.A.'.4.P & 6.Z.5 5 4.;XrX[.q ] [.L.l I ].Z.A xXn.d z d 6. .l r A 5.} _ 1._ I G k.lXn.G G l f l ..w Z.l q 0 + : & f _ $.` ' ,X=Xl 4.;.6.5.l ).=Xl I L._ _ ].%.} _.1XN.'.j.& l 4 ;.,.F.N.0 _ %.= d T } 4.f G N.] A f N.H l f * d = l Y.C.2X0X5.l G  .A.V. .6.;.G q %.Y._ =.n.4.f | C. . .>X;X6.).A.).6.6.A _ ;.8 S  .f Z.).n.| | %.n.5.A ;.Y.A.A.F 4 = | 6.N.L.G T %.I L f 0 A 5._ & = l H '.z > z } 0 0 H ] 6.$X .0 I = q f f _ P | P z ` 5 h j : h ' T $.G * s -.j $.} = 4 P F F C.'.k.| %.| T x.#.s g Q $.$.d q q I ].oXC.1.k.] w 7 H '.Y.q z *.P m.z ",
"%.] _ %.N.1.,X1.| 1.A  .<XL.A 1.[.2.} } l L.>X3. .[ 6.5._ ;.] l G 0 q } q G | .XC.| 6.N.;.A.;.f q A ] F.3.^ w A B.[.;.5 z K.=.n.P = z :.J.j s l.J.G ] Z H C.k.L g M < + m d h z L I f l } _ = e ] D %.-X=.L _ l | _ I P 6.>XiX=XY.].h.F f I 1. .[ H w w  .;.] ` J.L : * 5 l S D 9 _.>X5.k.f F 5.V.B.* C.n.0 ` O.d F %.J 1.'.} } I  .l H H A L.;Xf =  .4.k.l } N.A 5.;.w 5 | z = n.,Xh < h < u C.<X6.] F =.| 5 m.m.d ` G.*.* s z z ` ` l _ n._ N.%.l f | I G ;.5.=.%.4.= 0 l w = 4. X$.s s z ` l d Y h & H 1._ 4.m.z d s - u i : d } C.T : ` } f 5 = 5 I G f P $.P = l f d ` :.4.z :.(.{ 7 F P f H H P d ] N.6. .%.] 5.Z.f F F I | 1._ = 5 z I ^ Y.| ;.5.l * I _ | qX,XY.N.q P } k.G I ,XvX6.l I 0 0 G n.<Xn.T T T.].n.| 4 A.A.A 2.A.} & 4 7 Z.$XI w 1.1XA.H * d :.n.[.1.8 G F F [ f + z } F F Z.[.n.L.k._ q  .1.X.6. .{ F.F.1.[ H 4 [  .S F.N.6.} } = 0 I A I 0 f n.Z.[._.A ] 6.>XDXB.>XnXV.[.).D N.tXA.q.Y.8 2..XN.I } G 0 H w 6.0XG F P G 2.H w G I | F 5 > 0 G C.G 5 z _ k.C.F s F =.C.;X1XB.1.6.L.} * | z 5 ;.I.Y.Y.4.f s s M y 5 s s ` x.'.4.G I } f } c.f = 7 4.Z.G } I G I I z j L j Y T.h.F %.f 4.x.0 0 F 5. .J V.N..._ 5 5 u z ' _ ",
"H 6.A G ;.H H ..5...L.Z.5.6.).0XY.;.;.} G Z.6.A ] k.%.m.T * = P 4.F _ ] =.k.Z.Y.I J [.).B.q.S H _ 0 l _.1.w 4 A ;X| d + i 5 s.' + + u #.Y z Y 5 0 f ]  .N.).} 4.#.L *.: & s T m =.T f G 6._ r 2X&X^ | :.d 5 l =.=XG * Z.tXe.7 N.uXK.J.$.l ] `.>X6. .C.%.;.1X| P m.j.P * 5 _ _.V.o.^ D Y.;Xw } | 5.k.| =XY.} x.*.T q w ).[.5.G F = Y.pX[.L.| |  .G ] ] %.N.5.).G 6.).G q _ >.d : L h & Y T h z F z n.} f ].;.| n.| j.m.4.4 = 5 l 4 ;.oXm.l H 1.[.].| =.4.C.;.| ` F 0 P } k.;.f * } j.4.5 & d T } $.#.s f 4. .l C.n.%.I = o s ` #.P s : j u O.x.j T ` I : 5 *.4.| N.n.| 0 0 1.[.,X$.F | E r A Z.=.I '.vX[. .;.f ] N.L.Y.-X} ` d s G | 5.0 d F q ] N.H G ;.1.A l l l j.G l F 5.| w 0 7 Z.,X<X| = & = 0 q 5.=X;.F G 5.5.;.G A l A 6.).].4.f l I D V A S  .| l } T 0 | =X5.l 4 A '.[.iXk.f T #.z C._.] 5.4...w l ;.;.F.>XF.] { ;.| :.F 0 n.A.6.;X1XV.:.%.C.A.[ G P = G _ A _ n.).F ^ 1.q.A ] B.] <XZ.q ).$X6.A  .n.=XN.4.} $.q 0 8 ^ N.<X_ ` _ %.$X).N.'.c.:.G = q $.P l ] } Y.Y.Z.F : = f :.C.L.:X%X;.q Z.;.= G ` f :.,X4.q P z d ` P L 0 0 } } 1.[.rX).Z.C.N.,XrX1.l G ..1.F A I f _ A k.C.:.` s z q C.'.C.I.z * z G ;.=.I ).Z.L.%.} d 6 ` ]._ ",
"A _ H I N.G A [.C...F F 0 = I =.5.C.n.I I q _  .L.4.%.` z d P P T l Y..XI | w _ A. .).V.,.2.N.tXrX| 5._.| 5.S = 1.n.P m &.&.s * + + i 5 z f $.T.0 P 1.2.A A q f 0 0 T.h.h.|.m * F ` F  .=.C.Y.~.3.A.=Xz.O.j 5 z 1.;.F | ,.( k.'.-X5 5 P = w { w.] :X). .^ [.4.l #.z.+.z l X.`.3.B.).q.V.6._ l F l | L.| H | 4.h.*.: %.C.f w | k.P %.C.;X).I 4.[.Z. .w & G Z.N.7 ;. .A ] | 5 ` z &.T s k.j s s & 0 ` ] %.iX].n.).5.F 5.;.H ).Y.A.G f P q 4 F ;._ G C._ G 5.| j.5.4.F l Z.Z._ 0 F $.F 0 : q T.x.` T.C.P d | = | Z.Y.'.=X4.F P F 0 u z : m x m M s T.|.I.Y & I _ ;.6.A.S ^ B.q.{ 6.;Xk.w 1.). .$.: 0 G H e._ H ).N.N.6.f F | K.0 q l C.5.= } F w 6.;.0 %.L.A._.NX4.* * z 0 } _.<XZ.l = =.I L.A P %.5.k.= w 1.G F d 4 :.| %.n.5.| 4 4 l n.P ].<X .;XyXnX<XI G Z.Y.%.Y.Z.l T '.n.H ;._.[.I = : : H ] 1...1.| 0 0 r n.F.[ { F.] ^ 6.1XG = l X. .<X1.q F f 5.vXMXY.N.c.$.= l f | n.} l 4 w  .V.[.[.G l 8 q.F.| G l [.N. .;.Y.C.j.4.q.V.e.H l I l f S e. .].L.T L.'.L.n.'.|  .A k.=XL.f F f s $.C.} _ H w H G H n.q = l F | m.` z j : :.m.d f G w q J  .1.J N.6.S (.(.A. .4.;X .J _ l N.)._.>X6.G f I } l H L.uXK.I L L d = _ l f k.,X=X-XI L P.5.4 ",
"N.,XZ. .1.=X,XZ.Y.j.F j.'.7 I T.P P f F H w ] n.L.f I F d s #.I q 0 =.6.l q l A 2.H A n.).%XN.Z.'.=.,X'.k.1.1.).wX1.I I =.=.m M j + j  XL.G %.Y.$.| N.H * T x.f P 0 : z J.x.z = : P F } XX:.L.Z.I | j.m.` d 0 G I ).c.l ,.V.).k.f f P %.=X_.).3.D J G N.H = } f : + + T L.,.B.B.X._.^ S B.D ] ).rX .w 4.G %.=.j s h m s F ;..X| H | G 0 %.[.'.[.;.L.F 0 G H H = 6.[.[.[...q P I.j.G F l ` P G C.C.F | ] C.C.f k.4.o 5.4.H 2.k. .G 0 ;.;XI H ;.5.Z.6.4.| | N.L.=.P 0 0 1.B.[ s s #.'.} $.T 4.} f %.j.n.:.5.| } m.d l C.| ;XZ.l } d s =.4.5 =.Y - ` #.L ; j 4.,XV.] r e.wX$XF.e 6.[.A.J A :.F d z 5 + 4 _ I '.H w q q A _.n.| _ %.n.k.Z.& 0 H f ;.=X5._ ;. .C.n.4 z i d ` f = 6.] A Z.| q k.F 0 ;._.).B.F.A ;.L.G L.0XZ.} | ..0 q F } 0 d } f ;.HX2X| ] } 0 G n.| S 7 ;.<XY.5.l X.e. .I & z x.2.2.xX.X5.n.w 0 A 0 0 d l 6._ [  .| G z l ] [.Z.H ` d 0 H C.,X1.| ;.G 5.Y.L.;.q G H G l [ tXV.^ | <XL._ Y.2.pX1.w  ._ 7 A.X.Y.,XpX3.w = = F l I e w F %.| | 7X5.'.k.Z._.| _ :.I..X4.I | l $.j.| 2.Y.n.rXY.} P z _ ` ` =.=.z } L 5 O.L z G k.H = h.C.}  .%.G 7 J e ] A.F.:XN.] A G Y.F.$X`.6.G G $.C.I w 5..X$.L z #.f d G q I 4.4.l | P $.C.4.z ",
"%.L.[.F 7 k.'.C.Y.` F } L...` z d $.4.C.;X[.6.I x.4.` I z P.T * G F P } F 4..XZ.6.4.q 4 3.%Xq P F q 5.I 0 w 1.2. .] %.4.$.d j Y j j x.m.0 F '.} I 5.4.F + m.L.:.j.j.} s I z F =.:.c.].=.Y d 4.N.0 I L.K._ $.] f ..n.P d 1.D A 5.0 0 } ].,XV.1.>X .e H G w f z I O.U m m.Y.6._.).[ ] w  .;Xe.n.<X=XJ = ] w _ G = T #.; s q l k.} l N.).k.| .X1.1.'.%.4.| q ;.5.L.L.'.,X;.%.K.j.j.4.N.F I Z.I _ '.;.G f ] %.} 4.} G F F } A.H A.)._ f } L.I Y.].G k.] k.0 f f ..z.f T x.Z.N.A.m u T.T.} .X'.| = 0 4 f ].Y.G _ _ _ q F G l G _ k.7X$.:.4.%.Z.n.s O.Y h j 5 | ].Z.6._.B.N.V.N. . .%XA.B. .;.f 5 j z ;._ F P 4.'.] H 6.V.Z._.] A.).| .X;.5.G H } F 5.Z.G q F q A q 0 + g Y h f [ [.6. .Y.F 0 H l J H ^ B.X.1.5.;.$.$.} z 0 d I G } 5.C.%.q d = 0  .V. . .H | f I ] [ S V n.4.G } l ^ X.q.f j *.j.B.V. .| ] n.5.G w n.4Xm.} [ 5.B._ G Z.-X5.[.F. .f >.` ` ].} f f A w & P G n.I & = } l 4.A.>X1.S q 1.G = 5._.>XN.=XpXw w  .^ Y.Y.;. .l ` P } :.n.] J =X=X= H I f = 4.H  .] 6.' z n.n.A.1.* l G l H H ;.6.G | z G n. X5..X X0 z F :.SX:.=.4.V.A f z d $.6.G 0 H  .e ] 1.6.6.S V.] w I 1. .[.[.= N.;.k.| w d z 0 5 s s * f $.q I c.F P =.I z 0 _ ` ",
"l F l l w ] .._ H z P d %.Z.F + f z f } %..Xk.L.P.=.s z :.%.P I F | | G 4 } ]  .2.A.0 _ 3.B.6.N.%.C.] C.N.| H _ H %.I 4.s s ` & s qX5Xj.* } k.H %.C.P.z ] %.'.} = %.;.f 4.C.Z.'.:.} | L m m $.[ A._.tX;X6._.B.4 G L.P : H ] $.P m m P '.<XC.7 1. .S G F _ F d -.s.T f.j. .q.B.r L.rX_.[.[.N.G A f I  .6.~.V.e.5.].|.Y L 4.Z.%.k.4.G _ l F l l q '..Xc.f I Z.T.j.f * : 5 : #.L z P x.C.I C.%.Z.[.).] 4.Z._.;XL._ G z P } N.Z.;X=X,X%.f } n.=X'.d q f I | F 1...5.} - : L L C.z 5 ` F ] k.6.7 F C.].Z.$X| 5. .A.} q $.$.n.| _ lX).%.F q A e.2.w F =.: = _ 6.=X] 7  .6.F q G %.4.N.[.N.k.;.P 0 = G _.Y.=.=.L f H 6.1. .e.D H tXN.A 5.A.L.Y._.l q | -XC.4.l 1._.Z. .d O.p h rXnX_ ] N.l _ F f Z.Y.;X[.B.1.N.6.4 T F : 5 s d z F T $.C.4.4.| I  . .6.B.6.1.6._ H A ,.A.;XV.A._.7 * ,.q.N.F d j s 8 A w ] Y.1.5._ 5.uXh.s $.Z.).S w ` j.5.N.Y.| 1.F z P 4.C.} 0 H H H n.n.k.Y.x.` %.=.I ;.F.6.q.).A _ G ^ Z.1X5.;.[.;.G G 1.$X} | ).[.f 5 L L.` 4.[ ,.;XrX[ 1.H = f =.N._.D A 5 L =.=.<Xk.` :.m.4 _ A 7 4 * f ;.` j.Y.$.T.4.z ` $.-X X$.=.| F. .1._.| I l l } %.] G J H V.V.6.6.I I ;.B.H [.1. .FXY.& * G q H I q F F l H } = T } I T h j 5 ` Y.<X",
".X%.l _ 6.C...F _ P z f P =.K.=.4.4.` T =.| G P F * z } ` 7 f F _ L.8Xk.= P H l w ] 0 l ).3.w A G 6.Z.Y.C.5.).6.k.w uX].= T P h.j.5XI.d T f ] Z.} P s d ).;.F z k.} q 4 k..Xk.I :.z j : O.g z ] [ [ [ ] 1.).[.).k.lXI.j..X<X` F #.m T : ` F f Z.;.] 2.=.H f F : m Y +.L 6.B.6.F %.;._.F.4  ._ P %.F =X[.V.( ,.[.'.` P =.n.N.w f G ;.} } 0 P '.[.l 1.G f =.T.$.L h o 5 : o j h & d | N.w f = k.L.k.q _ 4.] | I ] z + s =.L.Z.4.} } | _ 4..X| f 0 T P T L.k.Z G =.$.=.z & P =.j 0 T 5.c.I ] k.4.L.,XY.C.A.[.N.| z * P %.Y.C.k.G G } w G A 4.=X .4.$.z w  .] 6.6.1.C.1.& z $.I Y.Z.P ] = f C.` C.4.q.'.G   X d q q.N.q. .= 6.N.r |  .1.l 4.n.F $.-XJ.=.;.F n.rXbXY.:.L c z.tXyX1.C.1.A _ f } <XrXA.B.6.rX'.4 5.T * h ' d h s $.T ` F 0 6.).J H H N.;X1.H n.G 4 8 ,.A.2.| _.1._ 4 N.$Xn.].$.z } D 1.H q =Xn.;.Z.rX| * d G H 5.D A = f } k.6.A.n.P $.s d o & ] I l ] rXC.=.L.6X].5.f A J H  .Y.).n.L.| _ ,X| 0 I z F G l ;.1Xm.P Y.L.F * j 5 s f e { ] ] %.] %.k.} ;.B.B.~.F.m O.z.m I D k.$.F * H 1.l = 5.;XuXn.} I 5 5 T oXC.L 5 0 & q 6.( ,.B. .).] _ = F F %..._ ( ).6. .w 4 ] 6.V. .6.B.1.%.} I 4.H f F f ] ,XrXV.V.4.G %.=.G 5 T P 5 I n.Z.",
"tX .0 | ,X[.5.w 0 %.I l F j.C.4.=.5.} ` I $.P I } _ 5.%.f s f d :.kX.X1.%.%.6.[ 1.N.k.f  .e.J 6.Y. .A H A 4 I | x.k.c.z d m.4.:.` $.$.T :.4.A.4.| f o s 1.k.T I m.} ;XL.;X} G =..X| z :.U - 4.Z.7 F 0 f G 6.Z.'.=XC.T oX;.f q z j s T s : & 5 :.1.1.%.I } m.} s G L : z )._.'.5.5 q 8  .6.A.I * = %.n.).9 7 ,.V.~._ T } A V I G Y.'.n..XY.l f %.F F %.4.=X<X4.I F P F T F T h.P = [.5.f I & z I P F d & X s : f ` I 5 d P z 0 s } j.;.0 q q + =.$.j =.I l = 9 V.[.F G F I.:.F I | F G L.| Y.'.G f f z T 4.` z >.z :.f = | q 7 w * q ` d T h : P ` 7 = = w ^ e.( & + I | =.I.} = =.-X` I.=.'.L.l A..Xx.=.>.I q 7 N.rXB.F.2XB.6.[.5.= | f =.Y.P  X` 5 0 F A A  .;.` : v h |  .F 4.| H 4.I f =.).& A H A f C.qXz z h m Y Y ` T = ` =.N. .| [ [ D [ ).1.] = 4 G Z.2.H 0 %.5.k.].l H Z.1.%.F I '.6.w w ] <X].5.B.;.l Y z F ] D r 1.z j.'.n.;X[._.P 5 5 d z 4 q 4.k.] H } l f $.| = F 4.V.7 1.Y.H _ lXG F 4.I d d ' P 5 L ` T : j s d F z T h I G A [ G G f n.1XtX2.w V { V.2.d i h & H n.} f 5 q 5.w 0 G C.'.j.G ;.K.4.| $.} 5 * z F ..V.>XV.!.Y.I P q ;.'.Y.k.I 6.N. .] ,.6. .A 1.;.e 6.3.S  .| ] I N.A H w q ] 1.2.`.~.[.A.| %.f 0 $.I f %.1.k.",
"%.=  ...H _ G | %.l | } z z = k.L.=.| F d 5 s P 5.'.4.P | d : = 0 Y.L.%.4.=.| 1.N.).N.k.1.8.6.V.1.q w = q 5.F = P K.z & 5 * l $.P.=.P F } I %.Y.].| 5 z [.N.:.f P %.k.,X6.I F L.qX'.C.=.s s j.5.f Z.5.=.C.d = F ;.l s } w _ ..l & F C.C.:.P P } 5.] L.l 0 F ` $.k.m.T d qXZXZ.q z 6.| ~._.2.N.%.4 _ ] ] F.). .B.1X%X..= J n..XP } .X0 _ '.%.& * l L.].%.'.5.;.I f G f '. Xk.].5.F } G %._ l G $.| =.P T P F P I |.z : T x s Y #.5 _ F 7 I G 0 I.O.& f f 5.1.6.%X[ 4.1X_ z & | ;X .| } '.,XG %.=.` P L ` L z z P.=.m.} l | l A.1.] N.j.T u - + z N.%.G } H  .3.`.x.z =.4 = z s = f 4.5.L.f P P I T F 6.A.'.<XI H ;.F. .).MX).} H 4 q ].'.z F * + d & F ;.;.k.6.] G $.U - F 0 z ` G '.Z.0 0 0 f 5.A.1.| F ' #.: 5 j ` ' d d P } x.L..X| F 1X5. .B._.[.N.I l } Y.w | G q | $.5 n.0Xn.C.'.;.I 5.6.l n.%.] Z.;.S  .q Y z q A.] S 4._ =.F G 5.;.n.x.d I :.P 4 4 N.HXA.] ..f =.I f l [.rXiXw & 7 * 6.n.q I _ T ` d ` T z z 4.j.j z z z T T T 5 T L.Z.;X` 0 q | =X0XF.X.( V. .q s u * 5 f ;.j.>.z * 5.1.* I ;.F + & 0 F } n.F 5 z 5 z = 1.:X[.2X6.0 L d F 4.L.L.n.] l | S B.1X2.6.%.H [  .%X2.H %.%._ k.A. .w 7 2.N.V.e.`.>Xr.1.w N.C.} k.I f %.1.).",
"A.H ] = f %...k.4.` ] %.j - T 6X%.f I f ` P.z : #.j.;.n.P = } } G ..Z.k.'.%.& %. .& =.;X6.V.A 6.1.6.;X;.= } } T } j z f d ;.'.5.j j z P I I | k.} I 4 } P & z j } ` = ` } -.T d G ;.5.x.x L ` C.Z.5.L.,X4.} ] H  .5.x.$.6.%X7 H V.V.A.6.l %.qX%.= A Y._ f * = z f f 5 * | C.F + q _ ] 3.).D q.n.6.N.| A.:X[. .] r.fX_.S B.vX6XI j.=.q 0 } 4.f P C.n.I _ %.A q 7 & 4 L.'.k.k.f =.%.K.,X=.] ..G 4 f _ F T $.:.T.P j.=.s T : u h : L } _ .XC.= $.T + * F %.n.A.$X[.5.,X.Xs < m 0 H 6.[.=.5 T 5 I 1.| G G $.` F z >.' I 4.k.G ] [.N.%.q 4.x.: | %. .A A.7XvXV.^.&XfXL.P f f F $.'.4.7  .=XC.0 u h M 5 = D >X>XN.T #.= H ;.I ;.0 } Z.P 5 T =.* #.I s 5 q | k.Z.6.] _ ;.} T C.=.5.} f 1.N.I s d F _ 5.1.;.| f u : : & z G P F f I.C.` 0 G I 4 C.F _  .5.I | L.k.G | ] n.| 5.N.l | ZX0XZ.uX0Xn.1X=X.Xl C.6.A ] 2._ l 7 u * l ] >XtX).} f f * 1.| | 5.f ` 0 4 | 6.l 5.6.H G =.lXZ.7 w ;.B.] _ P G ;.Y.9  .;X] H N.;.l A ] [ q.:X_ %.:X=Xk.T = z P } ).$X..1.1.w '.cXY.G  .). .= 5 d f _ ;.1.` z l F G ] l ] H 0 0 0 } Y.].j.* d j.F 5 s s T ] _ ;.} T 0 } k.k.I l _ 7 A _ 4.1._ I f l 6.~.H { N.] %...Z.;X_.F.D ] { e.`.#X/.V.N.4.G f z G l G  .| 6.",
"_.iXZ.1.1.H H 4.4.$._ 1.:.T 5.L.f H k.k.T =.d d O.#.'.,X.X).4.| ] 5.;.4.%.= G 1.A H '.A w !. .V.[. . .] = G q f F = 0 G l I } I ` F T j.} 0 A f F I k.%.j d P I 4 l l l f K.=.F 4 F k..X} z 5.C.N._ q w } 7X;Xw w ] F = l Y.| ] V.3.[ [ I } k.q 6.<Xk.l F F k.'.L.P s z f 0 } 4.G w ).&X,.9 A  .B._.e 1.f l H 1.B.3.1.V.A. .l 0 $.G f f =.I z =.} c.=.<X=X1.N.I 4 C..X4.F F .X=.} .XY.q A I N.A.= 0 F f z.| lXiXC.L.=.d s h m l.j.%.* ;.Y.F 4.F j 5 | ;.& w H ] 0 P I P u O.$.k.,X5.j u z L ;.| %.G ` x.].m.4.$.:.=.C.} ;.l B.vX'.4 F I l n.).).= ] _.%XV { >XB.%.d * = d } j.C.2.7 2.=Xj.Y x m j $.| 3.wX[ j s * q ] I l G G 4.j + * z ' 9XGXT.f I F 0 A F A %.x.f = P 0 j.F %.'.0 . j } } f ] 4.%.I $.z K.Y.q =.q 5 I G } 4.F 7 ..$.z x.4.0 N.A...%.| ;.| ] ;.2.;.k.;.L.=X=XZ.} j.q 0 ;.4._ n.4.m.F G 1. .] A 5 >..X6.B.;Xn.q %.n.w } F H 6.G H F 6._.6. .1.] I l P G _ e = ^ B.6.n.z | C._ r e.F.B.A.6.2.B._.$XD.r.( S 1.;X[.I F =.P d l 6. .e 6.A.A $.n.f =.| l 5.Y.| $.;.]  .n.%.| 0 1.5.l H A.).Y.;.q l F _ 0 F x.5.} I I & : P P ..5.| ] ].rX'.G 4 H H C.%.4.6.F I f 1. .H [ [.A.H F w 0 H ).N.w 1.A.).V.) 3.V.V.A.A f P %.| |  . .6.",
";.6.[.pXN.f | L.} F Z. .6.A.1.] ,XZ.1.k.F x.G.l.l.` m.Y.1.;X| G 4.N.L._ q G ;.%.F 5..XF  ._.;X_.B.] H k.C.1.4.| x..XC.C.Z.A w 6.Z.G z :.T f P | <X| G } $.K.P f %..X%.0 I.k.F f w [.6.G ` 4.CXC.f d 7 I I 1.I F G ..F f s h.4.q A S G 1.N...= l '.k.7 = q <XL.L.'.4.-XT f ;.uX7X1X1. .V.B.B.[ S [  .0 4. .f L.vXN.( A [.=X& 0 l q $.G $.4.T L d : 5 I 5.6.P G = = ..4.D A H } f F I.4.q A | tXrX} P F & z & } =.P T.6X$.O.j =. X-X=X_ G ;._ 5.$.j.` ] ;.z = l A.G o G P = h.L.} P *.Y Y m z j.oXY.j.;.G d :.f F I } | c.k.] H  .6.H G } ] G ] I = C.Z.1.N.6.H F Z.G 0 = = j.} | | 7 q | ' h 5.;.: #.n.6.A._ I d 4.6._ =X.XF f F I T j z n.n.N.k.] ;.f G G I C.'.=.C.P & I L.l I } P 0 5.%.4.G = ;.H Y.2XY.vX;X] _ = & } k.n.iX6.^.r.` s P.iX_ A.A.5.l I N.A.6.w %.Y.A 7 6.1.4 f f 0 5 5 5 ` m $.m.` z 4.] 1.q.w q } 1.NXrXA  .N.1X| f =.Y.L.] 4. .| A. .6.[.1X=X_.k.I 4 A G ^ [.[.Z.} %.T.I 4 H 7 4 ].Z.l G _.Y.n.| ).N.G | |  .4.<XkX_ 4 | N.q.[ [ ,._ * + f ` l j.| _ 5.].4._ N.=X$.I =X_.A D 2.o.F.[.F.N.%.z T 5 l :.} 4.G s = : s 5 f D 1.N. .Z.Y.F P } F ` G 1.4.w F  .6.A.k.1.k.;._ | f P Z.H S 1.1.Z.2.& D 2.[ 6.1.f f | d :.N.).X.| ",
"H 0 G C.;.G F | G k.>X$X`.2X1.0 %. .G = * L $.E.*.s d F H G =.G P } } w = f I $.s s I =.k.5.[.Z.e ] G A k.qXuX4.5...C.Y.<XrX7 _ I %.$.x.` F =.'.Y.} G ;.G 4.G %.k.].6...} =.G w I ..H Z.m.C.x.d & f %.I %.k.T |.L.=Xj.d z h.P F k.Z.I  .n.G & 4 %.k. .6.} G I G } } *.* d :.].Z.6.{ ,.6.7.B.1.A ;.] [ _ G P G I ] B.1.6.f w H 0 q I _ %.` z 5 d z G '.Y.] k.P 0 f _ [ w N._.Z.f = =.` f A 0 | | q F 0 L $.} d 0 f I.m.T P T .XI $.,X_ %._ %.Z.k.$.j.| I ` F 5.uX_ A %.I & ] G o s ; g u - : ` $.q z 5 0 d = ` z 0 d F = f k.6.H H | = k. .1XMX=.0 } n.;X,XP f C.5.F H 0 0 xXN.'.n.n.l G x >.=X1.d ' P q z *.` d d :.} =X6.= q q P F  X6XC.C.] 3.rX_.;.;.F f F d x.XXs * | 1.N.6.L.].f I.Z.C.1.Z.].| | B.N.S B.).A | A } I H ] ] *Xw.q ; + q } H _ l o 4 G A ;.w A H ] G [.k.I F ` =.C.Y.4.z d j j.P 5 4.F ;.] D A.H 7 | 1.A B.[.H ..k.f G %.l L.). .6.H q._.Z.H l | 4 = A [ q.1.^ 7 k.=Xj.} n._ f 0 0 P F * G w z G n.:.= 0 f 5 l ` ].C.0 C.tXA.N.A { [ 0 5 5 d $.Z.F f F | 6.H 7 I & z A.n.q 7 6.F.).A.;X5.* :.K.j F m.%.;.4.f d =.x.4.w ^ 2.J = 7 = = I %.0 0 G _ | l ..6.6.N.l q G F G A ] ` L.%.%.6.l 4.] A l _ r 7 q | ).k.u *.X.e.q.[ ",
"A w q f H I q %._ ).).1.[. .7 G %.A  .f & 0 j.x.*.h j.].k.6.Z.0 l k.& I | ] ` ` h O.*.=.z :.;...I I %.).5.G A G 0 H | | 1.%.A I & j.<XV.k.%.K.T s L.=Xf & f L.<X%.%.].<Xk.Z.N.l = = & q x.m.F 4.L : z s $.T 5 s '.Z.P * s P | C.] q P I _ w * I N.V.C.,X[.e ~.;XZ.L.J.d L f l N.B.K 1.] 1.9.G ..w l  .w F k.4.5.T d F H = 0 ] N.0 5..X6X=.: Y 4.Z.H 6.k.` =.F P z f C.).[.[.C.q 4.` 0 _ N.n.5.%.l 0 0 ` j.,XF ` 4.=.F d d 4.'.T F L G 4.F $.` :.5 4 A w * } 5.f H ] f ] 5.C.I 0 * j C.j.G l ]  .q P f *.J.#.x.L $.%.f q F G %.] S 1.F A =  .N.l w f ` k.z = %.'.] H ..A A N.l ^ | Y.;.:.m #.;.q + z *.s T XXm.d z z T #.m.P f 4.J.;.L.pXA.H { ] 3.F.[.4.> f j &.L ` K.} G ] 1.).1.} 4.w G 0 P L.'.Y.A.<X[.q. .| 1._ _ | %.q k. .e.2.L ; + s ` T 4 0 7 1.| 4 ;.| f 7 H ] ;...q | L.1._ [.N.| ;.F T F | =Xx.z L.0X_.w l G %.H '.C.4.Z.=X5.I f l f | ] 1.n.n.5.| G G 0 0 | H r ,.[ w  .=Xn.P z ' #.z 4 5.rX .k.G f z z = F 5 q z z z l F f 0 ;._.;.A A.fXq.q f ` C.:.d 0 4 5.`.,.= | } 5 * l 5.q $.Z.:.n.=.m u - U j d q f q A C.'.I 6.C.1.f %.k._ G N..X;.%._ } I f F | _ N.1.6.S [ J  .J ] V._.I G F F z L j.m.x.J V J S l I F j d z 6.$X2.r ",
"A H | 4.n.| G f G H J ] [ & w 1.=X_.).n.= 0 L P &.j : ;. .I 7 G =.k.l %.,X,XP =.T L U j =.=.f f k.] N.Y.;.7 0 _ | ,X<XH Y.Z. .k.` T I ;.6.l T z P c.G w 4 0 H F _ G ] '.Z.C.I %.Z.G & 4 z _ :.J.j.d 5 s : : d ` j F f f =.I.G f G 4 & 0 I k.4 * A w _ I C. .6.B.A C.} d I ` G Z._.;X_.N.S.I 4.5.k.k.Z.n.k.uX.Xz P f P I } | A._.w A I I s & Y m.pXB.| H F d P d d $.Z.[.| I I G ].4.G k.6.C.Z.8X5.=.L.P $.$.z C.x.T I.x.f F f f :.z P.qX} + $.m.T | ....Z.6X,X5.;.q G 5.4.%.F =.n.;.=.H ] V [ q.| n.` s j ` m s F I s = f ] H 1.N. .] 4.G w o * A.Y.f P } 0 | ..1.6.G = q 2.A + G 4.H l ; * A ] ;.$.5 : u ` j.k.| G F T '.T ` oXC.k.C.A.e.2.3.V.V.[.iXZ.%.Z z.I.d & F } k.2.H 6.H 1.=.| = q f o 0 ;.H l 5.;.0 G G l =X_ 4 G %.| w = L x ; M P :.` Y.Z.k.I 0 ` w ..A.5._ ....H %...J 7.e.) e.n.G f l _ G = 4 '.[._ F 0 4.MXC.=.Y.C. .7 4.'.Z.F 0 I q C.4.0 q G %.} 0 f Z._.1.q.,. ._.Y.5.f 5 d Y d = D { ,.2.G P L L z 0 4 l P } ` 0 f ;.'.C.n.Z.1.[.[.w F Y.].F + * z | ).:X!.e.5.f j z l l Z.:.d f T #.+.i o u x.m.P G f f 7 E | 0 I f 0 } | =.G 4.qXk.I 0 4 F 0 F ;...k.%.%.'.,XZ.L.k.] V.N.G 0 * P $.L 5 L T H  .=X_._ G = 0 d 4.A.B.2.S ",
"J ] Z.Z.N.| f G ..l e 6.[ = A ..).).B.k.k.z * s s P 4.%.L...q ] F | .X.X4.L.` :.L s m l.T L d T.Y.n.Y.H 1.1.1XrXk... .Z.L..X_.%.'.k.4.z d 5 G w l ;.6.4.f G } 5.4.F l I | ;.%...%.0 I C.I f } ` 4.f P #.T : =.qXm.+ = 0 x.C.| 4.C.I | n.;.| G & * F 5.} f P = q 4 ` 5 o + *.k.A ] ] %.'.uXP G %.4.6.1.4.| %.'.,XL 5 f G k.| _.B._ ..} : : ` L :.L. .Z.%.q : 0 d F 1.G l G ;.H | | ;.f ] l 7 7 F 0 ` C.z = 0 oXoXJ.C.x.F & & 0 x.T j F 4.=.5 =.'..XL.G =XlXn.G 5.} ] P * k.5.4..XL.k.2.6. .~.`._.C.$.F d j j.=.s d s : q 5.rX7XN.6._ k._.N.H I 1. .%.d z T z 5._.[.] S %.] A.Y._.=XG H :.; #.q.{ V.q.| ` = S q.[ ^  . .n.1.] H w A _ 6.[ ^ `.`.{ 3. . .H | G ` } L f * f P N.H w _ F F I } C.C.L.4.w 4 Y.L.f F l f f j.%.l 0 G _ 6.;.G 5 ; i u d ` =X[.=Xx.d } 5.I 1. .C._ [ 1.C.2.).&X^.V.2. .k.C.| d 5 _ | f ` F 5.P 5.Z.} Z.] 6.6.5 : m $. .N.l F I.5.G l l ;.l 6.H  .| X.e.B.X.)..XG 5 4.m.l 1.^ t y.eX`.A )._.H | _ _ 5.1.G 4.;.| [._.].C.| A f q * G <XtX| & f H N.`.{ ) >Xn.0 s x } l q G L.Y.| P J.L j d I P C.5.= P G 4.-Xn.} H 0 A H ] k.} I I ] q q Z.k.%.Z.5.Z.7XI.m.$.s P z %.n.L.=.l : z #.- 5 5 0 d n.Y.} Y._.[.;X1.n.[.] _ N.",
" .6.H G H w G I I | 5.[.1X%.w l %.6.[ ...X=.P - : x.C.].'.4.'.C.%.k.Y.= & q G P : m m h 5 0 F l 5.).G G N.] n.k.f H I A | k.| 5.1.G z d d s %.;._ oX5.G k.,Xx..XlX=X1.5..XI q C.l l .Xn.T %.'.w 7 F f s & f n.1.} 0 q k.L.P $.m.F q l P Z.$.4.z = f L.,XP L c.L.%.T j.h.T T L.1.Z.Y.| ..F w 0 f F 0 0 4 F A F m.G = I G w f w  .J H & L :.L d m ;.Z...F | $.x.Y.L.l d G I I 0 [.<X[ w I L.k.5.x.= s } 5 0 5 K.L F | * P F & q q q G ` f 0 F 0 $.Y.l f _ 5.5.f l ` F l = } | L.| * I V.[.H 1.`.1.| T d J.I.z h.T L 0 G $.Z.6.1.J N.] 7 w ..N.4.N.6.k.s * + =.;X`.n.] 4.Z.1.Z.1XrX].| ;.5.; Y Y.q._.,. .B.).).:X2. .[ A 1.n.[.4.] Z.Y.1.k.[.2.) `.V.1.[ _ l P F & 5 = 4.L.] G = l _.k._ G f w f lXC.5._ f 5 5 5 0 z F _ Z.:.z f 7 H 0X_.4.h j x f :.4.| ;.%.F ` P o 7 q ;.F } | C.| D wX`.D.D.q.N.).n.P G L.6X' } L _ '.m.:.f f ] B.%.0 & ; o q  .0 s 4.I  Xj.T Z.A q ] F._.A.N.2.q P z T $.].'.H _.bX_.V.3.3.8 ] | G ] | ^ H 6.6.1._.Y._ F ;.<XY.1.| :.F 2._.H f w 1.[ A.%X>XD 0.2.;.` T._ F n.'.;XtX;X] _ Y.'.P I ;.pXZ.=.=.s =.C.I | } | N. .L.qX].I _ } I k.7X).L.N.I Z.m.j.XXO.- d 5 I k.;X).k.0 F F * = F P :.T = w ;X).:X[.B.>X6.7 ] 1.",
"6.k.;.l w %.6.A k.Z.0XV.1.[.] ] N.S l N.k.P P s L : * =.n. .].4.q | '.1.7 0 } T s ` ` T =.n.%. .).[ H A ] 0 ..I ;.A.Z. .L.H w l z %.x.q q = } =.C.x.1.q A l } | } x.I L.K.$.f =.P 5.Z.=.L.<XN.&  .:X.Xk.l H ]  .=.d ).rX6.| T.I & 4.5.0 0 0 ;.I q = G I.4.T L.n.| 5.6X8XT 5 C.C.5.Y.5.| 0 F 4.uXZ.'.k.] I  .0 4 Z.Z._ | G 4.= 4.k.| = L.$.5 + * d ` 0 $.].L.H ] %.I q I f q 1.X.J 1.2.%.6.4.:.:.l.#.h g &.s * * $.$.z ` d I P f T.,X| f $.4.P _ 4 | z 4  .<X).I | _ ;.4.H | f X = & 0 | N.,._.A..XJ.j.P.=.4 z F ` =.G q k.uXC.[.<XI 7 4.Z.<X[._ J f o g m #.| V l 0 4.1.l _ Y.;.R.m.$.R.z * n.6.N.4 D e.V.~.Y.l F w 4 P L.L.` z P z d C.5._.6.2. .w e H H } P z P.} G %.Y. . .'.} %.$.I l ` 1.5.Y.Z.` = j $.Y * ` :.I q _ I q n.l [ `.e.F >.-X$.* 4 f 4 7 ] Z.I F .Xn.0 0 f T 4.H G e.{ ,.V.D 7 8 7 A 5.=.z : 5 5 I j.5 $.f = I 2...G } f l ;.I l Z. Xf P f f $.0 H ] Z.B.[ A _ m : x T.MXY.6.^ X.4._ & & 5 F | H n.4.5.] q H I ;.Z.N._ %.} F ;.Z.j.j f [ o.[ V { ).e.F._.S C o.D 1.z $.A.1.N.n.1.).B. .4.qX5.= F | Z.'.XXC.T P T s $.k.H <XL.[ C.4.H | C.'.;.| _.1.H Y.uXJ.T #.T z P I ..V.B.6._.J 1.C.I F _ 5.5._ ..| l l L.L.G n.z } N.S ",
"6.N.1.w S _._.6.H H  .q.r S e ] 4.S  .;.G ` P s L d 0 G G w l = f } | I G & = = P f * 0 4.Y.%.I ] ..Y.%.I f ;.] Z.Y.Z.6.j.I G f %.Y.| l _ 0 I ` Y.,X} 5.).] q 0 : s 4.C.C.4.$.x.z T = F ].;.7 ^ >X/.6.6...1.] [.C.=.| V.;X=Xh.* 4 5.I.;.:.0 4.} G '.] * } 4.S A  .;.F P P + I } = l } 0 I f G x.%.k.w e S 4.;...Y.k.].C.K.8X} C.Y.k.G G | f s *.& : : } ` G  . .S ] f 0 z %._.;X .6._._ 1.} f * T P.u + h h } j. X:.* z m.C.C.L.T.qXL._ | | k._ F =X' =.| S ] } } L..X4.5.4.= z f T G & G C.N.%.} z q G 0 I } f P ] | E A 4.I I 0 0 ).Y.Y.,X.X1.1XL.d s - : | ] w } .XL.Y.Y.G 0 z _ f ' I G X.].Y.r A 4 2.5.] l G 5 5 & + & L m.:.f 5 X = G = A V.A f 4.n.L.1.} } P l l 7 %.<X7XI f f T G G '.iXmXiXI P C.s.$.L _ z m.C.n.C.G } w  .V.e.l 0 F | C.j.` F 0 A.n.5.,XqX4.0 4.G } F ` C.A.D 1.1.).[ N.X. .4 I $.L 4.:.4 d F & z f & q  .] | ] w 4.k.oX%.l 4.T = l z f | ;.l S _ 1.m.O.y =.` } 1.] N.A.4.4.z : 5 $.;.G  ._ _ | A q l | '.5.A 0 H _ n.I.' : z B.V._.X.e.e./.eXq.H { q.1Xk.F F Y.2X[.] G n.<XA.H } x.Y.4.[.Z.} F j 5 T z & = I  .] B.N.Z.I 1.] n.k. .] 7 ;.<X).} P 5 : #.L f Y.6.B.V.).3.6.A.B.[.:X .S A 5..XtX] l _ f ` j.T _.A.,.",
"B.] ] w 6.N.6.pX7XB.e l ] w  .N.5.4.;XN.N.,XF d L T k.5... .| w | Z.'.f P ` 4 q 0 4 = 0 = = & w H } ;.= = l 5 d =.G 1.H P C.n.} w q * '.8Xz F F T G _ tXN.7 0 ` P z. XY.Z.P : : P =.F f I w S 2.,.e.2.4 * H F ` j =. . .N.5.m.j.0 =.'.F G 5.Y._ | 1.G f F q 2. .w q d d Y j s j : * P } Z.I z d f = 0 6.V.[.L.5.5.4._ I :.` F * ] A.Z.7 N.} Y Y = j L m.]..XA.N.6.] %.F Y.5.*  .2.H q Z.Z.H P j 5 h b Q m s 4.$.T _ I k.x.5.P P $.#.L 5 & = $.;X=XP * z.6.| n.pX..4 1.C.].I.:.m.=.=.=.=.z 5.$.T G =.G P I.;XL.5.w  .`.6.B.2.l F F w 6._ 5 F } l V.[.j : O.F H [ 4 I L.d 4 ` l F d d d | I j._.=X1.H } P *.z N.[.;.l w _ C.z s *.#.P T z 0 q | 4._ 4 f =.k._ 4.I * 4 4.Z.= l G _ '.j 5 } $.& A _.;.4 z n.z 5 m.oXT d =Xj.z I Z.] A 6.V.X.q } } z z z : s d F q I 5.I : & P F $.: : P Z.1. .| [ ;XHXq.[ 8 F ,X*.I d F } F q Z.n.L.<X;.l 7 1.n.n..X6Xf T ,X,X| _ G q  .S 4 H H l ` s L z.G.` 0 } .X].4.>XB.L.j.1.n.f ;.A.Y.N.5.| G 4.]._ 0 | G _ Y.:.P 0 n.;X`.>XF.= l B.{ H A ^ G G 0 z 5 _ q. .n.5.f I 0 * f P ].| $._ F T s =.m.5 z oXL.5.C.<XrX=Xq 4 | 4.4._.[.A H [.F A ;.P f f F 1.6.2.B.V. .3./.B.B.1X%X3.V.P 0 } 4.}  .6...n.} } Y._.q.",
"3.1.6.7 I G [ 6.n.[ w  ._.1.H | 4.I H k.N.| L.4.0 F 0 I ;. .H w %.C.F P =XuXn.k.4.N.;.;. .G H _.'.n.} %.5.G I l = l ] D _ l %.} %.5.1.C.m.m.,X` 0 0 .. .= w P z j ` = f l & : = z J..XC.c.} L...] q.B.N.I l I =.h..X$X6.r n..X=.|  X4.` P ;.T.C.5.] N. .7 G [.qX5.l : ` 8XI.s j u =.Y.k.l f P T =.} _ N.;X;XN.} G z G ] } F G L.L._.5.7 ;.Z.k.* 0 F & j x.G ..S S 7 P m.4.%.] A A q 0 :.4.=Xj.: h b b i.h L x.1.N...C.I l '.c.G :.j < h m 0 C.kXn.F ` $.G G '.'.0 l w 1.%.k.x.} x.:.z =X|.L T F 0 4.4.%.k.F l k.).6.] ] B.L.} G k.l F f & P =XN.A I s : :.F 2.`.1.k._ o 4 f G q 0 = G P = z I l 3.D z m u * A.V.& _ 3.;XMXC.* Y j.4 l w w _ | ].G G I _ w 1.N...G P n.iXC.I ;.-XI.5 %.'.F | G S w + q q 4 T z f 5 5 P 4 4 = f G D V.N.S Z.n.F T ` u u h T P Z.=X| d 0 } P f s z ` f S 6.L.Z.] ;XN.4 | 5.G 4.* + d q } G I q G m.m.%.5.A 5.N.F z f =.l _ .XG l ] n.Z.).X.Z.n.f z s O.:.=.I 4 * 0 F _ ;X).} P F.0X5.].n.,X=X).;X_ 4 I G 5.H w 4.kXI.$.` f 0 5.[.Y.1.5.wXB.= F A.[.I * s 4.C.L.Y.1.l d 5 * T ' *.P 4 G z z F F =.j.` z x.Y.Z.4._ n.5.| ] G _ C.] ;.)._ V.:X%.H H H 1.2.C.D X.;XV. .r.).A ] { 3.,.`.k.x.I * q %.I A x.I $._.).^ ",
"!.e.[.k.5.4. . .7 w ] Z.=XN.C.%.=.` 4.Z.%.I [. .G A G I 4.'.I l _ T T j.Z.Y..Xk.6.).;X1X2.6.:XL.q ;.] rXB.F.2X;Xq.~.F.B._.%.N.>X7Xn.=.} k.Y.n.f F =.6.n.k.| f d s P f 0 | f f ` 7X Xk.} T P x.4.f | Z. ...1.).Z.n.rXA._ n.A._ 4 P | f } z 6 ` :.P H A.D 7 w F F F ` = } x.x.$.F + $.4.j d * : ` $.H 1.{ e ).l | ..] _.k.A.] H _.;X=X` P N.[._.J 1.).f 0 : o T 4.1.q ;.Y.4 ..1.& f ` 5 : F 7XT.` u g , O g 5 P C..X%...I = 5.C.n.I.P ; i : =.5.4.6.L.j.F F q 6.l = 0 %.'.kXMX%.0 q f P P } K.T f G A A %.4 q I ] C.I q z = z P f G C.T.` = Y.'.G _.L.z x.#.= ..V.;XY.7 G ;.1.].n.l ;.| %.z I I l _.`.} j.* I >X,.^ B.2.{ ;X[.I ;.N.| 5.).H 6.6.] l 4.%.;.I  . .[ l 5.].-XC.f $.k.} I } 1.[.pXA. .N.%.| G P ` z 5 d z l F z z 5 * S 2.6.Z.| q = 4 | | T j.j.=.].5.] P } m.f z T } I `  .5.} I ] 6.G = F C.*.:.' =.I.m.4 _ _ l :.x.f L F F } 4 4 d z :.G A _ H 1.A.Z.).Z.A | 4.} ` U T u h q q [ ).N.B.[.C.P 0 F.FXvX].` L.4.0 %.4.l 0 l '.1.4 G L.#.x y ; m d 0 1._.1.Z.5.` f [.0XT z k.'.%.Z.Y.} z F 4.T m.T.5.` G l l ` P z :.F _ n.5.L.%._ F F _ } _ H N.S * 6.6.] _.fXB.( 9 ( `.V.A J F.] ] [ A ^ ,.[.1X3.,.H H %.N.| l 0 & ` T.z P =.f l ",
"B.] } } l I _.A.H [ [ G 1.C.N.I ` ].=X=.| N.Z.N.H ] %.| 0 G F l F G 4.x.4.6._ [.1.H 1. .A D ).B.6.^ S 5.D  .[ e.N.q.B.N.6.=XF.>XC.'.I.` A.6.5.L.I j. .N.vXA.T h.} ` P ] 6.F j.G [.,X} & & j O.s #.| P f = A ( A w w H 5. .l | | } z $.z d _ T.P.=.6.A.1.V.n.C.F 0 * I C.=.5.L.F 4.T.x.T F G F =.P Z._.,.^ 1.A 1.%.] [ ] 6.J  .V.%.G d ` A.6.V.`.`.B.L.j.: & -X8Xk.l .XN.f } I } .X.X: : G %.'.P.+ i G.Y * z 0 =  .G G 5.I A H w * + + ; 5 z ] A H 4.c.h.].'.l F q X G =.| Y.P c.j.& P $.P j.j.'.k.V._.'.F I } 0 f T h Y : 5 j.| .._ T ` 1.A.4.q 1.I 5 I ` + F H G 6.Z.5.} ;.;X'.[.'._ } G F T =.B.;XY.C.P 5.>X`.~.[.N.S ;.%.0 5.;.1.;X;Xq.F.| Z.k.q f } 1.H I ] [ A P f d z L.] l ] ] H 6.~.2.2.;.).n._ 4.k.G & P m.5.T :.oX].f 6.pX1XA.H _ q 0 ;.| z | j.$.Y.1.A f :.=.z T : G %.G _ _ q 4 = 0 f | & d z.*.P L %.;.n.n.| n.,XXX` d d 5.k.z 5 Y j.` ].Z.A 1.] D A N.1.).A.I d : 5 : m.$.%.H nXyX1. .} I I l ] F.I & ` z f ;.N.4.C.4.| 6.n. .C.n.` m m y m L m } f 4 0 s F F ;.Z.j 0 _ N.} | 4 f T } k.z G P q z z q =.;.=.4.j.H w ;.n.4.5.0XY.;.I I H ].1Xl 6.rX1.[ _.:XF.( o.e.{ ,.%XA._ H k.H ] l A 1.`.1.6.1.= J pX<Xf & j =.4.z T d z ` ",
"q.Z.` P :.| G 2.]  .6.5.| 0 %.I B._.'.G _ 0 0 f = q 4.} F G ..G G L.=.G 1.I  .1.A w A._.2.X.F.>XtXV.:Xo._ 6.q w 0 q [ 1.5 f F f | '.} f H N.;.F } F 7 q  .<X'.P.x.5.C.N.] _ ] F ]..X[.f f P T T h.$.I = 0 V.2.1.q.J G I 4 1._.C.f f >.*.z *.P >.T | 2.6.$X_.c.0 : f %.=.V._.3.] 2.2. .[ k.=XA.2.N.6.1.B.`.1XN.J _ k.B.N.[.[ H X.S =.j z H ( e.2X[.] G 5 z L :.'.F G 4.P l = 0 ] A.C.q 4.rXV._.4.o $.=XL.).A.w  ._.N. .5.n.0 = P } L s j ` F J ] %.4.` G Z.I.f P G & f F = = I k.=.d F I.J.j.T.Z.%.A._.I F f P :.f I *.h : } ,XZ.;.).} F N.).5.f ] 1.f & z d ;.n.+ _ -Xm.d z F } 6.;.G f f d z z I $.*.d 5 I } } G C.Z.4 4 * * I T f 5 F '.T.Z.].7XF _  .H = = l '.F q F z s Z.C.4.l 7 J 2.e.D S A _ | 5.j.` ;.l z 4.} 5 P Z.n.} n.$XF.5.0 _ G A <XpXn.C.5.0 %._.A.Y.L.f } F f H 1X2.& q l f l f 5 O.h.d T j.G 5 %.} | %.4.C.} z.s.d d $.5.$.5 : :.$.k.n.l | J [ [. .H tX=Xf = I T.;.I K.0XY.n.l q A r [.q.A 4 d f 4 | G * G | q 4._ | '.7X)._._ I z.-X5.L.h.L x s $.} 4 | k.` s d * ] Y.1.%.T I F ` 0 F F l H L.n.F _ _ & l ;.Y.} = = q } %.n.'.0 G I L.C.| n.C.C.4.| 4.I I n.F. .[.fXyXn.| F :.n._ 6.[.6.w S 2.r ] ;XL.f P L d ;.q _ l I ;.",
";XZ.$.j T P f I 1.F.[.A.N.F _ A.vX=XA.n.0 z } = f = = l F F L.C.G ` P } C.G w 0 l w 2.2.A.6.A.[.3.6.6.D ).5.q f d f n.].' z F L.N.} } G Y.%.0 -.P 5 w w A 4.Y.P f k.Z.[ S A.N.F _ k.Z.` f F j I ` =.L.| H 1.6.2.V.V.} f } ,X).;.G ;.P.5.P P G -Xn.0 N.X.2.[.k.q 5 4.` G { A 3.&Xt.e.]  .%.[.( A J J [ 6.2XV. .G 0 6.6._.6.6._.6.6.;X` =.S { [.;XN.A.].} =.4.f %.4.= 4 f | 1.A & _ 4.} 6.>X,. .%.& q H V.~.3.A 1.0X;XZ.G 7 4.1.7 k..XK.'.C.| 6.)._.uX.Xz F P 0 z f f ` $.G G ` k.T 0 f =.J.* } c.H | ).6.'.C.` F I } :.d I '.).;.w I z q ;.Y.].} ] Y.Y.T z f ;.F 4 d $.j d * d d 0 H l } F $.` I z q * z m.T 4 _ 6.C._ $.L z L j z } #.#.$.x._ G N.] l N.Z.m.5.G 4.%.I K.h.& f I } f I _ ;.6.A.:XpX6.<X<XF l m.P P m.` P :.' 4 ;.[.[.F.Z.l I F D ~.B.).<X_ ;.5.6.2.).5.%.n.;.%.A.N.1.w 1.N.N.:.x.h h :.L j.qX4.l ].'.= %.C.;.4 f d z T 5.'.5.f T 4.L.& Y.n._ ;.[.B.9 = _ Z.4.0 I.,X} | pXMX;X6.5.;.} } 6.sX_.;.:.l I L.C.| 6.G + + 0 q 4.G = = G T L | ` :.j < + h Y P 0 q l : + f | %.N.<X4.I 4.f Y. .A.L.G 6.0XZ.q 1.1X] C.[.G l ` ` G _ 0 4.5.F I w 4 | n.n.| 5.l 0 = G I [ ^ { ).e.6. .G f h.| ;.4.[ ] %.Z.Z.] H 4.].].I.:.j._ _ 5.6.1.I ",
"B.6.=.} 5 5 4 ] <X_._.4.;.} 7 } ].| l f P C.c.f } G _ q F F } Y.f f z ;.6X].| C.'.H l w 8 4 G | F 4 f P w 0 G f 4 _ 6.k.` 4 H k.6.k.6.Z.T.` l ` T F H A.V.w f z d '.N.B.;XvXvXP = $.} f $.=.0 N.B. .V.,Xn.4 q H 6.] 4 0 z _ iXlXj.m.n.| z P ;. XZ.N.L.6.| I | =XF + F ..H D w.3.{ 3.] f f | A. .A ..1.A B.A._ F q F f l w %.] %.6.B.;.k.6.] } P 0 C.qXz s f C.).I l ] A.Z.5.N.1.4.%.d } l 9 l f s f ..V.~.B.r 7 H ;.k.] 5.'.1.f %.C.=.m.qX1.V.%X[ rXmX} = z z s f F C.$.z z P T.=.& = F =.F s G 0 l [.4.w ;.1.0 ` L.F  .;X~.H C.L.0 F 4.| q = l [ 1.].=.h.z 0 } l I $.q l I q 5 ].m.%.G | ;.Z.Y.G %.;.m.0XI.T q ] V.| P d T $.q G 5.5.0XGXn.G A w ;.| n.n.j.j.5 P } _ C.} 0 =.f : d T & =.,XN.C.4._ :.Z.F 0 P l q 0 0 T.I.m.z ;.bXq.1.;Xl 0 l N.<.y.). .;.k.6.C.] [ H ;.H ] 6. .3._.] & 1.A.f f d L j.Z.H 5.F._.Z.5.%._ ` 4.%.5.5 0 n.F.1.%.5 j.xX;XA k.;.w H 1.).).w 7 _ %.x.x.F 5 G 5.;.N.F.tX0XiX` = ;X$XY.0X;. .6.;. .$Xn.4 4 w _ ;.A H | G :.T s o g i i v s - h i 0 & + L 5._.5.%.4.5 l P | L.5.| _.1._ H [ A.;X<X5.n.5.4 q >.'.oX| l I %.L.} A 0 = l | 1.C.6..XZ.Y.Z.[ V ,.!.H G G f f =.l $._ q = 4 I %.4.F _ | n.k.6.n._ $._ }  . .",
"e I P :.#.T G 1.Y.n.[ '.Z.1.l I q q I } ` F N.,X%.G =XF 0 ..n.Z.T %.q z G Y.k.n.5._  .n._ 6.4.& 4.T.} P H l N.;.;.| 1X_.P ] J A k.Y.2.| F q k.4.* = w S 1.1.4.L.` } ] _._.6.=.f z #.F $.'.N.G S B.N.1.C.} f w = A * G m.P * f %.f * o & _ z k.6.;.N.= * * 7 ;.L.G 0 0 ;.e.D D D `._.;XC.j.'.B...] 1XpX] 2.).L.5.Z.$.'.6.q = P 4 4 = w 6.e.4.s L f j.#.& d = <X.XF 4.0XZ.w H 6.I =X'.d ` '.4.& n.K.$.H  ._.[ N.] A ;.N.[.L.4.G Z.%.f = G G 7 [ G 0 Y.=.T L z : z d $.C.` f * = T. X` P l d q G -X5.q 6.w l N.A 7 | x._ V.B.V.1..Xm.q 5.n.:.0 A ;XtX4.I K.qXC.I k.5.=X].l q %.n.} _ =.} 1.5.[.;X= G | 5.| l ].0Xw { q.Z.$.*.5.N.=X .^ _ } m.G } _  .;X.X_ n.mXm.+ s ` =.4.4.Y.x.5 5 P #.T F f = T _ G l x.} l | f f d j 4.C.F + q [.;X$X .w l H q.r.V. .] } | 4.6. .8 A.V. .A.S w ]  .[ 7 S H 4.=.m z n.5.w S _.rX .0 lXY.;.} I | 7 S ,.S A = * l 6.n.l } A 7 r { $Xq.2.} _ ,XT.d + z $.l * [ e.e.).;.F = [ B.l ] 1.] X.q.6.o.X.[ S Y.N._ ,X4.].| f 5 - , b n M f.P.x.j ; d P #.C. .D l f P ;.I F j.'.I.Z.n.0 } k.1. ._.q. .6.l P P cXJ.z * 0 _ n.%.H I H G 7 G H n.;XA.A H H A ( `.>XB.k.$.P 0 f %.=._ | F 0 G ..` F H f l _ 6.w z *.H 6._.Z.",
"S w I } I.z.P ] <XrX_ A 5.C....X4.d =.m.` 0 C.| k...] B._.] I T } I.| F z ` _ =.` I 1._.^ ;.].m.C.=XT.q 4 | Z.=.T F =.L.N.C.%.).} H n.<X4.H [.V.H A f .. .C...| Y.,XI 4 = 5 d > I c.1.I | A.H 6.[.2.A _ d s | 6.H I %.T F | f 4 ` l 0 T n.4.%.l A ,.1.| I ..] 6.m.q d I N.{ ^ D  .] 4.H G | d F 4 f V.S 6.2...Y.L.;X<X_. .C.4.H 0 ] L.%.6.I =.XXXXC.f f x.x.` q q 0 ]  .N.1XL.F ;.c.f k.6.A I %.4.P l r [  . .I | ,XT.n.f l q ] .X;XG x.| z j s : d : P =.T s =.4.f s d L s * z 4.L.P F 0 w f F f f Z.5. .J  . .L.'.f H n.6.r _ z 5 l l f _ $X_.1.^ q %.m.d P I $X3XZ.0 f C.wXo.0 l q.N.A [ q.^ 5.] 6.I * l >.iXbX;.* T G J ~.>Xe.| = = * F | q q F G I 4.5.P f = P I w 0 G 0 ` x.x.j.` L + 4.} = 0 G F V ( H = d z : *.*.P F 1.A 2.[. .4 ,.H ] { 1._.;.0 f T L.V.V.%X_.B.6.H V.2. .] | 6.V.lXx.h z ;.F. .[ ( 5.C.;.L.<Xn.H _ _ $X%X[ D q q * F $.` f q G w 7 B.;X2.N.;.;.qX>.h h : ` =.k.C.V.H G 6.V.6.4 } G w ] w  .yXDX3.,.F.e.6.F A L.:.f 5 4.$.o X s d z z C.;Xf d 5 I oX$.l ] 1._ %.j.1.I z 4.x.} 5.G x.).[.] & 4 q G q z :.j.z F = f _ w w 1.q F | k.F 0 1...f & w [ S 3.3.] [ w 0 P | 5._ | L.,X..F k.'.1.q  .N.B.^ ;.6.T.].5.^ H 4.",
"B._._ f G I | d | 7Xk.G w '.lX,XZ.k.` 5 0 } I | [.N.6.=XN.0 ` j C.-X| q I 4.=.*.l G ] $X6.4.G G Z.1.F I N.V.H F P P 4 7 0 G ] %.F H G n.6.~.6.B.[.6.| C.F w l k..X].;.4 f 5 d } L.6. .{ H 2.G _ w S S w T } k._.I C.| | 4.%.4.0 f 0 L..Xm.>.l ] A.:X6.7X'.Y.1Xk.%.4.c.0 4 A.:X_.w A 0 q Z.z _ G & A S [ H ;.Z.L.| Y.6.q.1Xk...0 f } 4.;..Xk.Y.7Xx.0 & 5 %.'.%.0 '.'.6.Z.V.N.=XP f F F 1.6.A.).Z.6.w V.6.l 1.7X'.I $.G l $.K.0 & 4.1.] ].:.$.L b m L j L K.m.=.I.` & 0 j.T.K.j.F $.Z.L.} f ] %.P %._ L.[.k._ %.6.k.} = 5.=Xk.n.4.& 0 H H G f X.] V 2.q I 5.z * %.>X,.1.$.z  .~./.;X_.NXDXo.S 2X).A.Z.2.] f F d 4..XI y h l [ ] H ~.).7XP j : 0 = | f = q F _ I l = | _ f f k.= T #.L z 5 & 5 P d 5 5 ` w V 2.)._ | T 5 + o T I.n.| 3.2.r ^ D A  . . .B.0 0 z z G 1.V.^ A 6.S w  .1.^ 7 w N.N.Y.d P q 0 D 2.3.V.Z.pXN.} k.C.4 G _.).2X&XtX,X4.| K.,X;.f ` F 6.1.V.~.2.8 F F $.5 u : X #. XoXZ...N._ 9 D `.G q 6.] H 2.1.V.,.] $XB.rX5.G C.:.} 0 z 5.$.m Y x.n.'...S | l H I z G f 0 0 G F 4.j.c.5.f F ` j.Z.} '.L.[.>X| %.%.F ` 5 z.' q P G 2X:Xw l 5.} =.n.5.w G ..I k.G _ ,X6.w r S ] l P :.l ;.} } C.5.l G } | | w [ V.[.[.B.;X:.n.[.3.A A ",
"( F.4.| C.:.f I 0 } Z. ...6.2.6.[.A 0 f x.K.%.<Xm.} 4.I.$.d j z -.T.} F _ } ].m.;. .| $XbX].0 | _._ l f [ q.6.` q L..Xf z h.T =.:.l 6.1.N.).1.] %.f L d L x.oXK.C.F l q w Z. . ._./.6.fX;X,.F.;XH A B.2.] .X.X1.n._ ]  .1.k.} : #.F 4.N.x.0 f _ J (  .N.%.Z.L.6.4.j.=.P I ..C._.A :.q C.FXrXZ. .6.;.] [ ] _ _.lX)._ ] B.V.V. .w F G l 0 _ K.L.T = q 0 0 0 l 5.].-XZ.k.k.] f G F I ;.[.).4.1X6.G Z.7X_.Y.;X4.k.5.f f G f =.=.& 4 0 7 _ 4.G } C.J.` z $.L C.5.I k.C.F f m.4.q 0 F P ..k.l ` 0 l G G F f f ` $.F l 0 I 8XmX%.Z..XT * d 1.5.5._ = S H >X).0 ;.| * q H + ] _.).1.1.e.S H 1X[.e.[ >XY.H l ] N.q 4.I.5 5 T i.i * H 2.] N._.].P L z P F H 0 ] ] G ;XqX%.4 ]  .G Y.7Xd G P 0 0 f 4.` z :.z f -XH B._.n.| 0 n.'.| T =.T m | ^ D.V. .^ ).%XA.H J N.c.J.oX> w k.] 0 6.3.V 2.1.G ] l w P l f ` I q.[ ~.).B.G 5.<XG %.,Xk.q 0 q l F.%X6.I.k._.vX6.G f 6._.!.t.`.( w ).].F h x - s #.d = q w 6.D & ( V.] ( e.B.e. .0 A F I :.%.I A G 7XZ.0 = & f z Y s I.qX1.2.6.e.H 4.H F f 5 q 0 F F = =.T.'.k.= z ` =.0 d F  .2.G k.4.` :.F f l n.} _.;X:Xe w H k.L...A ).Z.f G } 5._ l Z.6.c.H N._.6.1.F 5 q G = q 7XY.4 P ....f 7  .k.2.Z.j.L.A.1.q.Z.",
"8  .[.,XL.:.F T.I * 4.<X;X6. .2X;X] 0 =.T.I.x.T ` I j.- u #.#.: 5 d d Y.P l j.:.` ;. .r F.F.w P 5.= 5 =  .A.[.Z.| ,X,X=.I =.#.:.I F |  .6.{ ( w H f 0 $.:.T C.K.L.G l f J 6.2.D ] V.e.V.).e.6. .;.0 J V. .Y.L.k.uXZ.7 _ 1.P P x.=.$.n.F 0 F Z.4. . .6.e e S 7 _ = 0 = k.<X%.k.k.5.4.%.` ] | ] 1. .[ 2.2. .%.%.I 4.H 1.B.A. .Z.4.} 5.5.I _ | f P P 4.C.l 0 F I C.%.%...F 7 I } } ] | q ] 1.[ w w _ ;XC.%.5.| l 4.I & f G 4 P 5.} ]  .w C. .H rX4.f T ` ` } C.k.C.L.4.l I 0 0 G Z.} q w } 5 4.T.l 0 0 0 %.} F 4.$.G c.;X;.} | q l 5 & 6.6.' G l H [.<XL._ 5...G f } 4 4 r.,.2.Z.q = G { ~.fXtX6.r w q.G 4 I F O.h 5 s.#.+ I 5.G 7 w 4 = z z d =.P ] N.1.[ ] ).1X6.H V.%.1.4.4.f P } f P c..X4.$.uX Xd 4.n.V.B.Z.$.5 m.Z.| ;.z u s H  .~.F.7 4  .).[.C.Z.Z.q > z.$.z ].I H <XF.r V.Y.1.Y.x.].I d s G 5.q.^  .F.1.5 4 5.;.5.Y.;.G o H 2.S B.` 0 & F k.I $.I 0 _ e.9 H  . .| m.:.T u o h :.L I Z.7XN.1./ 8./.{ 3.r.V.tX2.G ;.} d 5 z z _ n.;.` * z m.F f $.F 0 P ] [.2XV.6.6.w l =._ = j.Z.q f ] ;.;.} | } 5 T :.T.z I I S l z & f k._ 0 5.Z.;XN.V.] A 2.I A G f 1.;X5.4 4 Z.%.& I 7X.XG n.:XN.;.;.` 4.P | A n.1.| .X'.| q N.k.4.n...T G r 3.N._ ",
"w w V..X_ & 5 } z 0 I L.'.A 1.1X;X1.F } z F ] H ` j.4XL m Y h j f G x.4.x.x.z =.|  .B.2.F.0XC.;.0X| z :.F.q.G q ..A.L.} o * z P =._ f H %XfX`.F. .J 6.Y.vXZ.%.'..X,X1. .| D 2.2.2.V.B.A 8 B.;X..| I q B.e.6.G = 5.Z.1.%.%.1.c.j.$.0 ` = = x.rXY.J %X1X .e 7 F Z.%.T.I T 6.5.Z.'.$.0 0 q l A 5.S  .~.V.N.6._.| l  .e 3 9 ] e G k.j.` I ].,Xc.x.x.F G G 4.K.4.k.k.Y.vXlX4.l l _ ;.n.S I Z._ A f 5.F q H %.%._ 5.=.l k..Xq F l = f 6.| H 6.N.H F.).H ;.6.'.%.4.4.A l 1.%.n.6.f } | | ;.%.=XT L.Y.} T l f 7XkXF f I x. Xl I C._ * F 6.Y.F.r P d f G _ ;.$.| l G ;.1X'.* & D ) V.1.} C.B.V.VX1X2XG I [.A.f %.n.z * F 6.wXN.= { 6.= * H l l ` j : f q C.1.A = l Z.n.S = & I 6.| | G I | G _ I l 0 0 n.j.5 ].[.[ G Y.Z.; M j | N.f _ <XpX_.q.r F.S & w | $.F $.= 0 %.:.F f f G _ A _ Z.k.F P F =.=.` = l H F.[ o.5.| 0 z d F | $.` m.n.( >X#X$XT o T z s * u ; j T 7  .A S A l 5 x. XP ` h d d :.Y.n.^  .yXyX/.{ D /.e.vXtXH $.T z *.F :.Y.C.` $.J.P.J.d x.=XP f 0 ;.k.l ] N._ = 0 I F n.].5.4 0 = + } q _ :.P T.T.4.} P = e | } 5 n.=XI ] =Xn. .q.).>X%.1.] ..C.1.7 1.4.1.f C...4 F j.P 0 1.B.r  .4.F 4.} H 7 T =.G I l G L.L.I ;.$.| = 0 5.[ H ;.",
"2.w [.C.F 0 F = z P =.k.| N.2.A ] 6.z z j 0 P w = P L s h s : 0 T L.5.T %.;.j._ T.A.X.q.[.Y.Y.=X0X0X:.6._.].%.d f C.<XT.f d #.h.` 0 F  .[.rX~.~.1.1.V.1.;XY.| I 4.C.6.4.k.C.).=Xk.H ] f ;.V.Z._.5.} q 6.[.[.<X= | <X[.7 ] Z.} P : T I = F F 4.6.H ;XiX[.] A 6.L.Z.C.C.C.] 1.Z.1.G l G 1.4.| Z.n.V.,.] 6.).[.4.[.4.0 6.).;X2.l } I ;.c.G %.F _ G f =.c.} :.%.` 4 _ 5.` F d =.Y.k.2.4.C.6.A n.C.| _ l P ` q :.Z.= =.Z.;.[ rXlX] H Y.H 6.V.).>XV.r.%Xe.H A | F f l _ %...%.%.0 A q %.F l 5.I P 5.x.H F ;.} '.m.d 4.| 0 0 ;.Z.n.f C.].1X`.q.R.x G _ f $.z _ ] ] n.2.] ] V `.wX3.G 5.%.w H ^ q.A.H | [.2.l C.Y.f + ` >XeXe.2.%X:Xj j F w ` ` - 5 T I k.| ] w H C.qX_.f 0 I 5.=._ P 1.4.Z.).1.G k.] f h i ;.X.| | l 5 u z.*.$.} _ } n.tXFXF.l V.3.1.k.x.L =.m.| | q 0 F 0 f f F F =.m._ P : s s z & : k.[.e.^ N.;.q d f z ` I._ K. X).$X/.#XH l *.*.; u + , X h l.].k.S J w _ ` 5 x m *.s : I =.0 & =  .V. .e.3.D 8.e.H ;.| 7 G l I I G 1.%.* l j.=.L L T I q 0 P L.=.f 7X].4._.} I A.C.;.L.} f | G %.G 0 I ` | = : L s l } Z.} 4 Y.;.= 4.;._ r 1.).{ ).N.] E L.L.6.] l k.F ] 4.%.5.4.F ;.C.N.H C.Z.l G f 0 F F q k.L.P 4 5.| d l f F f H 6.o.<X1.",
"] 1X<X..G I Z.F | Y.).A 0 ..;.H H 5.P z * T ,XN.%.] 5 d j $.C.L.Z.k.` =.z f _ 4 z C.6.n.sX0Xw r ^ Y.Z._  .6.I 5 ` $.} | =.T ;.1.P F 1.)._  .w S _ w f ` f G I 7 _ F G j.P j P d L d d s j 0 z '.7XN.F j.N.1XA.q | [.n. .:Xk.T z z 4._ C.k.= ] :X[.pXY.A 4.V.Z.%.T F L.iXL.H ] '. .G } w 0 %.].C.H A 6.1.[ A.0Xk.7 ] V.;X:XN.L..X].} } d :.} f = qXlXn.G I } 0 %.Y.f + s L 4.%.H B.6.4.).1.%.L.uX8X= | $.& $.} _ .X .e e 6.;X_.6.H 0 w  .`.yX#X{ #X^.6.1.G I } ;.4.1.;.S A F w f C.Y.= F H f F l H ;...q Y.C._ ..G   w f ;. .w 1.6.S { Y.` 0 z _ :.=.:.-X)._.;X2.A _.).V.:Xe.[ _. .8 $X2.$X] A A  .| _ 1X4.* ' T | D l _ V.[ ; s.k.Z.` s h d z f ;.1.n.Z.k.q } 5.l %.m.'.4.A _ Z.[.:X:X]  . .6.l s *.| l 4 F ;._ $.$.XXT * I P I 1.e.B.$X^ q.1X[.I s $.].rXZ.%.N.4.H k.f d L j x.5XT 5 z j J.=.= k.B. ._._.w d ` *.'.| f T #.F F  .,.{ A K.kXx.* s g b - < j.,X1.( (  .%.T + * z s h h T } : = ;.:XH = %.V.( H [ 4.Y.Z. .D e.1.D ] N.n.& o & : h m j ] ,._ 4.P s P #.` } =X_.F.6. .N.A.| ;.<X8X$.& $.=.} f * h.P 5 f F j.G | tX= & | d l l 4 w & [ C. .e  .H  .G f = = f I ] 5.4.'.n.;Xk.l | 5.l l F ] =.z Z.uXC.F f T } G $.T z 5 5.B.1.2.l ",
"J [.'.] = = 4.Z.Z.Z.6.I | q I | ] 5.T.| I '.6. .vX<XL.d 0 G L.,XI P x.m.=.T f F f 5.n.5.2.2.4 4 l | ;. .{ w w n.].= G | =.I ..5.=XL.] q J [.~.;XZ.l I 4.I l ;.7 ,XL.G %.x.#.z s Y h s T 5 5 z z V.4.T ` k.S | L...0 G Z._.C.%.P P = 4.Y.T z 1.5.q.B.] } k.5.A.1.f } P ` I G 0 | 2.).'.%.F = 0 z w %. .w H 5.A l A 5.6.1.N. .H | H = + m.h.F %.H Z.| f f z P f c.'.| > d I.m.0 n.Y.6.A <X,XP } -XP F 6X%.* =.} I  .w [  .N.6. .[ 7 7 w S H ] / t.3.3. .q.G 2.Y.lX;X%. .I %.,XZ.7XC.I f 4 q Y..XG Z.Y.%.4.N.6.;X_.2.] 7 = 5.F.^ ).FXB.B.w d >.$.$.m.d } 5.%.[ 1. .] D F.1._  .^ `.] | ;Xq.[ )._.C.%.^ 2.;.H Y.:.T _ l 7 ^ H 0 s j 4.5.n.j.z 5 5 = _ T.} * 4 G | * G x.} 0 0 w ] ] %. .S G _.[ _ l o m 4._.L d 4.| S 5.j.; L *.d f G ] { [.] [.B.A z & : #.1.7 6.N._.<Xj.T 5 z s P Y j z h 5 L l.: z =X[.%XZ.f 5 j L '.T 0 d z l f * ;.>X[ F P f n.L Y h.#.$.I.1.7 ( e.N.6.A.L.` 5 X 5 I z f C._ d 6.5.f z q w I N.N. .4.6._ 1.{ F.2.H _ _ * I P j * %.%X,._ w & j ` 5 s 0 6.2XF.] A [ _ I l } =.;.= T I G 0 = 4.k.} F : 4.N.6.G 4 4.` G 5.%.5.1.[ 6.1.J Z  .Z J f 7 0 q 7 l = q G 1X5.4 T = F K.,X%...Z.4.4.C.C.s & P 5.4.x.x.` P P :.;.N._ ).",
"H f | %.f q :.Y.] I 6.%.;.f l ] k.4..X$.0 4.<XA.L.'.1.l .X=.w G ;.6X6X5.f 5 d } ` _ %.q.2.A._ _ _ ;.C.;.).3.2.>X_.).N.] f G %.7XY.H l 4 A F.q.1.;.6.G Y.;XA w l _ G _ %.l '.'.} l & h.C.L Y > P ;XL.} $.I =  .).k.1._ 6.rX1XG * z x.Z.x.} T } A l G %.x.| f G S I q 0 0 C.;.5 f 3.>Xk.l | 7 = j.} 1.A.B.1. .A H = l N.).). .] q H %.` m j = q w 7 I A z & z =.f d d 5 s j.=.0 %...1.N.N.n.:.z > = 4.Y.Y.0 = f %.4.| _.B.[ V.%X( V ]  .6.n.).1.N.] w 2.G J ;.6.'.5.0 q %._ L..XmX5.=.| f f ].'.C.G | 4.k.6.6.B.:X_. .D  . .,.q._.N.B.VX] l :.Y.z l .X} ] N._. .I C.5.] I _ r r e.q.3.B.q.S n.n.l = q  .[ S %.L m q q 2.~. .A ;.7 l ;.].` * z T F = K.4.4 4 q } f F $.j z x.k.f ] G 7 L.=Xl Z.%.4 u P :.'.M ; L n. .^ l j d q 5 x.C.1.6.q.l = Z.).z L s z 5.J ] '.7X:.s z h h 5 d :.x.$.5 d *.j.d _ ] Z.1.q * X : d z P z f 0 5 = = * [ 6.5 & w C.z L $.P 0 } H o ( %XN.A o.sXqXI : 5 _ [ ;._.4.f } x.L O.h s.>.k.%.%._ 5 l = 4.;Xw _ ].Y.1.=X<XxX4.2.V.,.F.Z._ k.7 I T 5 H ] S ] A ] | 4.%.* } P G F = f ] H N.N.H P 7 F Z.N.J ..C.I :.5.| _.`.`.F.:X_.;XV.| Z.4.w A | 5.%.l f Z.V.2.| } : z C.Z.w ] ] %.qXG & = 5 I c.k.} T C.` f d G l F 5.",
"| '.k.} 5 } L.Y.5.A w 1. .f ..I 7 n.A | 1.H 1.] f 1.A ] )._.| 6.%.| ` z ` z z z z } 1.q.=X$Xn.1.G G %.5.B.A ~.NX%X2.).'.%.5.f -XI 5._. .S ] B.q.Z._ l 1.X.A  .w A 4.n.Z.l N.6.A 4 = T -.z.F : P k.N.} T I I <X:X6.H l  .1XpX_ } =.=.Z.%.d T ;.| .X%.f l ] } ] _.C.A 5.C.%.5 j f A [.1.= H _ f $.P 0 | 5.D ] 1.H S V.2.6.6.G ] k.4.L.,X: * T 4.| ] '.F l s F ` d =.C.j.X 0 f F ,XV.5.] ] } :.z = 0 =.c.` 0 P ` n.'.N.Z. . .| ] [ `.~.A.rX6XY.k.0 0 Z.A.k.k.%.6.].%.0 ] n.` & & I '.=.$.k.F d I I = 0 4.6.F.A. .N.(  .2.$Xe.q.~.o.A D q.n.G f } ` _ -X5..XZX<X5.%.T I %._ Z.Z.6.tXq.r ( D _ q 6.| q q 1.6.D f ` T d 1.>X[.| 5 N.] 4.iX].*.+ x.4.%.z Z.k.} F F L.'.F j < O.%.H G .._ ;.Z.=.$.L.n.$.:.O.d f U u #.k.1.| ` K.Y.Y.$.: l w l X + . ;.N.d d : :.'.;X1.k.j.5 * 5 z * h I ` j.| F 5.4.P.I 5 4 F H l l L 5 d T 5.| _ x.P l c.k. ._ 0 P F I } j.z & & 2.3.2.`.F.q.6.] F.Z.z.m.5  .,.l = q G P d T Y g T j.=.G =.z z d ` L.G ` | ;._ ;.Y.B.B.N.;.{ ).1X<X} 0 w Z.Z.0  .0X4.I _  .4.C.<XL._ l } ` G G _ V.1X:XL...'.1...%.] _.7Xn.;.I A X.%XeXV.[ r N.G 4.n.;X] A I ..} | A 7 J N.4.C.$.= 0 f  .] w G %.5._ A L.uXkXK.l P _ z z q } l H H ",
"q qX-XI 0 5 ` F H F q | _ H 4.J H 6. ._.7X:X .4._.N.Z.;X).;X1.).%.4 F =.l %.G | T = f _ 1.N.[ >X1.Y.5.0 n.` _ %.;.6.x.T L * j $.f _.0X5.B.B.N.6.)._.]  .2.B.1X1.[.[.n. .1.).A.5.h.` j s Y j F G G ..f = F f | ..e e ] H 1.N.C.].I q l c.j.:.=.x.4.f 4 G Z.Y.] A ] 4.4.5.I 0 #.F  .wXC.| ).Z.=.: P z T A [ A B.`.H 1.A H N...f ] ] k.=.: } -XlXuX).A G %.F | d P C.j.q & w Z._.6. ._ I ] ` F P 4.$.G ] w j.} ` x.=.z = s 5 L z ] /.!.B._ 5 : h s q  .Z._ %.C.6.} | G z K.m.q 5 0 j.z * f f F $.j.d : 0 A.[.,.1.`.[.e.V.B.A w B.N.N. .S 6.n.G ' ` s m u h z.L   P j.$.qX5.L.pX2. .( 1.).[.6._ Y.L.<X).F.;X1.$.j.O.:.K..X} & d =.] 5.H 4.:.$.j.k.q 5.%.0 G l ] C._ 0 L m *.k...%.G | j.x.} ` $.5 x u *.| F ` &.Y :.0X5.k.MXsXrXT h I l q 7 7 q = G l d L z H ] A 5.Y.:.= + z L d G 4.n.0 I 4.$.4.5 * F k.4.I Z.:.d G _ ] S 1.N.| C.C.L.iXk.* G I L.'.:.G q = N.[.B.F.A ] 1X4.F d ` ' n.).^ q z F $.4.z :.T Q O.T 5 H $.* s z =.x.=.j.m.z :.| 4.F f P G 7 H l f l P f F G F ^ ] l } } ;.I 4.=XY.I ;.k.%.%.l S G _.V.[ [ Y.C.%.l q B._.[ F _ n.B.,.V { wX6.B.] %.H [.[.7 I H P G F 0 L.).%.L.L.P I H  .] ( 1.( J e [ [.uX XT z ` ] ] C.C.C.6.1.[.",
"q f } l 0 P $.c.G F q w A  .6.H [. .1.V.n.J | 1.J l H ] A %.0 0 _ I 5.| %.Y.C.m.=.= | | ^ ;X$X_.n.Y.;.I ` z d d C..XF f %.P $.%.q H Z.;.S ]  .^ A.[.] ] F.).1XA.;Xe. .S A.X. .;Xj.z m m : u : q C.Z.| } T.5.). .A  ._.l I H ;.k.A I f P C.x.$.=.f = 0 [ [.H f 0 F rX.X} d I ` z ( V.H =.:XvXL.j s m s f N.V.%X`.V.S ] Z.;X.XH 7 %.%.= f F $.} | } } k.x.F 5 5 q I 0 w ] J  .[.F._ f f H G | L.;.5 = 0 5.Z.| 4.$.F F s ` Y &.*.%.3.3.w f : + : P k.5.H w 6.].P & q f 5 0 & ` 5.F & 0 = 0 d F T 0 q P %.| H S w 2.pX_.5. .6. .B.q.B._.Z.| H P z & m U - - m m h #.j F k.4 A.0X^ 2.q.3.F.1.A l w q n.[.X. .n.;.5 d ` #.=.F z z f q G 4.Z.=.6X'.].n.Y.| H n.C.1.H w j Y L l.C.Z.Z.T j * P =.I + 5 s ` $.f & P I d 4 5.5.= 6.[.4.d m j.H Y.6.n.0XC.H d z m z _ 2._.4.q G _ q F j.K.$.:.k.I f 4.P $.m.` l ` f & 0 z 0 _ ] w ] 6.6. .N.H = 6.I I Y.=.T C.` G ` _ 4 n.[.G r ;Xq.L h *.` >.xXNXN.z L | l j z ` L h y *.q l G 4 h s O.:.$.d L Y I j.=.s x P s f H A A | F m.$.I _ q.^ 5 L } G 5.5.} I | ;._ I 5.Z. .] A.G w  .G I A G  .N.B.2.%.k.,X;X .B.&X1.e.N.N.6.%.L. .6.Z.J l I C.Y.6.;.F 1.Z.1.;.G w 6.r ]  .V.X. .4...s z Y z I |  .;.2.fXyX`.",
"l C.;.d z 4.%.K.Z.Y.k.1.I ] %.'.qX;.$.n.I f k.%.w f | ] ] F ..| 0 w Y.k.} A.;.5.;.4 0 4 q ).).1.A 7 G 0 5 ` 5 Z.qX;.H [ _.[.B.q.5.$X[.S B.0XN.4 A 8 7 ] A n.F.Y.l w G ] _.Z.6...& P I f s 0 F 0 ] ).'.k.'.k.A.A. .l 4.} | w w 5.| 4._ } } $.,X-X=.5 f k.4.l & f |  .N.} d } h.=.V /.=XG 6.H ` Y g O.5 s q 1.e.V.A.A G l A | | 0 I 0 ` :.q F } =.z ` x.` | } w 4 J 1.[ A.I I k.G l F _ 5.C.;...N.F l k.5.l 7 } ].=.P 4.,Xx.P Z.| f H z #.O.z C.uX;.w H 4.P k.| F G I f & 0 oX%.F 5 0 * I I.=.$.= N._.:X1.A f _ G 5.} 4 4 l _ =X_.^ ;.r H H f z  X:.*.I.` =.L P.P.*.` q 4 4.H F.bX%X .] 7 7 I x.f = 0 0 } } 1.2.1.0 + & d d 4 4.$.;.:.d G f G K.n.I 4.;.Y.7X_ q q z L u L I 6.I =.#.s & z j d ` I  XqXL P I f G F ^ F.P * F ;.:.` 4.[.1X6.n.iX_.* 0 5 s L Z.2X;Xl k.} l _ <XZ.m._ =XxXn.4 l _ n.uX$.G ` j 5 s ;.Z.N.] B.X.J V.6.B.Z.1.| P F =.F & j =.I :.F _ ;X=XA.6.3.q.d s $.:.=.=XZ.} z $.].n.* *.].4.h h ' q D o.G z h y i + + & I #.` + ; u g - = %.xX).f I %.j.Y.Y.2XNXI.z & * l H 6.uX[._ .X:X_.tX1.%.;.w A ).6.A '.1X;.6._.6.q z s : 6.[ 1.B.1.[ <X:X).l = G 4.Z.F G Y.| I T I } | I 6.4.l f 0 P n.I ] Z...} L ` m ` I N.1X). .D 3.) ",
"I c.].m.F x.P 0 c.} 4.Y.7 H 1.'.` 0 j.C.f f =.G f w G %.).|  .vX6.] $X .[ n.| n.L.4.5.| A D N.e.5.$X| w | f G T.k.5.6.A 1.3.3.A.).N.Y.] ;.].5.H l I I H |  .l 4 7 4 _ 1.] Y.Y.n.%.<X6X5.P } =.| A l | h.T x.)._.] = = ` I } L. .| L.;.=.| q F T.'.=X7X;XN.'.} _ Z...l } :.4.O.T 2.V.N.l G w z #.*.u u h.l w H = G 4 & A G 0 4.=.* d =.] I | '.-XL 5 d z _ 1.6.q.`.).=Xk.0 ` $.F 4.C.} F _ | 1.<XC.L.iXZ.4.` = =.l f F } I z & C..X=.h : s x j.5.w [ '.| w | I ,XL.f $.| = :.oXI.h.T 4. XI G P  ._.F. .N.C.f ` T | =.l I ;.l f ] D r r _ l z T. X` *.j.q I 0 I d G %.F q A ).;X_.B.9 S ;.l 5.j.L 5 ` 5 d f S <.V. .=.$.j.n.H ;.T z P z :._ $.%.l n.5.G I G | ;.%.T * - O.5._ q m.=.z =.m.C.d F G L.n.5 } 7X;.;.].>XsXT.` P 5.K.T.4.6.1.n.|  .G f = 5 z z l B.Y.A | | ;._ 4.5.G * P q F q _ 5.f G | _ 5 * z L T..X'.} ] G ] J ] V.Z.].5.l | ;X:.& f d f 4.4.Z.n.D rX>X[ B.G 5 z f l 4.Z.5 T ].1X].h x $.G : 5 : 5 S N._ d h s.z d m.n.q } : ' I.5 Y 9X4.l q.$XD ^ Y.l :.=.S [.<XF F l 0 I k.n.%.w ] A S 1.A F G l H 1.1.q  .<Xn.1.2.] $.=.j : f A 1.6.6.S H ;XB._.N.I Z.N.G %.j.T F } | } I Z.).G ] 1.f l I f = F N.k.G T.j.P 4.1.<XbX).2.,.,.",
"=.=.m.T P h.F I Y.} } 4.H C.4.0 f } 5.4...k.N.1. .w k.6.H k.2.B.2.2.e.[ B.~.).$XY.6.6.N.[ Y.0X6.Z.)._.[.[ N.;XG d #.%.0  .;.A.A 8 H w q } Z.1XC.f f q ;.n._ q G G %.=X_.H | n.1.4.L.'.1.| Z.;XtX2.= 4.4.F | %.] 6.).%.z F l I | ..Z.T.| } = q :.k.C..X} f l ,XZ.w _ } j.Z.j.T } 1.B.n.] %.).C.P.Y ; $.I.f l f C.Z.F G I 4.4.;...5 f k.Z.] l f z 5 } 0 q 5.)._.1.w _ P 5 5 * * f d f s f = = H ] G 5.C.%.4.F * 0 : P ` L Y O.h P.Y...h i h Q T s ` 6. .] J * f l P l Z.N.& z 4.$.* T C.P } m.G ]  .>XN. .Z.H l F j.I.G G f 4 4 B.1X[.Y.n.G L.Y.q 4.` 0 %.;.F 4 F .X$.I f f F.[ [ A.( S ] F n.n.= + F z * f & ) `.V.6.].Z.q.V.rXI P m.} 4.| *.%.I ;.I I 5.5.C.Z.L.C.L - O.<Xn.F ..} 5.8XG q ;.;.H Y.;.d ` C. .G _ [ _.'.q H H * z _ I _ k.N.[.] ] =.T s.s.A.tXtXH G Y.[.G 4 G ;.<X<X;.4 w I 4.4._ ;.q u : * * | k.Z.I 4.Y.4.| } _ | 4.` l 5.).5.` 0 =.` } .XtXA.= V.q.q.yX] S _ 6.2.w h ; F n.;Xz - + G } f d * x 0 q F d 4.Z.1. .2. .^ <X;.%.P.#.y m.,X^ e.`./.r.:X).I * f H %.%.G 4.%.4.6._ ..w  .H = D G & w } w = w 7 w H H ).pX[ T ` z s 0 P H N.;X{ V w 6.V.C...C.| q '.'.#.` T T.-X_ 6.6.A [.[.L.[.Y..X] o l k..X%.l P G ` l 1.[.;X_.[ ",
"l } 4.z C.'.} ` ` I l I w G l F 1.L.).).| 4.1.:XY. .A.w S [.V.w { { ^ 8 S V. .B.).X.| w * Z.A. .5. .A.1X_.,.;X .f j.I._ | S N.N.r ] [ C.,Xn.:.:.5 d k.:.I P l _ k.0 } %.= F P I F N.2.7 I %.[  .^ 4 | 4.%.H e.V.1X1X4.P d G 5.Y.G G I } %.C.F 4 5.1.G 0 w 4.%.G ..G A } m.$.5 : _.F.A G B._.G f L z m.=.& & =.7X=.=.;.n.L.k.G 0 * l A._.1.5.$.I.P T. X| _.A.F._ & j : z $.4.4.G * = =.c.%.w A %.f 7 q = F T P P z : + s m L m *.'.C.L h h &.h T T _ l N.A.r [.k.6.C.| Y.:.P T 0 0 = l z F d F f + l H J S F k.4.P ` = %.5.;.;.[._.0XT.' #.>.C.=.T d q I I 4.C.l ;.F | Z.Z.A ^ $X$Xq.`._.H m.z o I C.>.#.} l q.`.A 1.C.A ^ e.n.z I P ' F d ` %._ I | 4.5..XI | :.G & #.` ;. .1.'.H l F q _ H H ^ 7 l ` j.;.n._ 4 w ;.f | B.| f d _ $.Y.} } G f F C.P *.=.Y.<X .4 G _.L.F 4 = l C.'.4.H ;.n.).<X_.n._ d * *.#.=.-X'.4.L.} s T ` } J %.C.;...G P f z j.F P ;.A.;X).>X^ $X0X2.X.7  .%XY.x i | _ ;.T T Y F.>XT.#.5 d T T I I 6X).3.`.3.{ $X;XZ.;.I =.` * f _.pX3.,.wXV._ s s _ C.=X'.l 0 F G l ] f G  . .1.N.6.G N.5.).N. .r S w l N.[.H | =.5 ` F q e H 1.S 1.e l G I C.B.H A T P L d P z P A G A V ( ]  .S H n.N.%.5.;.vX5.H C.P F | A q n.rX2.",
"f 4.$.d f F z d F * f d 0 f k.4.I | _ 1.e =  .B._. . . .V.[.`.V.C e.V.^ V.,.{ 2.1. .H } 4.Y.6.5.1.H S ,.%X .H G = 4.F A H ] _.N.2._.V.| C.C.=.0 } | j.8X'.,Xj.f l q k.Z.l f G .X;.;.6.8 _ C.A J [.1.= 6.1XV.aX!.wX4.f z = F .XN. .0 f _ %.$.0 A ~.V.w.e.V.,.] ..6.%.Y.A.rX%.* G G H  ._ 1.[.$.I I 0 } H = q $.:.z 0 G ;.4.f f I %.l ] N.1.0  XcX4.5.L.} H  .6.;.: =. X;.#.4.A.[.A q 1.Y.;X[.<X=XG ] } 5.x.| $.h.s z z P h.|.O.: s & P O.: u < - - l f %.2.F.0X5.G 1.4.lXcXx.7 I %.| Y.} 0 T z * d G V.B.;X;.| ,X` d F :..X=X[. .l l x 5 5 * T ` y y * _ ).n.f 5 } l qXL.H l ;.e.$XF.1.$XH q T P $.z.' } } ;.2X>X{ 1.| C.vXZ.j.XXs h L j * P 4.P q ;.| q I F _ = & f <XB.:X;X} _ } $.G * l 5.n.| w 0 ` 4.| | ].G l _ Z.C._ | } } h.f f F ;.} N.,X'.P 5 =.I F G + l } 0 F z 0 l 4 & z =.Y._.1XA.(  .;.0 T =.m $.} $.oXqX X5 x ,X7X..H } C.;.n.| F _ = 4 G q 7 q.A.N.n.6.S H H G 4 N.wX_ G n.} q f | 1.B.2.I 4 G L.0X=XF d ;.A.[.$XD | ] | A.>X4.$.O.* : } %.;.1.H q & ` | ;.L.;.A G _ f F 0 G G A ,.) 3.&XNXN.N.[.;XH w w ;.).A.6.N.).].4.f F 4.Z.5.G P & w = | Y.Y.<X1.1._ f L h z j z f w A [ ;X_.S H %.6.] 6.'.;XH A w 1.L.} I.L._ G 5.;X<X",
"H Y.} L F z I ..` 0 $.q f ;.1.2.J w A  .] J A [ tXV.H `.6.[.r.3.{ (  .,.N.V.e.A.).N.| -X'.k.N._.5.n.).N.A H 4 = l G F k.] w A w ..4.H 7 f l F 0 ;.,Xk._ '.].l 4.} P %.I L.} I 4.f w 8 ] N.5.[.).1X[.8  .!.y.&X!.r.6.4.:.=.f A  .H 7 l ` ;.I = A H e./.V.3.]  .P } 4.=.N.lXuXk.T l Y.Y.%.G | Z.T 0 G ] 4.=.c.} 5 0 q f F l P 4.,X'..X[.( l F '.} ;.%.].:.0 G F 0 : d :.5.%.` _.V.w 0 _ '.[.} n.| F | l $.,X` } =.` =.oXqXL. X|.L s z =.x.| z s s s = %._.wX1X7 = q 2.4.L.I.P 0 ..A.5._ z 0 L s s #.=.w w e.2X5._ j.P.6XlX%.4 ] 5.| ` u < i ; F O.h T d 4.;XC.} } I H Z.A 4 k.;X5.4  .n.[ X.q f : * j F %.H N.1.q.;XZ._ Y.xXiXC.z 0 : j P s :.4.P _ G 0 ] 4 %.].F } ].N.] { 2.l _ ` L P + 5.vXZ.0 } q z | l l :.C.5.} Z.G l F z C.Y.G $.k.n.G | k.k.F =.Z.I T =.;.Y.| f I _ 4.'.Y.z * =.n.| Z.6.[ F.).4 f 5 * f f j.5.| I s L =X1.G ;.n.4._ | 5.'.Y.;.H k.C.l G G H [.6.G %.5.l 7 ^ ;X5._ $.} #.l F r q.B.G H n.F.q.1.* q 4 Y._.2.7 l 5 5 [ A 0 j m - = =.` =.G I L.} | 4.I 4.k.A } } Z.vXk.l k.] r ] ) { 1.w  .1.[. .1.] l '.k.7  .4.| } 5.F I Y.k.4 d 0 f G f P k.G 1.iX=X4.P O.T } h.f A ] V.1.0 f | [.6.N.A.A.6.6.N.G e A G G ;.Z.Y.%.2.F.",
"V.6.k.'.n.;.k.6.f d z %.l f 6._.] N.:XN.).rXrXe.D ,.[ ] 6.2.3.rXA.] 1X[ 7 H H A F } _ T.4.F ` | ] %.:X6. .G %.} l z $.4.=.` 0 0 f I F F G 0 A.1XN. .k.C.L.%.G | C.4.G } C.I d F 4.| 6.vXL.F '.<X| 7 e.>X/ ) <.) 3.N.'..XqX=.G A.| '.-X=.} 4.| A 6.6.3.,.o.6.Z.I f x.d & I :.F f Z...F 4.H k.k.G | ` P %.N.C.4.G  .6..XL.5.T | 8X} } A 8 f ].7X%.| C.I.I ' T d z d P x.Y.4.4.;.] I 0 q =.I 4 =.:.F =.0 5 0 0 z P 4.=.C.C.k.k.%.l j.| 6.N. .Z.m.L * z F  .fXe.w 4.V.n.F 0 w [ G A F = 0 $.z * u : :.,XN.6. .n.F $.J.j.' *.4 + 5.4.4 f u i h m Y L 5 d z ]..X4.0 l G _ _ 4 H Y._.l 5 m %.Y.;X3.N.;.G n.C.0 4 _ | & F 4 l _ %.C.& 5 d f ` L = z j.8Xn.x.N.I L.L.:.z q ] X.] e.6.L.C.h h u : I  X'._ $.` I : I :.L j.Y.I l F P F F G H  .k.} z I T I ` f Y.<X}  .4.1. .G l G _ ] C.$.P m T #.L 5 G 1XNX).= 4 s : d F _ F w q z j._ w _ | 5.I %.G G _ Y.Z.I | Y.I | H q Y..Xn.1XuXG _ _ n.] l I F P l 5.;.o.V.] 4.F.).o.r A F * q f * q d * * f 4.$.L - : s -.#.s 7 _ ).;X[.:XZ.L.} q q l %.L.5.0 7 7 S 1. .8 %.I 4.6. .N.C.l F 7 0 0 f G ..H | k.7 | H q d d 5.N.q + f f A.1X4.I | z #.=.` d f |  .I I F G ).F.H 2.6.3.6.6.I A ] w w B.%X).D 1.Z.",
"( 3.[.=XC.%.%.w f 4.C.uX[.S  .:X[ ] N.H A %XNXF.[ _.B.X.6.6.6.6.A.] ;._ _ 1.= k.%.G 4 f 4.f 0 G F ] l w H L.Z.5.C.4 0 T T 4.} L s f f I q ..).pX2. .A.N.%. .).6.I f w = w P $..X<X1.N.N.0 ` 4.G w ] ).~.e.!.V.6.e 1.C.:.} _ A S H ;.4.f } l H 1.).~.V.e.V.N...7 = P d o : f | H = 7 l w 1.'.1._ 4.%.k.f } 1.0 4.=X .,X;Xk.0 : P z o r 6.| %.5.4.I #.* m h.z.L I z ;.=.F & G %.I A ..=.I f ` ` 4.F f = f P 5 l } I Z.6.G J %.k.] 5.1.w B.e.A 4 L P $._ [ 3.B.] H [.vXT.& ] V.k.iX=Xl 4.L.P.XXT.` T.,X;X_.;Xn.| :.*.: + O.I ` ].A.1.= + 5 * 5 5 4 G 0 0 F | C.q 4 l _ N.l 4 | I = u & I q.o.2.>X0Xn.j.k.4 H 6.1.| k. .| k._ 0 5.,X=.| C..X4.5 f =.f I | l %.4.C.:.I G ] ,.B.q.C.z.* & h u = 4 _ 5.q * T J.j.L z l d z I H } I 7 7 ..;.F 0 } P h J.$.+ s ` =.<Xz 4 w 5.1.A Y.).5.k.z *.*.5 q l l H 2.F.n.C.j.I L 5.<X<XA.}  X7XI | =X4.%.Y.'.F l | C.%.H | _ C.0X5.;.uXY.0 4.I F ;._ C.4.w q _ ` %.MX[.3.;.l Y.N.1.S _ C.Y.} f d 5 5 * ; *. XL.4.h : P 5 5 s T _ '..XZ.tX_.A _ 0 q 4 F } f f q P k.N.A H w G P _ k.I ] 5.,X6X} ].lX6.6.G w k.pX%.] 5.4.j P G | T P 4...1...H H I G =.F } %.w 5.5.G =.} | k. .D  .>X .7 0 0 N.k.1.6.`./.^ q | 4.",
"e.1. .G 0 0 Y.A.w A 1.N._.D e A. .4.f 0 F _ 5._ Z.L.w =  .Y.6.).;XsX;X6.).F.).7Xn.f l %.4.F =.:.uX5.= } ..k.4._.2.1._.1.] _.'.'.f f n.Y.| H ;.H e A l N.6.1.N.rXN.A 0 w I N.n.7XL.H 1.4.I $.I A  .).>X`.{ 3.] H _.=XZ.F = ` ..H H l %.k.P I I  .).V. .1.I = G G _ 0 5 > : j..X .1._.Z.1.[.[.6.n.| 4.5.l q ] [.).;X).0Xn.0 h.x.} d 0 N.B.6.5.1.4 P m.5 u P I L $.| I q = = } ] 4 6.>XV.[ ] [.L.5.=.4 f q } :.I '.'.N.).A A H | Z.L.w | %X_.V.0 + ` ` '.A.e.e.w w A k.-.F  .[.| k.wX!.&X$X .;XrX[.=X] G A  .N.6._ d ; x m.:.G 6.C..Xw f *.5 &  .[._.).`.A.Z.].X.r q.N.A.]  .n.H 4 z l 1.q.H ;.%.$.*.O.& o | q.D F.N.^ [.H 0 = k.lXL.q %.,X7X;.f 0 f _ Z.<Xm.+ :.m.I 7 ^ V.).pXY.= 5 F Z.%.w ).A ;.} * P CXJ.X z z G :.F 4 %.I & F 1.G f _ m.Y Y p.l.Y T < i T h * ;.0X>X1.N._.).=X;.I C.1.n.6.,.{  .e.6.m.j.' j.Z.%.5.k.4 | 1.l } C.I C.Z.]._ Z.n.;.C._ _ F C..X=X4.=X4.4 } } ` F %.Y.4 = } 4.k.Z.Y._ 6.| f | I w _ q ` 4.P h : + 5 ` y O.,X.X-Xm.f $.|.L.O.Y O.$.m $.$.* =.4.= f ..] =.P G %.].7XY.4.6.l o #.I C.=.0 } x.m.T L.I.G 4.f l C...A %.1X5.: -X<X0XT.x.-Xm.= I Y.5.k.'.[ 1.C.L.=.m.P F z = f 5.).;X_.A._ H %...] 5.%.F S ] l F F j.",
"`.6.A P _ ..1.Z.V.Z.F ] A.{ V.2X;Xk.$.=.P F f H A w f 4.G 0 A Z.6.1.1.q 4 G Y.k.G * 4 ;.q 7 _ | _.k.;.=.G I V.X.e.%X6.] _.:XA. .5.C.C.;.;.H H w J S 1._.] A  .5.H [  .6.[ | 7 %.} H >X).4.P f Z.N.V.%X] w _.C.;.k.k.4.-.` ].| 6.%.w ] $.F C.G 4.1XN.I | 0 = =.| H H %.,XC.f | H [ _.%.l Z.,XF 1.N.l f & q =.).1. .1.[.N.%.L. X=.=.1.] $XZ.5.N.1.;.l f 5 * 5 $.5.;X6.` F d %._ P ~.1.6.).B.4.| L.k.G z %.:.$.4.c.Z.6.F _ %.'.L.=.K.7 A 6.6.1.f * - 4.4.] [.F.S :X[ | 0 f  .[.A ..V.w.!.%XJ ] >XB. .l 7 * F l l G z d d x $.P ] 1.V.H _ #.F F B.A.:XF.B. .l n.z l %.6.q.H [.0Xk.| 7X=X2.1.^ 7 f z s : d :.5.] ] e.A A N.n.L.F = l Y.).4.A.5.} qX].& f } j.Y.F } T w 5.2.[  .[.pX$.z Z.T.%.5.:X;X$XY.F :.6Xx.I f m.].qXZ.w _ ] = } k.l q l f F h.d u h M g - X g L $.%._ l A | =XY.| | | ;.1.( ( >XnXq.4 f z z T.4.} _ $.z A G I 5.q = q * I ;.0 G %.f l L._ 4 _ Y.I q 4 q l ` _ _ G 4.n.k.5.| _ ].Y.l  . .` 5 5 | ;.` I 5 : & P oXJ.j.; m 5.| ` } L * h z.j 5 h h j L P s l f 4 w 4.k.T ;.:.,Xn.} f k.A.%.P $.} j.P d F 0 F I 0 * f 0 0 } 5.;.} %.N.5.#.5X1XA.:.K.x.0 * F 5.| G ^ 1.1. .5.x.L.P 0 H 6.Z.N.4.Y. .H _ G ] ;.G I l 7 G 4.z z ' *.",
"N.| f d I | _ 2.).[.Z.V.6.2.$X`.6.J 4..XC.n.6.] _ Z.-X6X%.= $..Xl 4 = 4 F f & & & A ).;X .[.6.I } '.8X4.+ } N.[ ] 4.f .._ | G o  .;X| f F l _ ;.N. .).pX6.D X.w  ._..XrX6.S A A H A J ^ ` 0 I 1. .J ] 4 z T F f A %.:.x.* T H %.5.7 4 f l %.G q  .6.L.| * * F 0 | pXaX/.`.3.1X6. . .n.5.w H w 1.N.5.$.& 0 = 7 q P l k.N.%.6.I q ..A.1.[.;._ ;._ ].4._ | C.C.n.[.3.H C.m.'.uXx.%.Z.X.S ] [.%.] L..X4.:.T T P j L C.5 s F P =.F * & & P G = & s h ; } j._  .1.] k.;.%.1. .] =.1.N.3.,.,.V. .G  .N._.C.T s } I H _ n.Z.n.:.| 6.S r w 7 I $.' 1. .[ ^ 0 z 5 p M u d 4.n. .A.5.5.Y.} [._.X.8 2.N.z I 5 z _ Y.k.Z.=X] l 7 & n.7X4.w S V.[.%.4.} ;.C.I q P q 7 G f :.n.| w 7 * = ] j.*.F z L f I 6.N.N._ 5 4.'.=.d 4 ` 4.G | f 4.Y.j.m.4.5 q f F L. XI z 5 O.v y h j.*.#.& 5 d = z z ` L z T & H ] r D F.A.;.q F *.L.Y.%.l F | 1. .%.L.G f q } Y.].} l 4 w H H w = ;.n.} G C.;.I F G T = & 5.'.'.G ] C.G G ;.} I j.I } d } d ` ` + F 8X6Xj.d j.n.| F I I.$.P : s h h Y F 5.;.F f } F 4 F I = ` $.K.T 0 F 1.).C.z * } 8XT.d : #.m.$.d 0 = F F G $.I.6.G f f #.L P P z T & F j & T l w 6.3.e A w G z f l 1XyXiXZ.).G 0 n..XZ.L.uX.X=.4.4.;.I T d P.K.",
"G x.T z :.q | ).6.w 6.A. .6.q.D J 1.N.4.k.N.H f =.'.XX=.$.: f } q G x.P :.P 5 _ _ D %X[. .B.6.| G I T F s =.C.;XZ.1.f F n.] A H Z.).5.k.%.T P %.1.w w 1._.] S 1.).,X.XuXN.1XiX1. .6.B.[.;.:.n.2.V._.| F I z f L.A.3.w G _ I H l * f 4 = _ k.| =  ..X%.& 5 : P 5.<XV.r.D 3./.,. .V.I _.vX;.l S N.1.2.G d F :.n.C.| d 4.4.I ).7XZ.A | A._.l * S  .q.5.5.F.[.;.G S ] _.f z.m.I.K.f [ ~.[.S S ] 5.n.m.oXm.P : & s $.` * & d z T j u x o s z T =.I.$.=.j.K.] A A w H 6.rXrXB.4.F _ 1.6.1.r [  .[ w G } $.z z 4 0 _ N.4.;.[ G ;.Z.:XD 4 q 6.<X].=X;X$XS 4.'.m ; p >.: f F  .n.] G Y.I 4 ] ;X| 1.N.= q F P 5 $.6X%.H q = ;.;.& I L._.`.3.H G %._ 5...q  .} I [.4.` I P | $X[.N.] q d #.m >.G G } l _ } 0 Z.G 5 & 0 z 4 + d G l _ 4.4.z F = z `  X-XP ` =.d u : 5 h O.T 5 q :.P z } ` T m * z d .XA.[ 8 l n.X.4 ;.I G 5.f l d 4 q.X.7 } I 4 w m.` ` | l = l 6.G G 0 } _ F _ 0XqXG 0 $._ $.G _ | 4 I %.A w f l j.d 5 d F L d s =.h.j I 0 | I = d C.;.G I T 4.oXF 4.C.j =.;.B.[ = 1.=XrXI F F P =.+ = f 5 & q H } T s P j.J.L h :.x.h.j P 4.4.f } ].4.G %.iXL.Y d * G T =.j.z d =.P | X.&XDXB...P l T + = [.%X[ ] Z.G F } k.C.} F k.4.G I I F G G _ _ ",
"P '.x.x.,Xf k.Z.5.} G A ..n._.1.S D 6.;.N.6.H _ L L 5 d L I l q G F :.j ` z.| 1.2.r ( ,.{ F._ + q = z 4.P..Xn.1.=X0XA.;.n.^ ^ F.1XrX_.A f } x.%.Z._ A 7 A 1.n.Z.1.f %.k.C.Z.).|  .V.[.N.G A 1.;XA ;X).k.| f 6.).$X3.( $XpX%.A _ N.).L.[ :XA.%.] 6._. .0 5 z h.;.H  .= e  .] ] 2.1.Z._.1.2. .w A.N.7 l G 0 I n.4.0 = N.Y.%.} 4.z F n.C.G 4 A.=X;X2X .e.).e.[ _ C.1XwXf & f F P ;.1.1.1.1.=  .'.].T q z z 5 5 z z X z ` P J.m.5 z d * - y y m.6X=.' d : F [.:X .D ,.).2X$Xr 0 k.;XA.G f 5.| 8 | l d + 5 m _ G Y.2.w = 8 r q } _ * G w q =.` * | 6.^ _.} = 5 s *.h P 4.[._._.S _ f | 4.%.k.I 5 f P } d z | } d z = : x.6X| | S 6.D $Xe.q f l P n.:XV.H H 1.5.5.0 l N.sXpXn.+ ; O.#.' ;.A.=X_.A.] | 1.0XA.| 1.L.:.-Xj.5 #._ q G ].=.} F & : f q F G f _ P f $.: : 0 G '.F P ^ S Z.` O.u 5 5 | N.).[ 0 H 9 X.n.* _ =XZ.K.K.l [ A S l 0 5 G = = } _ ] _ w | | l G f & 4 H  .4.} | F T oXoX] 0 q l 0 F w w :.;.z L s L h.P z d 5 } k.P 1.4.: * f F f P T z =.0 | n. .B.e._.6.D S F.rX} l f z f } ` ` 0 l } ;.;.$.P ` 5 d z 5 d ' L z m.qX4.o z } 5 } I 4.4.5 z P P 0 z.T.f I.6XC._ 6.V.N.H A 0 } } F 4.] 6.f 5.;.} =.5.5.5.` P | l f = G 5.I 4.%.4.",
"=.=.P F ;.C.:X_.;.n.H P q _ _ G Z.>XA.q.B._.rXZ.z ` + : L $.L.C.Y.4. XI.I $.N.;X$XV.%XwX8 2.C.G C.5.} m.T.I | 0X5.=X_.q.A 6.o.8 A 6.A w %.L f %.,X;._ G 1.'.n.%.Z.m.f P N.l = S  .]  .S l G Z. .8 ]  .;.G G N. . .:X2.2.V.l l 4.} 4.n.A ).1.7 1. .] _.=XG K.'.F k.L.5.;.C.V. .w 7 f 4.Z.iXpXB.[ H _ =X.X4.w 4 A .._ 7 ] %.| q 0 d z 4 4 _ NXZ. .Y.r 2.3.D 2.4._ S w 0 5 s q q _.e.3.!.e.6.[.4.] _ T F = $.].Z.f + *.].d z f P = T *.u ; i m.n.G 5 d d z N.6.5.[ 2.o.D 2.Z.] I Z.Y.] z =.1.q.q ` J.x : z.Z.A. .4  ._.5. .6.D q 4 q q l = q %.1.l l 6.l l F 5 T J.:.l G [ S D | f z 5 z :.: 5 f l H } 5.] G '.I d L P P oX0X1.%X~.3.nX%.q *.l l 2.3.^ N.Z.G f 5 _ w ^ q.} g p M z 4 L.0XN.Y.).q ] X.H q.X.1.6.=.:.m 5 s * ` m.$.j.} $.P P s T 4.4.;X'.k.4 P T Y s I _ | =.^ F.6.q ` O.#.T T N.[.Z.| ] 2.).1.} Z.lX=Xl I k.1XN.q.Z.d I z z Y.=XY.Z.Y.[ |  .6.| G A  .tXL.5.l z T ` P G ;.7 & = d F F C.]._ f } f T L ` '.K.j | G 0  .%.= h.4.z ` 4.` f z Y..X] yX^.[ [ B._.r [ Z._ 0 = I P :.K.h.L P m.%.I <XSXJ.' z * * #.I I z : 0 T j.x.F 0 } z * 0 f I $.5.F j P =.` $.C.= A 2.H H G } G f ;. X` 0 q 5.Z.1.k.4.4.Z.C.| I 0 F %.5.6.6.w ] A.",
"` f Z.7X).H 5...l l G d z q 7 G Y.A. .l A._.A.$.f * z P z F l  .] ;.P.C.I T.C.F.$X$X~.1.4 n.Y.%.Z.K.C.I l & F =XY.tX$X%Xq.%Xe.2.{ H  .P F L T n.} z f c.L._ | %.4.L.L.A.B.B.~.%X2X6. .tXN.2.:X6. .1.[ | | N._.G P $.=.d d s l s s m q J ,.~.H X.e.{  .] f T x.G 6.Z.] A.[.1.7 2.6. .1.4.).[._.N.Y._.N.Z.1.= H [.:XiXD N.n.] 6._.*.` T 5 | j.H %.l = V o.B.$XZ.0 = 0 _ I =._  .1.B.wX).1.V.B.6.Z.] Z.1.4 l n.k.f q <Xn.%.%._ ;._ ;.=.* z #.L * j #.L * x.=X).8 _  .[ 1.G ] I T z | 5.$.l N.>X%.C.T.5 ` P H 2X_ = l 4.T | ;.[ B.$X^ l I _ _.fXrX6.Y.<XI _ %.P ` I d q 1._.X.G 0 I z d T d d 0 q I ]  .H  .N.rX'.z m P.:.$.Y.q.aXnXe.5.1.` I N.n.2.,.7 H _ q 5 L.1X1.,.Y.T.+.v T 5 I A.k.L.5.I | S [ V A D n.Y.:.z ; i + i T m : * z $.h.` C.I.f | lXlX<XJ 0 } ` s T d ` $._ 4.F G m.6XL.l l T 5 z l } V.e.D _ .X'.F 5 & 5.[.X.w 5.h @ m } I ;XV.^ V. .n.A.6.f * Y.5.Y.A.'.Z._ |.d 0 q G ] 5 F 5.| w ] ] Z.Z._ l w f } '.4.F f 0 G k.iXT *.T + T C.f ` uXY.;.).tX>Xw q.>X).,.{ wX>Xq } h.F * T :.P d z * 5 L T L I f 5 d f d d d 5 * 0 } T F 4...G G 0 H k.L.).4.:.j I d ` '.f H 5.1.I k.I.I f 5 L F : %.6.[ X.w 7 q ` } P G & q } 4.4.G 5.%XF.",
"| k.5.Y.N.q 6.Z.f 0 } $.} I ..P  .H A G 8 l  .;.T.` T.qXd l | 5.6.n.z 5 f j.| 9 D  .e.).| l _ F I ;._ 0 4 0 4 ] _.).3.`.`.e.V V.{ 6.k.0 * 5 $.n.0 5 T 0 f 5 F _ f } 5.G k. .6.6.Z.1.[ Z.). .;.G 1.N.%.).5.7 N.} z m : j J.I F P ; Q m.;X>X>X).`.>X:X_.l I L.%.= w G q ] ] H  .6.H  .N.6._.Y.6.1X:X6.G  .6.N.] 1./.!.B.1.| ).wXN.d m m P #._ $.L.}  .,.q.>X$Xq.I =X;X).1XrXN.J H  .1.9  .6.w 1.N.;.6.] S 1X1X] Z.n.5.).N.H H = 2.Y.G 4 T.-Xd + Y h.F x T Y.q.5._._.2.D ] L.;.5 f L.[.5.4 q.B.C.l l J.j 5 5.;.5 d 0 4.6.= G 6.:X_.q._.Z.;.$XF.n.} .X0X] f f G 4.6XiX'.=XtXrXN.} n.;.=.F I 4.N.4.6.;XV.6.A. .7 I d i M j * H V.3.#XtXn.Y._ 7 n.N.Z.;.G A f _ _ | H [ _.'.#.; u s z ;.L.4.` j f } _ N.[ A 6.=X} F 5 5 x z.O.U m s.L 5 s L d j T : ;.6.1.6.1.l $.} } d z u : d P.x.: $.4.j.oX5.z z 4.m.;.2.~.V._ _ I z * o | n.r V.>Xj.i * 5 q ] F.6.;.q _ 4.] n._.N.5.[  .<X X=.T d z d .XL.l <XZ.n.N.| B.pX1XxX[.A I %.4.G I F } | %.C.$.P L + z x.d z C.F ] D  .e.2.F.X.w D ] 2.e.G j.T 0 5 z z :.h 5 u h 5 z #.z 5 f ` G l =.` ` s m.T.} f %.| ] C.%._ ;.[ k.k.c.= j j.` I } _ _ P | 4.%.F f } P s & ;.B.~.X.w F F l 5.].4.f 0 f } 0 ;.Y.V.[.",
"4.A.1.G H =.I C.%.z G %.G ;.k.k.A | ).[ A S 4.L.| L ` | _ 1._.V.6.Z.$.$.:.T G ,.2X2.X.<X| = 4 F P I 4 l ;.f q 1.Y.N.B.F.%X3.o.).A )..Xl : s 0 = q f $.T h.'.T P z T $.0 I s 0 5 : } z > } x.F G 4.} F G F ;.| f z s G k.Y.V.;X,Xm g | A.[.3.`.wX).;XiX5.I j.x.C.| w N._.[.k.[.V.q N.Z.[ H ] | 6.] G I Z.<XY.] 2.`.F.1.A 5._.&X2.& ; y s :.;.l $.;.A.).$X,. .).P _  ._.[.`._.rX[.5.| _ _ _ = ^ _  .[ N.H n.tXH 6.S A 1.D _ A 4 | [.Y.1.1.C.5 d P m.' & d | ^ [.nXr.C !.&X3.V.A. .| n.=.n.)._.Y.} n.lXj.T =X} z T.A.A.;._ 4.} q $.4.` _ :.z * 5 P 5.4.} %.4.w 4.Z.;.G 6.F.$XD = 0 4 D ).).5.] 3.1XvX>X2.F.7 H 6.| 5 :.K.l 0 [.[ ] l q w 7 1.L.%.l ` l k.B.>X0X6.H H =XT.P & T  X XP.j.u - ; h P ` F w I K.Y u 5 j = _ m.P z ' I.=.d ` & o d } G | 1.6.e. ._ _ $.F j ` ` *.m j.h I I + ` L.I.l G | %.4.6.[.pXN.Z.4.` z m.n.[ [ ).A.5._ I q 5.} q F 5 d T = N.fX`.0.B.[ * } | f z =.f 4.Y.q 4 k.%.n.N.] D w n.[.;X;Xn.F & G T -.} 0 L.4.: #.` } Z.L.I & 0 C.5.l ).).$Xq.[ [ H 7 * 4 d z + d #.f :.h x u d 5 s s z z 4.m.L.` F $.;.<XZ.} C.4.I 4.4.f  .k.N. .= G 0 4 0 I :.=.%.=.P ] P =.0 l 0 5 j P d s w 2.V.7 H 7X6X5.} P =.x.P 4.1.!.yX/.) [.",
" .>X:X6.G l 0 P z $.Z.I -XZ.} n.0 H 1.^ | l w F 4 * z ].=XH  .F.A.n.d z T ` H  .V._.F.;.0 ;.j.0 T -X=.Z.k.P A.[.L.f _ | Z.n._ 2.9 2.'.F d f I k.6.F f $.c.iXx.& q T | d x.j d m.XXJ.T * : d d z F C.7XF %..X4.l G I J H 1.[.H N.j.d %.A ) 9 V 6. .V 2.Z.] 5.| = l N.;X[.;.A S H 6.N. .w l _.vX .l ..w k.[.Z.1. .B.q.H l l N./.) = u L d :. X} f l | 1.6.e.`.= G I & { V.{ 3.pXvXn._ F 0 |  .r  .).5.].5.| 1._.Y.l l _ n.N.F ] Y.| ;.]  .A.n. X XK.' x :.;X6. .1.V w.`.w.) ,.F.n.H N.,X X_ ).0X[.H %.$.q | ` P j.1.2.2.=X5.f f I d P C.Z.: L L P & P.FX7X_.Y.0X| = l 5.2.7 * 4 H H H ;.| l S :XF.V J  .B._ %.j.z d F l 0 _ 0Xn.4 + ;.n.4 [.tX;.m.#.z Y.5.F.$X2XpX[.qX Xh m T '.-X$.: s : O.z :.:.n.Y.%.f 5 5 5 5 f n.I l P _ x.j.` :.* : :.T.$.Y.>X{ { 6.A.[.=X5.=.j.n.$.s * ` mX=Xl l _ %.l 5.;.z q A N.%X6.;.f f d ;.:.4 Z._.6.;.q I } F q f P I z F = A ~.e.,.( ( ] L.Y.d l $.} ;.f } 5.] | Z.N.;. .).).A.I '.;.0 f F } F 4 w 6.} 0 :.T.K..Xn.l | 5.l ;.w 9 2. .3.q.w w _  .w f L j } T $.:.L P.T z ` $.q f Z.Y.I %.'.]._ q %.C.5.$.5.7X$.F w 0 } ;.;.| =.I ` L L ` I F w G ] G F = 0 f f + } x.P G ).2.] 1.).[.P 0 * 0 4.=.%.1.[.$Xe.V.B.",
"] ).[ A.=XF T ` T.,Xm.f Z.F l ;.] 5.;.n.6.| n.C.G F F 5.Z.;.6.:X_ G #.*.| G ;.q.3.( ] G ;.;X=XG :.].Y.K.j.j.L.T.T l ` d d f z l ] V.6.l = f 6.rX:X .7 w | Y.N.& 6.Y.| =.d & z x.J.=.z j 5 * = 4 =.Y.c.} %.} | | [.N.S A  .6.F =.$.| Y.1.B.V.6.:XV._.A.f ] %.f & _ 1.G S [ ] & l  .= 7 = 1.B.6.w H 0 ] '.4._ n.A.2.S z 5 ` l  .A.;.0 _ } 4 Y.A.;.= 1.rX(  .;X0 & A D t.yX*X,.{ } d s ` z _ | l | _ * G l l z 5.;.* _ A.'.L.G :.j.4 4  .N.2.q.6._ >.:.`  XN.2. .= V ,.8 A 2.] 4 w ^ _ z q ;.B.l 4 8 ;.n.T q z u s I  .A.5.w w  .C.l F j.l ;.} | F q T '.'.Z.V.NXC.= | _.$X6.A G f j.z 5 5 j :.=.G ;.=.w ;. .G 4.= o f 5.I } kXz.d z F [ ^ S _ k.:.F = l & 4 ]  .1.H %.u i f z 4.%.f ].1.X.NX:X4.] 2.F.wX3.w 7 f I 5.C.` 0 z s ; j *.I d 5 4.T.` l ( <.V.r.6. .l I } 5.[._.I l k.[.q._ l I F d 5 s z 4 q A D A.'.5 0 f l l C.tX).n.*.5 P l l n.;.[ D ^ | _ w l w ] n.6.Y._ ;.P *.` I l l %. ._ _ | I q H =XGX.XI =.P z T I.F = F 4 F P } T.j j z | ] N.Z._ Z. .H _ | q.V S ] ,.[.l 5 z f =.F d z *.L.%.| 4.l 0 0 4.Y.A 7 L.iXn.f [.Y.n.5.| z f l F = } G d %.P 4.$.z 0 = G C.%.L.k.` F 5.} I $.=.5.Z.P f n.6.^  .:Xk.G =.d m.K.x.` P 0 G 6.;.| ",
"N.[.H 1.;.F P #.#.z.m.f 4 0 H ).1.D q.6.n.=XA._._ q l I | A.X.q.q _ :.j.;.Z.<XVXrXH ;.=X.Xm.$.d n.` :.` = l ` P P m.' : P ` z I N.`.B.H w 0 w ] V.6.B. .1.B.6.).).).Z.[.f + ` $.:.#.f } | } ] ;.n.].].f l ;.[ J e. .e.q.| G ..N.5.<X>X).`.).iX,XL.=X'...[.uXx.5.[.Z. .5.tXA.H ] 6.G e 6.V.6.w 0 _ w [.qXL.P A.VX>Xn.$.=.J.P _ q.4.T.} | H N.B.D l D 6.6.6.V.%...n.6.{ ,.y.) 6.k.x.*.qX5.5.Z.n.'.* z ` f f C.T.I _ %.f %.z f $.l m.<X).~.`.[ 8 l f 5 + z N.$X).^ o.B.H n.k.f 0 5.>X[.%.z A 5.5.H  .[.} ;.iX'.L u 5 & 4 q P I [.N.;.5.>.4._.4.x.uX>.= = q 4.6.A.'.q F | n.L.;.5 s h h y : h d s j =.;.I ..l 6.x.q 1.).B.w d s * I $.q ] ~.] 2.:.+ 5 z f 5.| 7  .A * $.h h _ ;.n.H 5.0X3.3.%X$X`.{ 9 ( e.~.e.).=X;X5.` f T j 5 - L z m.=.q f 5 G l X.>X>X%XA w ;.] } ;X<XN.F | A A w * N.<Xj.: + s } 4.N.] 8 H } 5 5 ;.C..X=XA.;.=X#.L j.f _ n.1.A ] q.N.1. .G f I .XY.Z.| %.z z $.| 4 f I 6.6.;.$.z 0 0 = q f * 5 f I | 4.0 = F G F %.x.I.z * %.mXA._ Z.q + 4 l 1.Y.{ 6.V.{ t { q.| G m.n.5 & * o 4 6.1.] 1.1.l _ N.q 0 = f A f } 6.N.%.0 0 :.P q $.6XI.} j.T h m $.| f 0 ..k.F q f m..X%.F %.6.C.` l 0 I  ._.V.%.] z z z j.j.z.z j s C.=.G P ",
"%.[ 6.6.%.` : 5 : s z f ;.2.;.$XB.;.H 4 w H %.| = _ n._ P  .] 4 F 5 s T _ ( %X).k.'.k.;Xn.& l j.j.s z 5 5 5 F ` $.-X4.f 0 l I H A B.4.Z.Z.l S >X~.e.`.B.] [.[.&X>XD G } | T c.m.4.l I k...J N.N.Z.5.C.%. .F ] [ ).3.~.<Xk.= 1.rX'.` e 9 { 2.] I | H w 1...6.5..X5.6.;.Z.B.J ] C.[.4.A ).).1.e J 2. .G x._ 4 Z.1XtX=XY.| | | 7 1.Y. .l :.;.4 w 7 = J H r 2. .H 4.| w l ] _ G l q f J.,Xz T.<XY.].l 0Xm.d <X4.n.L.=XiX5.>.$.I  .N.N.A.B.r.,. .S f 5.I 0 f 1.).6.H 6.H %.5.z f H ..2.<Xj.q 4 | [.vXtX[.] ;.n.1...F s T F e = P 4.* *.P.' $.9XkX$.=.G c.f l 2. .,Xk.5 d 4 f x.:.z s + u m * ; P I.m.F F l %.=XZ.F I Y.F.$X| 5 u u ' z ` 6.B.1.[ f z T T n.0XY.'.6.= T $.Y h G N.8 D | G  .8 = q A q.N.^ _  .| 5. .k.z z } P T d ` _.=X;.} ;.4 = l H { ( o.bX6.] 1.H l %.4.5 q 4 4 A H S Z.k.z s 5 h 0 C.4.w w & + & * z j.n.N.=X| F C.j.} P I F l 4 ` 5.D N._.Y.j.;.C.=X_ 5.;.'.Y.=.| G d 6.xX_.] = ] 1.%.H = 0 f = * l P l z | F f f 0 : f 5 d | L.;.Y.n.%.A.).{ ,.,.) &X^.w.V.,.e.q.] B.,X` d : 5 & [ A. .5.Z.S ] ] f A 1.Y.f l I 4.'.1.[ %.].C.= 0 j.-XqX[.1.5 #.'.%.0 } k.[.L...G F z G } | I 5._ f j P 1X$X2.).P s * s s s j z | q f L & s ",
"I 1.).H %.f s m L O.q | ;X5.S B.F.1.| 1.] ] l l G Y.C.<X,X5.F f z 0 j #. .,.V w 5.x.:._ I $.l >.$.5 5 5 5 m.6Xk.P T :.| =.G G  . . .6.)..X1. .] w X.S 6.).6.e.V.B.H 1.A ..=.:.} * 0 G ;X[. .V.S J 1. .G 7 q n.).>X;X~._.4.Z.).;X'.G I A `.NX} 7 n.;.6.F A  .1.G ] H 4 Z.[ w [ F.H _ N. .S = 8 N.1X1.;.0 5 %.[.| ] 2.q.^ $XwX[  . .l f 4.;.l ] 1. .D ] e ]  .G } P = & = l P.Z.5 5 L d f $.5 f :._ z F $.Y.n.C.I Z.5. X8Xh.f 6.yXV.= 1.6.A A 7 S ..f l _ S [.B.H 6.N.$.& d n.[.J 6.).q d q l _ 2.F.q.r 7 w G Z.f 5 } N.] P f d 5 * 5 P * f :.q 0 k.k.4. ..XN.;.f 4 5.=._ '.$.5 J.>.$.j.5 5 ' C.4.F + & C.n.4.'.[ 7 ] q.] 5 L z G ` ;.] 5.F.| q 5 L z.Y.Z.;.Y.| n.Z.x.:.= 1.;X) e.).G V.1.f 5 l A w l N.n.l f A | P h.l | P.z ] N.Y.| 4.N._ l n.iX;._ e X.A.[.Y...F F F 0 _ %.P F f F %.0 l 4 5 $.n.$.T ` ] D ` 5 z G ` f %.n.` G _ G | %.l 4 :.#.z & 5.;XpX0XZ.L.q q H  .N.).H & 0 F :.5.| 0 F } x.5.%.4._ F G  .n.Y.1XL.G z P j.I c.| T F G _ = ` m.I I n.0XtX2.$Xo.0.V.>X:X8 * o.`.).n.} ' m + H A.A.| N.;.q 1.] q A ..5.} I d l '.).,.:.P I q o s =.5.6.A : #.x.f _ Y.1.1.| f 5 5 z :.P _ Y.A.L.%.} = ] B.1.%.f I ` T h T #.x.[.%.=.x.: m ",
"H ] _ F ;.L u L T n.x.;.0 H ^ B.l 6.A.Y.C.%.4.5. X.XY.6X8Xx.z G l 0 z :.[.vX;Xm.= 0 G = T >.$.n.0XZ.w 1._ T z =.$.} q 4 } G 0 } k.] l C.K.` 0 e  .A._ _ N.).rX[._ ).1X2.tX] F $.= l _ Z.k.6.e.w n.1.l A 1.G _ V.~.3.2.V.k.4.1.DXC.I A.=X).[.q l I s l F N. . .A H e.6.B.,.[.:X1.S F.1.D J J  .4.).n.` = P f  .X.q.3.( _.wXB.{ ,.S & = _ $.l I V.A.r [  .1.Z.;X0 o s : s #.J.:.s ' j 5 d z 0 q 5.x.f l } } k.H l 4.l z Y ; } H A S [ H  .1.( H = 4 + I V._ = 2.V.F.1.f 0 x.lX[.J V.6.4.Z.;.G l A.$X .| $X[.1.[ l & 5.L. .%.F Z.Z.$.q G T z l 0 I .X .k.G ;.4...P F f ` C.} q G <Xj.I 5.%.I ;.4.I 5.F _ >.G 5.N.1.n.Y.{ 6._ #.x.5 5.4.7  .1.l 4.z P z f l l 0 H 4.w l I  .N.&X3.V. .0 J [.k.& & H k.& o 5 d 4 G l $._ q I 0 P | * n.mX,X} %.X.A.uX .Y.$XB. .5.N.G 4.%.l = l F } _ * & f 5 l ].n.l .XL.L P w F.| z $.P F q G k.j.l l } 0 w w l z f d %.A.5.A.| 0 q D 2.] %XyXF. .H z 5 * z ` T #.` P d I 4.;X;XS w V.6.1.L.T.P.=.j.4.5.C..X%.C.Y.=.= G z 4.;.l 4.4.L f [ `.X.[ _ w V.( 8 D %.d 5 $.k.k.] l  .Z.G  .k.C.I =.} I $.z.F G k.5.} L d F z f 5.1.;.f o F uXZ.1.7 A 4.f = s : 0 z * ] 1. .V.).I.k.1.V._ = d #.=.P z h.5X,XC.5.k.h.h.u ",
"G 1._ w ` z ` T 5 4.n. .0 4 4 C.5.G G ).=X4.G _ 0 ` 4.} =.=.P I ;.F d F 1.n.<X=.5 d | T d n.:.0 =X[.).<X'.k.4.0 f | G = %.k.G G I z P f f l ..4  .'.1.=.= A 4._.] w '.rX).4.oXK.F $.<X). .] ] V A 6.5.G 6.,Xk.6.6.w V.pXL.H N.B.A 4.Z.G n. .& & & G C.4.] _ 6.;XZ.4.A.] I [.iXV. .k.| w A 2.V. .%.[.} 5 z F ;._.$X_.$XF.{ 3.( 3.2X| z z :.C.Y.1XA 1.[.1.] 6.4.| 5 : j $.m.O.J.x z #.` P _ l %.Z.Y.Z._ vXlX .7 Y.C.| ` P : Y I J  .~.3.V.[.~.F.V.] 4 5.,XrX1.] [.>XZ.l 5 F L.N.V H 2.C.C.I Y.N.6.2. .2.A.).A.;X;XG F 7.E o F Z.k.4.%.l '.:.F F | =  .1.A I H k.iXk.4.'.$.l & $.l F l _ | A ;.1.] G ;.F z :.%.Z.q.[ 6.N.[.P d | G _ G l | 7 [.ZX} _ | } G T z l %.1.| L.k.[ ( V.%X[ = f f f q } L.| d #.J.z f =.F ;.;...l G f 0 4 5..XC.G Y.n.4 f 7 _ l 6.L.Z.4.;.6.;.| A._ | .X$.j m.I.F _ ,X_.5.1.| O.: 6.;XF ' P = 0 G l } >.5 5 f I ].Z.].m.` n.L.n.G _ | 5.w r q.{ [ B.>XF.;.f L $.j =.4.d 5 d P 5 4.Z.6.H w { 3.~.Z.I.x.o : T = x.7XZ.%.%.4.= = z C.Z.z z d h 5 z <X] 6.'.G 1X%X[ Y.=X` K. X` ;.'.Y.;.Z.C.} I f = | =.J.x.} 0 f 0 f %.0 } 4.f =. .A.=.> ;.L.7XiX_ [ 7X<X4.` | | $.| k. .] ,.,.B.7X,X;. .d d j : z =.0 s F %.N.] A ;.C.f ",
"<X ._ f = d *.G >.C.Z.4.A.A.n.1._ | H G n.].C.k.4.m.F f f z f m.L.1.f = H [ q G ` j 4.:.5 j T d f G } C.xX[.%X).[.;XB.6.N.C.J 1.5.H n.Y.$.I F 0 * q * F 0 P .XA.2.n.P T } } } Z.Y.;.1.6.6.6.[.V.A N.k.f = N..X4._.,./.V.] | N.r 7 Z.%.;.'.;.+ 6.6.[.Y.H 7 l f j.C.: & f z ` } G G G I G G ).S %.| ..f = d =.5.1.].X.] $X_.3.r 2.[. .` 5 F Z.4.[.2.).:XH [ ).:X1.0 q =.,Xn.L.=XG | n.;.[ ^ ;.$XxX).[  .,Xn.r G | 6.'.T.' $.L.4.] 1.6.$X_.[ { 1.~.V.]  .1.)._ S 6.Y.'.L.C.$.F G 7 ,._ 0 0 5 ;.] | ^ X. .7 = l 7.6. .[ _.%.= c. . .6.;XrXZ.G l 6.6.%.N.N.] I l n.'.k.1.'.6.| I l 0 4.1.G n.] l D 6._.<Xd L m.z _ ;.0 A q.[ d F '.).r = | %.q 5.1.w l ].P z ` f ;.<X].q ` T |  .{ V. .| f = G G 5 } j s #.:.' ` | 4.1.n.L.=.lXK.+ l + 4 ;.6.2.A.2._ H H G  .V.[ G N.$X6.1.N.A.Y.Y.T 4 :.5.:.m.k.;.sX;X%.M s 6.A.z z G ;.m.4.Z.T.f * & l F ] _ 6.5.= } n.I I w _ G 5.6.l | & k..XH 5.z x.kXf L :.d } $.z ` n.=X .^ B.>X`.2.| F + 5 5 * P ,X5.0 } l %.:.m.z d z z *.' ' 5 ;.4.} 5 m *  .).D 6.;.` Y.$.G } '.].A 5 G 4.4.: s F s L = } Z.6.7  .V.] r H f .X.XH z & 5.Y._ ] f A ] ;.l 0 = } x.m.Z.k.2.] e.`.1.1.N.N.` h.I $.} I G } q | :XwXV. .w e ",
";X).n.T d f 5 q m.m.k.=XC.N.2XG _ Z.G 4 _ n.%..XL.=.l F f F f :.L.$.P f ] N.;X].4.d z :.I d :.=.P F q F _ q.2. .7.{ 1.rX2.1. .H w w =.Y.| I 0 f k.c.L 5 + $.C.C.).).z ` } : I Z.I L.1XZ.l (  .rXrXS 1.n. .).).%.l D 9 <.r ] A.S S ] w K.4.* H nXV.S 7 _ 4.} =.$.O.#.T L *.T z f ].Y.5.'.N._.B.[.1.k.5.P =.m.1.6.%.6.n. ._ ] G 1.S H :.5 = _ %.6.N.1. .A _ | 1.6.1.} I 0 l 6.;.] ] F.N.N.2.N.2XB.H ] S w q  .H * w A z ` $.K.k.[ 3.( 1.( 6.B.).).e.6.w %.L.6.w w S .Xk.T F k.V.~.N.H } 0 z n.6.A.3.V.B.1.;X| A.2X:XA.( w f G V.{ S | .. .q.A N.H _ A.H E V.] ] .X7X .;.} A '.n.| k._ ].L.Y.Z.5.| _ Y._ G 5.N.C.4._ _ X._ l $.A.6.4 r '.I F I ;._ w | 4 m.qXK.l C.;.0 F L G l = 1.).6.f f n.| k.I.F $.T d 5 d f ;.Y.;.%.| uX<XP =.x.F 2.A.F. .6.6.D q S 1. .4 [ _.1.D D 7 A.1X| | | q 0 d } Y.Z.1.1.G d 5 ] N.T l 5.} 5.| $.=.l } ` 0 | '.n.f q 5 _ k.;._ H _ ;.=X4.| n.4 l H 7 l 5.).:.d F f | 6._ q 5.;.H ;.[.B.,.( H k.:.* #.qX=.| %.q H _ Z.6._ A.Z.` L.P j.m | G Y.C.z j.h + f 1.2.| ;.4 l G z d d | P f 0 z d } I C.T f %.5.[ J S [.yX[.`.H 5.,XL.4.$.} f w A A A.4.A _ C.` :. XT.%.l H r r ] ] F I | ] } | k.C.Y..XZ.A =.1X2.V.vX~.).A.",
":X_.| F m : 0 f f l } | ^ N.B.F.B.A.G ;.Y.F 4 0 *.$.P } q q f f Y s : =.2.,.[.Y.P s P $.I T z.L l ` P P 5 P XX].r ,.).B.J D 1._.%.G  .7 = S N.L.L.lX$.: P x.4.f I q q } I 0 ....} k.1X4.S H ] V.1X6.N.:X).).k.I q _ 8.eX2...C.A  .[.5.0 & = [.F.S w f I _ ] H =.} j.L s z =.=.f I ..6.2.5.7X;. .[ k..X%.P | H | l _ $.l l f P n.'.k.%.z $.4.%.k.S & [ | F 5.H k.4.} 0 l z F I H w _ B.F.].q.G 8 _ 5.,X<X .5.5.G q _ * h Y P 4.S A.rX6.w 1.1.).$X6.6.A l Y.4.A w ] k.P l F | B.$X[ G f } n.5.H S N.2X1.r ).;.] 1.,.V.V.[.f 7 ).`.N.w l 1X2.] B.A.).pX] w [ G o L.qX%.k.k.4 ].qX| 5.z d *.5.| I P } m.5.^ ;X[. .| d z } H } 5.$XB.F.;.I f T ;.| 1.)._ & K.-Xf ;.[.n._ 0 f Z.xXV.3.6.l j s | ).C.| } | $.x.G * w 7 d :.$.f %.L.7X:.oX5.l 6.6.[ Y.6.G F f A _ 1.L.[.B.N.).1.F.wX).[.rXn.T f + L L & | :.5 q F H q _ 4.F 0 P _ | _ 4.} l n.Y.6.A q H .X1X%.| G F q.;Xq.A.V.S r w ,.o.{ V.6.1.k. .3.B.2.A 4 7 ;.L.5.l w N.H 6..X5 l Z.=.0 F 0 I ,X'.q.6.=X:Xn.n.` G 0 z :.=XC.H 4 q f G } Y.5.;.0 } _ z 4.T f } I.P s P 4.=.c.| F f Z.[.Z.` G 6.N.1.I C.C.#.P.j.h.=.l | Y.Z.G Z.5.Z.I.m.j.F q } A.A.N.6.| I 5.).rXA.] F 5.;XL.w w 1.rX .] ;.H [ ] ",
"V. .L.Z.#.d l 0 _ $.G q B.`.0.`.:XX.$X<XY.f $.| ` T j.q f %.f F : - < h f A A.A.} : L z & z ` d z z j $.` F z _ D 3.,.V.A.X.1.2.N.`.[.H w H  .C.| $.d j.z.P 4._ 0 F P 4.%.G J A l F k.A.A.V.J w  .).B.6.] ] _ I %.%.B.%XrXL.q H C.Z..X$.j 4...= 0 P $.| ` 5.H * } } + d = } } & 4 %.%.= ;.Z.H _.[.8 A 1.l H f + f P z l G z z l C.;.= z =.C..X4.f 0 ..%.P ,XuX;XI P $.=._ 4 l _ _ 6.;.G n.^  ._.I 5 | ;.w 5._ 4 4.].5 . : & * w A.%Xe.2.8 w  .J l C.F 0 q 7 { ] w = } j.F } 2.e.).N.5 : f 4 _ A = [.=XJ A.=Xe D V.;XwXe.0 = H >XMX4._ 6.D q.1X:X:X,X4.1.| G ...X4.z ;.} d } =.+ 0 P L I 4 f ` :.*.#.5.1.,.4 * -Xs.J. X_ | C. .3.[ G 0 z >.C.Z. .).Y.| 5 d 0  .l q 4.P G L.pXnX .1.].E.z 0 F q l %.n.Z.].n.q H C.j.0 F 0 A 6.Y.f l I ^ Z.L.;.4.Y.Y.n.0 H | 1.Y.| f ] 2.5.,.$X_.F.N.Y.5.T I O.O.: I | ` z  Xn._ ;.5 f *.} J.$.H 5.5._ I f 4 w 0 ;..X} q 5.} l [ H ~.1X3.[ q.3.D C ~.<.7 ] V.2.B.,.D { o.q.'.j.5 * =.L.| ;X;.= f ] 1.n.4.f l l q G r  .] l 4 l ' ` f ` G l 6.1._ | ,XY.5 l C.'.'.| P O.$.d P z m :.:.k...%.-..XL = 5.;X0 F ;.^ G x.8X} s u 5 f f = } C.F = l _ ;.q f T F l 4.} ] H G 4.l q _ H C.).G [.).A J _ 1.5.] 1.A G q H ",
"D ~.>X2.^ F.5.w H C.A. .r.V.) ) e.V.q.6._ %.].J.x h _ w 5.5.l j j + - : P 4.'..Xx.` T P I $.h j #.u = %.5. .( V ,.~.$XV.X.6.4.[ [ A.1._.B.] H F $.L * :.F F %.F ..H q _ J ] 6.J 1.%.Z.N.1.:XC.] H 6.D e.^  .| %.} 0 F 6.6.I l I %.f '.:.F } | d 4.4.f F 5.x.C.G n.k.z G w 6.6.G %.1XY.n.%.k.1. .2.N.X.5.;.H = 4 K.P ` :.5.>.} _ 4 L.I._ L.T.} %.;.4 l l 4 F } '.'.:.:.j.G 0 q._.N.Z. .] [.1.A.L.f h s l e.V.| 0 | I Y Y z z x.w = 7 H H S N.[.k.s T F ;.H G H  .A 7 ] j.0 5.V.~.rX$.- u * F } P F [.tX|  .J 7 9 H 7.V.D ] J r  ..._ [.`.,.] V.H 4.n.5.:.T * x.|.d + ` x.0Xm.o z T. Xm.=.4.C.5.z i * } 2.B.S =XkXz.P._ f L.] w [ H = T z L.<X[.] %.[.k.5 4.7X6.& w q _ :.q <XZX5.G n.I.- 5 0 = ] 1XN.4.G q q Y.lX5.} k.k.B.[ 0 z * f L.iXI.d = l } G 4 4 F } } + & q D F.A r [  .] F 0 P h.s.Q : h L P ` T l ^  .4.4.T d $.k.| ).].| q z f %.4.T.=X0 n.].Z.q  .^ F.| r _._.o.V <.&X0.) w 6.} G | l A o.~.} = f 5 G A 1._ = l n.1.[ ] #.` z q N.A.D ] 4 A 1.k.4.;.=X'.-X=.<X$.q l P P G m.Y.n.x.:.h + f ` * y u P C.] ..].K.4.z.%.P Z.f F A.N._.7Xx.s + L I } P = 4 %.;.7 _ _ w _ :.m.=.$.;.| 4.H l '.G I S S l A f 4.] e E 9.A.[.%X^ [ _.] V.",
"`.2X).w ( { 2.=XL.N.2.e.%X/ <.&X2.[ 1.Y._ P l T u u d l l G 5 z : o s > d P f T :.j.=.T P } L j T d ` 5._.yXgX&Xe.D 3.`.] A Y.4.w G e w A %.] 4 f d 5 I | .XI.w G 6.G V.[.( 8 B.rX] B.)._.N.A 6.;.G  .1.( ,.| $.} 0 '.L.l f %.} I L..Xz 0 f $.* F F f d l F _ I = I L._ { B.J  .C.] %.6.A _ 0 w $X;X;.5._ I T f Y.L.| m.T.:.;.5.F C.'.4.` q 4 I | %.G } k.n.} I 5._ & q 5.n.2.S D F G } L.5.= 0 5 s z %.>XB.l P .X].J.j x P -X_.;.Z._. .6.B.). .+ s L.Z.| ;.q.V.2.%.4 C.:.F [.V.4.F s Y z j.5XT.C.,XY.= A B.).A = S 1XF.`.vX).| o 7 4 S A.B.G f l } =.F $.` 5 L f 5 F #.>.d o P j.d h m _ %._ 5.j 5 A 5.q.[ ;.f L I q f l I ;.=X5.A } f 1. ._.uXV.w H L.=X5.] =X ._ '.n.0 =.C.=.k.T j h d q A  .3.[ l = =.C.I _ 0 f 5.n.4.J = z P ` =.n.} ' 5._ | A 0 f  .<X-Xj.I A 7  .D r X.] H | 4.G z *.&.u F P : f = w H ,.Y.` * 5 :.m..X'.;.%.} C.I 5.T F :._ %.4.] n.).S l = H 1X6.D r.#XV.) ] B.)._ q } G  .tXF.%.0 L d _ ] A w ] A [ A 6.n.T 5 G rX_.n.1.2.F.Y.n.5.G '.7XlXoX5 5 = l _ :.I P } G 4 q *.y y j.n.z u h x.].N.| 5.P F %.'.4.%.Y.N.%.4.4.G + : + P '.m.%.} F '.uXN.^ G 1.Z.5.n.Y.C.n.0X| z f } C..XA S _ ;.H 7 0 w e H H  .3.F.G B._._.",
"e.q.V.6.] 4 6.=X$.d = } =XG 1.wX1X2.Y.C.f =.*.E.O.: ` k.N.7 w G | A.1XZ.| I k.q F P j._ f F I 0 d =.G %.,.V.wX3.V B.).X.[ 6.I ..%. . .5.n.I w q d 5 P } =.m.5.z = I G  .1Xe.H ).J A [.6.f [ H ;.1.k.qX6.w q = d z } C.| ] f f ..C.k.j j.L.k.F s P Y.oX4.I H * ] [ _..XG H { A l C.4.4 = ..H = _ ).k.* %.G d F F F ;.n.].uXZ.Y.'.0 * %._ l 4 4 l A.Z.n.4.qX,X} ` :.P :.m._ | G & s 5 z z } #.$.#.y m _ ;.;.k.%.|  XT j O.|.L } C.I G  .n..XH  .6.k.n.6.] w N.rX_.'.L.d d s L =.0 d u ; N =.z L =.$.q = S | B.pX_.S w  .6.[ N.n.N.A 4 7 ~.;X .G P 5 :.$.= _ N.).Z.| F j.} = d ` z L + x m N. .f | q.[ `.bX1.H q & l Z.l f $.T.4.f 0 k.N...` 0 L.Z.w = I C.%.4 F ;._ ;.%.l } 5.` T.xXT L x.:.%._._.{ 4.T f -X'.] H 4 l 1...w I G G f _ ` f l ;._ G %.A 8 q.;X5.Y.Y.& q l e.N.{ S w  .n.n.l = f T } 0 } 6.,.V.) ^ e.`.'.F z * 5 4.4.C.).V.5.I L 0 ` >.f 4 H q.%X&Xr 5 f 5.;.^ `.yX3.~.e.$XrXC.| f f z Z.:XfX;.f #.T F r 7 ] 1.D H q.;X1.I d G [.6.* 9 2.$X).} 5 : ' z j.s + d P  XY.f _ T C. Xm.P L i m z H j.O.j #.4.4.%.f 4.} } 4.=.x.$.I f h L d 4.P.P 0 G 7  .k._ ..n.k.1.f l F 4.:.| C.n.;.H l 0 5.1.;._ _ ;.k.4.c.kX'.= = H 3.`.2Xn.^ e.q.",
"X.;X2X] = _ $Xn.z 5 s j.-XZ.G _ q.n.F.N.=XpXZ.$.d j.'.4.1.5.T.6..X:XB.1.Z.].'.T ` G f 4 ] =X%.k.j.5.4 5.q.B.,.D V N.^ S ] N.A = A G | =X).pX4...%.x.'.$.I P I.-X} L.5.6.[ ,.V.[.] A Y.B.%.6.6.1.Z.N.'. .4.H f =.5.| l l w G N.1X7XT * T L.%.s $.L.<X.X,X,XL.V._.).N.I _ ).B.G w .X<X%.%.C.4.A C.;.| %.f * h 5 * d = 5 C.n.G } _ 4 F :.;.z =.| I n.1.G F 6.n.].m.h.L j.C.L.'.` ` m O.` 5 L P =.Y u 5 I ].=.} Z.)._ * + P.j.5 f z %.] q ] 1.7 _ _  .3. .2.q P N.%.L.m.d + d K.$.: L m < u Y L u #.,XP f Y.;XH l ....C.C.] f A _ 0 H 6.N.DXyXl P Y z .X;.= 7 4.=X_.} $.n.=.f |  X` ' j.5 j.Z.[ ^ 1.sX$X3.B.A :.I q %.N.6.uX| T 0 d $.Z.=XN.F s | 1.|  .| %.l G } '.| G q G j.F 5 P.>.I P I G  .6.).,.w 0 x.P f '.C.l ] k.I F 4.N.).I 4.4 I n.F._ | [ A e.).V.[.H q 4 F l ^ N.~.9 q | n.1.| F C.Z.H G 6.e.V.e.,.{ ,.6.k.:.j s * 5 4.;.^ ,.] l d 5 4.f n.<XA.[.o./ & F | G Z.<X~. .q } | l 5.;.F j d n.] e.VX| z :.4.Z.] ;.1XN.A | G  .G z :.A.A } ;.r o.D ;.z h s + Y ' d : z #.I 4 z I | j.T.j.= z ; : d F q L h s G | f 5.C.k.C.I G F d z O.L #.=.$.:.4.Y. .w [.[.Z.] ;.k.0XZ._ F %._ ;.$.n.4.' _ n.,X6._ 0X_ l | qXC.L..X1.b.).:Xn.2.6.] q.;.",
" .F.;.4 S [ %.} d u s *.:.*.| I l %.%.n.Y.C.n.| 5 $.4.5.| 4.4.P =.n.4.F ;.x.P F _ k.] Y.0X=X).Z.'.;.4.D ] )._.;XS D H ;.[.N. .| 1.H l w 7 L.=X1.5.4.C.=.0 : f f _ _ q 2.1.D V 1.2.A 0 %.[.7X>XtXpX:X] B.>X>X[.1.B.] S C.).A.;XrX].F %.q 5 =.P k.I A I H 1.A.N. .1.S l Z.vXwX%.f } } k.N.k.<X=XI l | $.G z =.j s.P.P } 5.%.G ,X} l | %.* 4.'.L.5.H q | ].L.$.T I $.z F K.Z.I j U T P * Y x.5 5 T Y P f } j z V.).$.j z T & 5 ` K.'.;.f 1.I A H q S `.1XL.f q z ` ` ` 4.f f F } P h.s.d h.P.T j j.T.C.7XA.%.0 } I F .XZ...F 5.G = 1.1XwXfX_.q d j ;._.1.4.I F f 5.} 0 4 z ` ;.` ` ` x.s Y | A.[.l ;.).} 5 + X q 0  .Y.Z.'.F F j F m.N.6...f 0 .._.[.w f l A l 5.<Xn.;.` z 5 l =.$.z F 4 ;.B.3.F.B. .| F 4.T = _ H e  .I l C.5.1.A._.| & l N.B.1. . .] q.[._.N.2.L.` =._ A yX).] Z.1.| _ l _ [.).H A H 3.) ,.3.~.S = | C.P L z ' 6.2.S r D { q.w & 0 6.A.q.S ).~.,.F.;X| ].j.5 m x , @ + d =.M a Y | A _.>X,X*.5 d ].Z.;XrXH S H  .A = = L.xXA._ F o.%XF.| f & * Y J.s ].m.d I L : d f 5 = =.$.q z * h d n.Z.f s d L A & | 7.] G f > * d l.$.P  Xm.:.| =XvX[.[  .6.] = w ` 0X=Xn.l G ;.6.l m.].z H Z.'.6.G _ _ n.C.XX$.& A A. .2.A P P.| | l 5 ",
"G _ [ w | B.C.C.$.x T O.F $.4.f $.5.'.L.1.N._.C.G H l _ n.5.d 5 5 Z.MX.Xl G I = A k.[ D ;.).F.H 0  .1.] V.X. .5.X.;.Y.N.2.:XrXN.N.vXL.| I 0 0  ._ =.lXk.} } s & 5 | f w tX,.8 3._.J o S _.<X] 2.`.B.S B.6.3.e.3.V.).>XA._.V.N.n.Z.f Z.L.j > ` 4.] A 4.;X_.V.B.N.6.H } } ( V.V.w = 0 = l 5.Z.H  .D = q _ 5.j.` T Y..XY.| l n.G H G H l | 5.0 G ;.l 4 4.C.F n.I.0 ;.G G -X4.o & + m #.=.5 ` h.: x.XXT P z s :.w G z : m.F 5 F T '.'.f Z.Y.Z.Z.N.k.B.N.4.C.* s h h 5 L 0 G 6.%.I F O.d } Z.=.* x.G + f ] H H 7 | _ f %.G 4 = F f l G [ V.6.e f F -.1.q. .Y.$.T :.=.F & = l G } I I d 5 s #. .V.[.= X & z j L j.%.w G Y.} } 5.=.0 } c.4.l ..f $.C.[.V.] C.k.<XN.] 4.} n.]._ F ` ` d P F ;.rXF.3.3.3.D =XC.XX6XC.] 1._ _ f f 5.} A A X.6. .| X.] H G l S 2.2.q.A Z.].P .Xn._ 2.D D Z.;.=.4.I q 6.1.6.[.A V V.[.F.uXN.7  .4 & m j 0XtX2.D.D q.%XB.w H 6.[ A.).D ;X .).6.D _ _ * * v @.c c h T.m.: i m P ^ ~.2.4.$.5 f n.).6.n.0 N.[.N.l z q I ).6.d l [ [ A H f 5 h Y ` j Y.'.G l m.L f F P d *.$.z f 5 d =.,XrXC.5 * s f = } '.%.E =.P j j I F _ 5._ : } =.| 4.w S 6.1.l d 5 z z } 4.G X.C.C.T.5. X%.G 6.;.A.Y.n.4.G F f 3 %.7X6.D A 6 ' 6.C.l l ",
"I  .n. .H ^ l F $.4 =.'.f _ 5.4.l q I ;.w | q.[ ;.6.Z.6.n.} #.L f C.Y.;X6.B.e.( o._ 2.[ A  .w q N.<X] ] ).^ 5.1.| n.w J  .;X3. .| Z.mX.XK..XH n.] k.l } oXx.T #.'.Z.0 e k.H e.] H  .%.'.C.[ A J  .[ 7 l f w ,.~.e.V.3.V H ( N.k.} ` f ` f I 5._ N.N.:XiXpX[.~.6.N.5.k.F  .`.:X..I F q n.,X| ;.S S q.A.N.1.k.l q _ A.] ;.=X%.| :.| j.| 6.| 4.f 5.H G I l f | ;.).B.o.L.-XT.' = z L.C.} } .X8X| N.,X:.h M T f  .5.z } A ] V.5.P = * | Z.n.Y.%.4.=.j.I = z + h h - L 4.%.1.3. .4.} :.5.6.V.w 4 ]  .%.l o 0 Z.6.G f d P :.z = d j L q 0 1.%X2.] | G 0 L z d d : 0 _ 4.G 7 _ Z.| = G z s s C.6.J ] f q I G T d C.$X2.4 d q ,X<XN.;.'.=Xf $.:.| _.} G k.[.[.6.1.5.).| I n.4.q _ } F 0 d k.N.,.D D C ;XB...4.K.=.;.[.B.N.J } G k.4...N.B.nX2X~.X.q q ^ A l 0 A.[.l 0 d 5 ` ] D ] ] 4 | L j *.I =..X6...6.V.[ I x.T F l ] F & T. Xd [.%X_.r.) ^ V.2. .e.nXyX[.^  ._ 4 P I =.l 5 s m m m c W J.1X1.n.z * l X.`.[ G 5 5 z | _ } ;.l %.;.G l F F _ 2._ 5 ' l H | q o 5.-X#.s 5 } N.A 0 Y * l q =.m.+ q x.T q G 5.C.6.Y.} s d ` F w | .X[.{.rX'.N.} ].[.= s + L z d F F 1.k.] | I $.z _ .X;X[ _ L.I q l } 4.I 4.| } F f 0 0 f 0 P G  .).V. .l 6.F.F.6._ ",
"q n.n._ ;.n.q A.'.I F _ | C.5.N.n.Z.l | n.^ ( { [ X.rX;XI 5 * d z 1.] ~.>X`.%X!.$Xe.2.e.F.`._.] ).pX_.Z.q.} rX=Xl A A ] N.1.A %XB.+ = 0 G G %.G k.I l I } z F F m.L.A w G 6.).[.).A.N.P n.'.]  ._.k.f F G A A.NXB.8 e = ).>XZ.L.Z.f 0 * F =X5.I k.[ ..[ 1.;X2.w 2.F F l [ N.[  .| ..P ;.G A 6.S A _.1X1X[.[.Z.;.A 1.N.qXY.%.-Xm.T I F q l 5. .l ;.'.G F 0 l _ B.~.,.k.].9XJ.f ` <XY.] G A 6.] _.[.q + s.C.k.V.w 0 k.4.:X:X_.| P 0 I | P f G } P 5 =.I o &.L L #.x.L L.1.( w & =.C.L.2XDX .A ;XiX].x.L.Z.iX5.F c.` ,X,Xx.F T T z } I _.NX;X6.A.l f ` 5 j.T.j = _ | C.Y.6.Y.] 4.;.d * & } 1. .] ] 4  ._ d F 5.H 7 0 ` ` n.x.| [.N._ F $.T ] 6.n.| | 6.N.H _ A [ _ l l } } 4.4.} 4.l } D 3.%XS F.iX=X| & d :.F = D 2...P ` 7X| 1.6.F.2X>XV.1.n.A.N.w H } Y._ l _ 5 5 5 _.[.2X6.G m.m - ` $.` k.4.G 6.4.7 T } j z = q | =.4.z G ] 6.&Xe.D./.r ^ V.,.dXnXV.1.n.0 #.J.j.:.:.f * z *.T a g I _.[.;X5.C.6.~.( V.<X].T 5 F I m.-X=.I q = ` 5.L.Y.B.2.P 5 T :.` ;._ l ` z j ` n..Xk._ j.L T q G l _ F T F } I F I q.<XP z T $.| =.5.G ..7.N.1.=.q ` m.0 z L j T x.$.x.I n.Z.} 5.:.f _ 4.;.[ 8 l w 4 z _ 6.;.k.l A 4 l %.F ;.| G 1.k.1.B.[.Y.4.q.>XyXG ",
";.=X'.1XiX_.Y.'.1.] 6.N.N.).6.| C.T.%.n.;.S ,.1.( { [ ;.G I d f q 7 A 2.B.$X).| D ^ 7 ( 3.q.;.%.] _ 5.n.| 1.tXZ...;.4.A.:X:XB.tXC.f & z G F %.G =.C.k.} ;.F f q F k.S  .w 4.1XrXL.f G & 4.I.` _ x.=.q f 4.] B.6.1.H l _ n.%._ } P : : h.T.7X%.| I 0 F ` j._ * n.k.1.I = = q A A Z.C.f 0 H w J w ;.q.[  .H  .Y.1.[ 6.q.n.f F s d ` $.4.I I 4.2.l 1.).| = f G A 7 D G 5 >.6X*.L z ] 2.[  . . .w V.V.1.J A k.5. ._ q f H | 0 A %.-X4.} 0 & 5 =.} j O.*.x.L.tX6.f =.=.j 5 j j 5 - 5 4.1.[.).S _ 5.5.f %.4.P ;.= 0 0 } C.G 0 G _ 0 I '.| 4.6.3.V.6._ & f = L.Z._.V.N.N._.=X| * l ;._ z o j =.F.:X[ | q.$Xq | _.^ _.N.I m.=.& q A.tX).5 m ` 0 _ A.5.` l ;.2. ._.[ _ 1.F o ;.G n.1.n.L.q f 4.6.N...4.I.$.0 * h.'.Z.N.I n.,XuX:.1.=XF.e.).S ] N.A.1XA._ 4 ` I H N.4.F J.*.l 6.Z.). .I #.s x =.x.5.l T f _ A.;.} I 4.].| f | 5.f 0 C.5.] ,.{ [ V 8 _.F.,.o.[ 7 H l f O.s.m T z 4 z j.:.s h *._ I k.| P k.$X~.,.:X;X` F l m.j.} P 0 z _ :.#.C.Y.| ] w h O.I L <X0X1Xf & i y h z _ 0 G I P ].4.q G %.l w G G F 4.k.N.} 0 =.:.$.].,X: : I | G z u - o ; P 5 z m h L Y ` 5 5 z G J.P = $.C.%._ 0 Z.l 4 q _ %.L.<X5.l = = k.1X'.Y.4.V.6.8 [ 1X4.I 5.n.1.H ",
"| '.| ;.;.N.C.H w 4 [ _.o.q.<XF.f 4 F G n.6.[.e.[.V.G  .Z.K.=.z } Z._ J 8 l %.4.l 7 X. .^ G | | _ l _ ] 4 f H H H l n.6.D J ] H 0 = & n.<X..q = } k.] _ ,X5.d 5.].L.B.tX[.] N.%.=.z $.} f G G } n.P c.Y.} f %.1.A 1.} %.f f = 0 & o ` T.Z.C.k.5.G } d L j.F 0 1.} Z.%.f I =.C.Y.1X;.j.| [.=X4.;.'.Y._ ] H G D ] 3.V.[ q f f z 5 Y :.$.4 %.4.%.A ] 1.| w & * l | z 5 = 5 P x j z C.B.S 2.;X6.3.V.H e.D 8 <XqXN.%.5.f o ] %.I I F } k.$.P F F s - z : 4._.{ V.1.C.'.s u h + j m d P = ] ] 5.k.= q & F _ } :.4.| & } $.& = 0 I w ..,X'.k.Y.6.N.1.G %.I I = _ N.6.N.A._ l & F l = d ; . L .XV.rX] w A.0X2.H N.^ X.q.5.I.` : = n.:XtX#.* 5 0 Z.N.F w A A 2.2.] ]  .n.l | k.1.n.Y.} q =.} 4.x.s s j * * 5 } _ & F 0 P k.5.;.:.L.N.[ 6.S & + l H l G 4 $.%.n.2.H [.m.j.$.| <X6.;.;.F z z & q l _ l q l ;._.Y.5.1.%.} w | =Xn.;.Z.;X_.w 6.F.D 7 ] q.2.B.V._.D ] f d T s & #.f & } G s h m.J.:.` f F f = 1.,.{ _.N.0 = f  XT F c.G q #.m.h & 0 l H q 5 L z O.4.%.} F j M h h >.n.q.^ q G 5.| _ L.C.* l ;.| 4 f I l = = z T  X6X| f s s F =.s - g < Q d 5 : Y P s + * L s X d J.d 6.,Xn.X.H ] ;X5.= f f f 0 | N.6.1.G 7 6.A.[ w 1.[ F.>XA.N.G 4 ] '.| ",
"C.6Xj.d * ;.n.q _ 6.D )./.X.w ] 1._ l | | 6.N.;X%X;.] N.} $.| j 4.C.j.].5.P | _ 4 w q._.;.[ _ l } :.5.H _ f 0 P Z.Z.N.[.1.Z 3 H G H %.1.Z.4.1.| .X .= k.L.q + %.A.;.%X[.] G r ] s U h ` f 1.Z.1.6.A.B.4.4.N.L...%.)..XN.%.[...%.f z $.F d d I =.P s j *.h d d } 5.G 0 f ` '..X:X;X[..X;.A k.j.: 4 4 } _ T T } 5.V.[.6.N.C.L T l.j z f G 4._ 0 ;.7 G G 0 q I =.>.s.h u * $. X=.4.C.%.4.= 0 H A w 7  .6._ C.Z.%.4.x.;.$.=Xb.] } I K. X} C. X'.z P T P 5.).e.6.I %.| 5 P G.j * j 5 | F 5 :.L.| L.N. .n.;.$.I T.j.= q } I H w f = 4.,XL.Z.C.H [ ..H 4.%.;.5.MX).+ V._ q 0 l Y.m.T P P L f } w A P 0 } Y.7X4 } ;.0 %.$.j.` 5 l | 1.6.G 4 = 7 D A q.q.B.).;Xn.A 5.Y.j.G .X].5.6.n.0 + ` m.L s P U ; ; 4.A.F w l & s T h.$.j F .X:.H '. ._ ;.H l _ _ l 5.2.2XsX .%.=.s z $.k.%. .l l F | 6._.| _ ;.0 5.n.} k.=XT * = q G } <X;.F | F A 1.6._ _.F.] 1.l _ H r | H :.L h d 5.q | C.;.} L j.j.k.4.f = f %.J ^ D X.2.%.5.: P z n.;XZ.%.d j - u z | l F :.x 5 x q l 4.;.P 5 v Q ` Y.;XB.tX0XN.4 '.lX-XF 0 :.| n.z d _ l h.4.5 F I G $.j.P L z j s 5 h l.Y * s T I =.z d ' z & P ` z n.A.;.l G 5.Z.6.x.m._ G H  .).A.;X] w ;X1.D A V.6.N.N._ ;.] q ] %.7 ",
"} I.$.=.P.} l = A.xXB.F.`.,.,.;XY._ 4 l  .6.6.).Z.G A N.5.I F & F F 4.} >.T.P 4 0 + l n.[ l 0 l Y.A.4.0 I } L.5._ .X4.C.;...I ] ..C.uXrXN.5.6.Y.).1.A 1.] G 6.I A ] [.%X| q 2.Z.U M h 5 F Z.B.] `.e.H A ] Z.Y._ H N.%.l $.6.4.A.%.L.:.F 0 f I.T.$.s s O.j h s =..X5.& d s $.V.] 3  .x.I 4 4 d s 5 F 4.H F ` %.4  .A.] _ %.=.` $.T T P 4.%.%.N.1.G f 4 [ A. .5.5XjX:.z z z Z.k.;.4.I | I 0 G G q J 0X1Xl + = 5 * o P %.F q G f F | } l } m.'.K.5X XI H A.vX[.= _ f 0 C.C.P T f H ;XqX} T F f ;.w [ N.P = F $.G  .P | Y.c...%.H Z.%.| Z.L.%.%.| ] 5.I 0 H 5.I 6.6._ w ` ].n.| I d 0 P F ] _ G =.4._ k. .H | w G _ P * z F G 5.1XG w _ H  .H 9 r.~.N. .q 5.].:.4.q 0 G _ 0 G | 1.6.I f f L L s - s | 6.H F.N.l XXL P T T #.h.` P .X| Y.)._ H F  .f & * ,.[.F.] P T j.I 5 l I _ 4.[.sXtXFX0X| Z._.n.H $.C.P 5 d m.j.q 5..XZ.I  .}  .] I .XuXk.4 _ H A.] = n.=XT.| q q f D D [ <X%.* z z } } l f =.C.6.6.{ ]  .7XL.: j z =.H _ } ` h ; s.lX7X1.4.j.h + Y | | 5.P L : - 5 $._._.[ 6.| z } j.I ` G F z ;.5.%.G F Z. XI.C.4.P 5 F C.P s #.h z 4.$.T #.d & : 4.4.I.:.4 0 _ -X].q + G | ;.q 4 1.%.5 z 0 _ A.H ] A.wX2.B.`.1.e H ;XA.N.6.| [ ;._ ] %.l ",
"#.P.d s 5._ _ _ _  .1.q.2.3Xo.o.] ;._ F ;.,XZ.;.%.f = ] 4.N.4.= P m.P T #.#.P l 6._ Z.| w | %.q.).L.%.& $.L.L.C.f C.'.} } 5.%.4.} _ N.| ...X'.| [.;X0 = A A 5.} k._.3.%XY.I :XuXf.Q j : P A [ V./.( F.Z.F q _ G F l P L &.s P C.C.q z j.F ` j.} * d P ` z z * z 1.G F P T 4._.A G $.L d 6.F. .G 2.6.2.N.;XA.).4 l N.| w 0 f = & F z = I '.,X5.0 0 f H 6.$X6.0 } :.f d =.} n.iX[.I I C.5._ | f } ...X<X` : z s 5 | z & & & c.L.L.` =.x.0 = l %.=.%.f 6.w 6.N...T.I.=..XP = _ 5.N.,X.XP s ` ,X1X] e.).w 4.C.;.[._.Z.l T f P =.'.;.= x.'.I.} & = %.F 7 1.w & G C.] q f _ %.| f q & f G T %.$.:.P %.] S A ).1Xe.pXrXz f ` I A._.Y.] _ N.[.Z.1.( 0.V.4.I & f z 5.5.G  .=X].F w n. .[.:Xw e ] F F s & * _ w e.6.q Y m h.$.d : o L C.j.$.'.n.w f | G w 5 5 A _ r D Z.;._ C.j.q G z  .;.A.2.] A G |  .| F = * : L m.I 4.l C.=X6.;.| f 5.5.} 4.j.j.Y.K.l l | ` n.n.Y.L.$.;._ F.,.6. .w q $.K.C.j.F $.f %.A.( { B.4 ..L.z z P h.k.5 f j.h ; N I.iX.XA.;.l * ` Y.1.I P Y J.].1.e.wXtXl   + j j z & #.:.K.= 5 5 5 } m.G G G %.J.$.: } 4.` s Y ` ` C.k.| j 0 5 C..X%.5.%.%.n.n.].5.q l Y.T.I = 4 N.).d F } 6.[.{.B.~.( A V.>X6.S :X;X1.5.;.] [ 6.1.4.G G ",
"=.T.} z L.;.;.5.N.;.S ).{ ~.e.<.N.F.1._ 0 I I P & = 0 6.Z...G 4.,X,XL.uX].F 4 * Y.MX6XH $.A.C.;.;.L.4.} ;.%.P 4.k.C.Z.| I h.q } _ F '.I l A.%.f ;XN.0 Z._.f 7 I n.J D { A I 1.| s h s s 4.6._.iXwX[.2X;X5.G 5.;.%.4.T U.s.5 l 6.k.F | ;.f : > d d f f G f l l G H 0 & 0 F } ] _ =.` h s 6.rXN.).xXB.q.Y.=XD 8 q.A.%.).A._ f = l = T G I C.Y.:Xn.A ] |  .6._ _ T.%.& G ]  .1.[.Y.l I I f ..G f 0 0 l %.=.z j ` F c.Z.P G A c.k.5.%.I.z ` j.F q } L.1.6.] H H F J.I.d P q G N.| H 5.G f 0 s Z.4.4  .[.e A V.[.).| _ w 4 0 | C.c.` Y.C.} 0 f G l | 1. .1._ ..L.I ` l | I } _ q F = N.L.Z L } j f G [ S e.`.,.o._.6.` d I n.Y. .;.} '..Xm.G G n.{ o.| 5 d $.l | [.n._.].5.G 4.;.A [.>XV ] ;XZ.G G j + d [ tX6.Z.I.j f H =.0 : =.m.T _ 4.).H 4 5.n.5.z #.;.B.1.2.>Xn.;.;.d L d 0 ;.$X_.1.G l G H S A } $.` =.z d } l & 4 G 4.;._ 5.k.5 4 l %.:.Z.P.d = z q } | n.N.| 5.Z.$X[ ( 3.<X5.} K.j.z F f G | w ] 1X;X= H Y.G s :.m.L.4 0 & + y v x G l 7 Z.T o P F I | n.F 6XvX~.<.~.1.I ` *.m * h u d z d d | T ` j.G f F G } } z L c.} $.T P d = _ | k.4.z 5..X<XqXZ.C.[.].6.l Z.=X_ G f q = I [ %.K.P.5.1.N.[.3.H 1.1._.vXN.r ).6.w _ n.A r S 9 H F 5.",
"| [ l w 1.[.=X .N._  .r V ^ ~.`.;X2.l ] l z j z F $.P =.[.[ e %.k.} 5.%.;.Y._ r q.Y.;.x & H [ 8 1.1. ._ f C.,X%.%.} q q = f F 4.uX=X'.=X]  .A.[ k.N.J [.] = n...w w w [ 5.& l 4.` z d : z 4.x.} | 5.6.N.| ] A.X.{  .m.#.h & 5.A.A 6.[.5.T z m o Y.V.{ 6.q.1. .1.B. .G f s G 6.n.] } 0 & 0 4.6.| _ :.n.` l _ q 4.n.q H Y.:X,X4.} ` I.P C.4.N.2.[ [ ).L.$._ ` ] A 6.] 6.A.;.G ] _  ._.{.1X[ 5.).n.G 4 l T F O.s 5 : d %.6.E I | q 5.'.f j.L.= 0 _ '.,XH S Z.F : P } F 1.n._ ] G 4 F 0 %...= A ] 7 = _ 2.B.1X6.A H 6.q X | ,XY.0 q =.` & 5.k.l L.;X6.;.l Z.1X1.T j.m.j._ 0X4.%.} w  . .f s T j F 4 N.Z.e q ^ 2.[ _ 5 5 5 q r S 1.5._ T z + * f D 6.z j.=.` 0 :.5.| G _ G =.k.m.'.V.H = ..L.$.0 m Y + L _.pX_.V.j. XN.6.pXk.f ;.4.` 4.k.;._ A _ ;.F d } _ ).A.N.1._ ;.} 5 5 z d ` .XC.I w H ] ).,Xl _ ` T :.G l k.| l _ f n.k.;X,Xk.5 + * j.T.5 z P f * f F l A A.H 4 N.2.C { V.1.l + 5 5 f G I 1.H 1.V.V.).[ 6.6.` m m T k.N.%.j   @ 1 x f [ 8  .C.f 5 T I L.oXz f 0 r C w.,.6.C.x.L z d h L 5 z T. XI.>._ *.Z.:.C.'.f 5 ` } w 5 :.;.w 0 0 f P ;.k.Z.;...w n.6.H D w ] | 5.G l F ` G G %. .=.:.= w E | ..I :X'._.:Xn.H H S  .w q N.6.] H ] f } ",
"1. . .S H q l H l l ] q.^ S 0._.tX .= _ G f F j.T T j L.6.2.B.V.n.n.4.H ] q.Y.=XB.l _ m.z | 4.G A.;X] = n. . .| 0 f } G 4.F 4 q T 4.,XL._.V.A J D V.w = A _ ;.] | G  .;X4.x.'.6.4.f :.h.C.T 5 5 m.'.n.[.=X2.tX[ r %.P : : & f 6.1.k.] I L : : f ).yX). .] A 7  ._.).6Xm.=.} ] H 1.6.s d | C.=.& ` T z I ` jXC.d F _ l ] n. .N.G = = } G A J J ]  .w 7 = _ ;.[ D V.2.1.5.n._ | N.A.;XiX .r ).tX.XH F G 0 d :.z 5 G } C.C.4.G q G N.5.0 5 F & 0 F | =.l k.C.d T P.x.F 1XY.= 7 F L.7X4.5.| H B.k.G q L. .).[.H S 6.6.] 4 F .Xn.Z.Z.z 4.Z.} $.q I 6.q.w w } H _ 0 F 4.l _ ;.;.G n.f ]  .F ` s.T F A _ w S 6._.rX<X| T d q 6. .D G :.:.m m u z.;.] A.l K.m.5 z P z | | 2.F z =.:.k.A 7 G %.: : s h s ; s L._.B...=.:.N.V.;X7XP l = 0 x.;.^ [ n.1.q I | _.X.5.5.f 4 & 7 I = P ` } :.,XT = 7 ;.Z.C.P f _ 5.m._ z 5.n.).n.$.H | tX=XY.n.I ` I j.z z z 0 = 5 :.| ] 5.;XF.4 ;XfX0.V.V.* q ` T l I _ G ] r H e. .e.H H 6.Z.b ; T C.[.1.z u M N 5 _ X.6.2.5.L.j.z %.C.5.$.f ;.A.0.e.$X6._ q z L 5 m.-Xj.4.| C.m.} } | P f d P } j Y ] l f f f _ d L #.f f  .I A w G n.| ] | | ).S H 6.'.K.P G %.).N.= & A 5.4.G w k.%.f H  .H A k.).n.;.S 1.V.,.:X6.0 z ",
"] n.[.] q ;.2.] 0 q A N.F.6.6.N.[.Z.f I q = j 4.} F P Z.:X`.uXL.I 0 4 G |  .V N.$Xn.pX=XL.Z.Y.H 6._.[ 1.Y.%.Z.} 0 | 4.4.].=.:.} o & $.F 5.{  .>X,.S H F f | 5.=.w 0 ] %.` :.x.T T F =.} j.` $.;.q.n.A.5.Z.$XF.3.$.j h h J.:.1.rXk.I H f : z z h.P [ 2.1.8 w 7 G N.5.n.$.I `  .5.| ` j 5 F k.=.* #.m L j O.J.d d =.Y..X[.q.H N.| d T $.F A ).;X~.V.,.7 6.B.] 3.6.9 ] %.k.x.F T G H  .2. .=X=X5.;X).I f P F + z I n.| Z.1.G ] Y._.6.G I F 4.f ] 1.F F F F f * 0 j * w Y.F H 4.1.7Xk...H J  . .C.4.q I H ]  .1.).6. .N.0 } [.] 1XuX;.'.'.N.4.4.1.G J _ | z H Y._ f F C.1.F %.F 4.] B.iXm.T j.5 f f ] w /.&X3.C ] Y.4.` 4.5.G l w l Z.T 5 #.ZX2X;XY.f F G 0 $.=.K.ZX;XB._ $.h.= & I A.6.Z.C.z L ` z.#.x = F w 0 s : s f $.].I & z F 0 0 A 5.2X_.f | ` A.).).5.} w + ^ _.} w 5.5.} | | l V ^ | f 5 L ` :.=.I q 7 q.[.G q I I Z. .6.=X).=X;.G I } G j.4.f } n.6.l q S B.%Xr.~.e.( l P P.I q 4 H Z.).B.2.N.>Xq.] B.( %.M i x.N.4 S N.C.*.T 4.A. .q.$XpXrX].l _ k.$.I.K.:.k.q.2.o.8 q f l f = ,XMXY.].| I .XN.] | z P P z 0 * 5 n.<X1.f z 5 z *.j 5 4 F H l w 5._.5.G 5 %.k. .| ).=X;._ L.N.L._.D ( ~.Z.P 0 =.1.] 6.[.;Xn. .l _  .C.Y.G 7 w | q.| ' ",
" .n.;.A | [.).A A q.N.n.FXNX:X;X6.A f I f } } } L.k.C.| S [.1.7 l Z.G 4 6.] r ~. .N.;.= I 5.5.5._.n.n.] | 6.| f f P F F ` l m.uXz : & 5 2.[.1X;X1...L.=.P 0 z F s =.G f } & o 5 | =.s f T 4 0 7 [ X.X.q.X.^ 4  .=.i j L O.d ;.6._ Z.N.f : =.T.L.4 I [.Y.I '.;X7XV.w 1.:.P z c.N.6.= =.x.k.I P : * 5 5 P z 5 s d m.'.].].,XC.n.;.I } $..X=X2.D V  .A.B.6.|  .A.$XA 1.).Z.f ` T & 0 [ e N.:X[ ] _.7X%.q 5 : 4.K.I C.Z._ = q n.V.D w 7 l F G f ....4.:.$.` K.I.& L } G _ G f 4.C.;...V.N.[ S 1.,X8X0 } k.F 5.w A V._. .G Z.H 7 ] Z.4.rX'.| k.xXN.I ] Y.k.F [.MX%.= ` C.I .X8X7 %.k.6.)._ T f 5 d A F.V.D.3Xr.,.2.n.f L.Y.H | A } | _ F I.I.5.| ).5.| f G F 4 | C.;.]  .G 0 $.F 0 | 1.D k...= s :.P.: z F ` H ;.z } 8X$.& k.| d ` T | n.;X<Xe.N.I n.Y.= [ F.%.H l F._.6.] G ] A H n.| _ ~.V.I d m 5 d P z *._ l ^ ] .X:.` G 0X<XA.2.| | l f k.5.6.).Y.0 I n._ F [ [ A.V.V.{ e.tX_.:.m.L l l '.4.1. .6.;.H ] `.$XF. .` s =.Z.1.n.$XF.F K..X.Xl 8 q.A._ l _ $.Y.].m.} :.G Y.tXB. ._ ;.} z :.C.F.e.H 5._  ._ 4 5.qXL.| T.` F | A.tXG 6.} q *.d 5 $.Y.n.A N.Y.| F ` = 0 f l  .A ;.n.7 f ;.H H 1.V.%XX.6.` _ _  .V.;XV.A.=X).w I C.Y.N._._ 4.1XtX,XT ",
"G 6._ 7 _ Y.] _ A N.B.5.Z.C.'.5._ Y.| k.C.F I 4..XuX=.I H 6.%.P } =X| q [.;X~._._.[.G H %._ | _ _ q l 4 0 7 7 %.x.G ` | q %.j.T I 0 q k.).,.e.>X[.T m.T.h : L j.T h.:.j L ` ` } 4.L.$.n.-XY.f G Z.A 7 3.X.^  .f 5 h s =.s & G 4.P 0 %.C.0 z } = A k.0 0 : 4.k._.H 0 f f } L.5.1.pXL.Z.<XrXtXL.l } F d ' F z L 5 L ` $.m.K._ :.T | F z | 1.H | f I f P & F P $.T o 1.tX:Xn.` $.L G  .[ ).;XG 0 A q I } 4 F j.f o L z 5 d H ;X).V.e.C.Y.0 * f k.;X5.F f #.XXL.:.x.=.5.c.` o | <X).6.vX_.= A N.Y.} f $.%.C.<X%.e w =  .;X.X} } G =.f %.| 0 %.4.f ` _ 1.$...4.A 0 k._ = _ ,X%.A n.T f _ 7 0 7 f 7 %.1X6.2.NXrX[.yX;X .[.n._ C.].=Xn.7 w N.=X& = _ G q.V.S  .H D 1.7 ] 6.f ` oX$.;.A.D  ._.G 0 z s u j m j P 4.| [ 6.%.| _ I F =.z L  XZ.[.1.Y.N.n.lX].D { q.A | G Z.).[.| l l 8 ] F.n.w F.aX;.5 u 5 5 d u O.5 4 _ V.0Xm.5.F 1.rXA.6.B.H q _ H A.6.A n. .| P.=.I q.q.[ 4 ] 5.;.F.3Xq.| u 5 q } I l  .G l f  .( D S D w F _ } n.:.} P z :.>.=.n. .F _ 5.4.z :.x *.m d 5 f %.Z.=X].H 4 =X=X7XtX~.{ 4 H | q + G V.6.C.} 5.G ;.k.1.X.X.6.] ).5.] $X).[ H A $X>X5.F s j } } 4 A [.0XtXB.] N..Xq A B.] w _ } G A H A.6.~.B.[ w 1.Y.1._ | n.$.I '.=X;.Z.",
"n.Y.Y.Z.} G ).B.[ ^ r A H = G F 0 =.=.I q F I Z.G H 0 = 6.[ I | ;._ F r ] _.`.6.1.;.4 Z.Z.} I f _ 5.I C..Xj.| 0 G %.F } P K.K.} P ` 4.8X5.w A  .:.:.z Y z ` m $.: s z d } =.P F = 0 f G n.k.F %.G l  .q.^  .;.4 *.$.P F P l ..G G %.$.0 f 4.z F 7 G = 0 c.4.F ] w ).,X=.'.C.I [.:XX.k.tXrXA.Z.5.Y.} ` $.z ` l d m.} d z $.m.5.4 } L.4.1.7 Y.vX} 4 0 & L 4.|.` I %.L. .H 4.m.Y 5 0 ] %.%.1._ f 6.| } | G P -X#.d x.G.* P n.N.[.B.e.A.N.q = } C.Y.T 4 5 T K.4.T } %.].%.P q w | | ] 6.[ | A. .7 & F F : %.Y.0XH A S 4.N.n.;.'.C.n.5.| f T T f '.iX:.G P _ k.;.%.,X..G G ] f | 4.d T 5._ S  .k.= w D ] 1.G q ] F.;X .q.G ;.qX]._ ] G A ^ l 5 $.#. X=X2.6.=Xn.^ r ).;X.XP d P z H q. .^ 6.6.4.z s h h O.L 5 q D D A  . .H F :.0 & * | n.5.A A n.n.5.1X_.w ;. .L.| G _ I l ] _ o.`.>X| q 2.B.F f h h z z h s z l 7 4 G j.P F N.1.S r q w w 4 _ rX>X] ] q 5 z 0 F Y.q.r D F F q S #Xr.q * z | Z.] | N.| f H H Z._.H [ N.] H ].x.* L s 5 j =.:.'.6.G ;.` T ' 5 s j z z I j.;.I I 4.q A A.1.G | e.V.5.6. .q P n.1X;X1.I f l 4.[ V.&XV.C ,.>X_.,.~.D 7 D e.V.^ w G C.C.4.} f  .iXxXbXZ.n.[.1.` _  .,.A I %._ = %.A.V.%XX.H  .%.;.w H _ l G } I f } %.",
"n.C.;.| _ q  .] 5.).6.;X_ 7 c.x...* H | | n.[.<XA 6.` f 5.6.).C.l 0 H A S ,.V.V.6.;.;. .H l 4 l L.| I F C.=.F 0 l ` G | j.k.T h.#.O.=.#.f = q T P P T : T P f ` F :.L.'.4.;.1.6.X S %. .;.1.A 4.l 4 6.q.q.n.$.x O.#.j T ] I | N.C.K.z } .XI.T K.` 5.Y.6.[.1.f = T L.'.5.N.q F G w J V.6._  .6...F w 0 q G I 0 5 T & z L :.C.n.1...k.Z.4._ '.N.] q 0 ] L.Z.,XZ.Y.>X1X| 5 L #.s f k.H q 7 0 H  .F w 4 %.=.= h.4.=.Y O.s -.8XN.L.6.7 G f = = %.k.1.G f } =.=.} f f n.P | _ G %.} } C.'.H _.)._ F 4.d : + 0 I  .H 1.A.1.N.P %.=Xj.4.'.%.=.J.z = T 4.} } ...X].4...,X1.H G w H '.=.= z | ] 1.B.| l } ].rX-X0 l H H N. .q A %.4.} 0 0 A.2X1.G d m 5 4 F q q } :.q 0 } 5.` $.f s .XrX{ A ( H N.4.P z * ; T T | N.B.wXr.&XDX[ } ]._ G n.I l G _ G N.].} 5.F Y j.T 5 5 L l G _ G N.[.yXgX_.( w 4 u m G 5.` z m u h %.n.] z _ 4.uXZX;XA | 7 ] 1.H Z._.C.G _ | _ n.1.G N.f A D } C. .e.aX3.8 F A ;.B.q.~.,.l :.| G n.).F.B.F.X._ Z.d + u T 0 ;.G 4 ^ e.F.2XS * l _ w F | _ l f F _ f F C.5.1.r F H o.:X^ f F l N.[.;.%.4 l %.I n.B.).q.e.,.&XwXV.V.[ t { wX&X{ ( o.B.H f 7 w F | _ ;.=X_.1.1.| :.4.6.B._ k.L.| f  .1.V.;XF.[._.%.I F 5.I 0 | A.k.| | _ ",
"I l = q 4 0 & l ] ] 1.;.A l q 4.<X .7 A ;XB.N.uXZ.f 0 ;.=X>X).6XC.C.| 1.1.).1X~.F.;XMX0XH F F =X[.f H G l H | 5.F = ;.=.P } 0 $.=.L : s d d T P F f j.j.=.x.` I } 6.1._.V.F.[ D [ _.[._.1X0X).1X;.f _ ;.} %.` m.P d T G A ] :X_.H %.T I N.L.z T %.[.N.{ F.rX| T .X` F w G ;.4.H f l D 6.n.L.[.'._ * ;.=XI %.I _ l + f ` f q ] 1.S 7 [ C.G H = q | I ;. ._ e A ] >X`.5.` $.` F -X;Xw e A ).L...f F l _ I q F #.L x * : J.P x.L.} | A  .n.N.%.F G F F =.F l } ] A F %.Z.Z.]. X} %. ...1.:XZ.= F :.4.F z z I Z.F.2.[ ] C.4.L.uX%.* 5 * T 4.d l q F w * x.%.F + w Z.L.H G [.N.n.H * l C.G %.L.5.L.8X=XN.j.I F G N.=X| w <XL.} ].0 0 ;X$XZ.Z.f x.;.%.J.| z P * P 4.%.C.:.: d s 5.:X{ & w ..G * & s j s F f %.rX[.1X3.3.).^ N.;.G 1.1X0Xq G Z.I _ } f d s + y x #.j u j. . .5.;XN.[ `.#X[ 1.f - L |  .n.Z.L 5 & l 5.n.I 0 ` Y.B.6.N._.6.B.1.| ).k.| ` 5.0XtX_.6. .Y.`  .F._.>Xq.3._.F.S  .Z.H ] ( o.[ 4 ' *.= | C.1.6.w l f z d + 5 ` F G ] q.[.wXyXV.] [.Y.n.| 1.|  . .H H 5.5.n.=XH H N.f 0  .] 4 A F l N.A.$.z _ q H _ 5.Z.q.e.F.e.V.`.r.3.0.<.F.F.3.F.,.B.wXV.V.{ ] k.Z.} = ;.B.rX..l z F ] I 0 T =.F f ;.N. .e.3.6.H ).k.0 = _ | | 1.Y.5.H L.",
"| %.| ;.;.q G A.;.| A.w _ ] H N.).] w D 6.w S A.n.= = H F.D _ I.` k.4.n. .| _.H 5.L.N.L.N._ I ..F 6.'.L.).).6.H = 4 f q _ '.G = c.} G 4._ l C.` f l F | k.;.C.k.%.Z.'.[.).w w J )._. .[ _ X._.1.;.F 5 d * z `  XY.n.4.1.A.).D w N.<X=.& 0 I T :.%.] l & F } I | _ w 6.;X] ;.5.d d G [ ).} ` | %.n.Z.).n.=X<XZ.Z._ F C.].%.6.H 1.B.{ H _ G P = o _ [.6.). .] ] l  .H Z.Z.L.oXF } f f A H S w 0  .0 %.L.k.5 } $.s j j T #.z #.5 $.7X,XV.V._.uX:.5 l ..5.F N.A.%.] C.F 1.4.} f =.mXn.] 1.2.q l f 0 } $.$.j l _ | k.| %.Z.N.L.1.C.F G f T.lX_ ;. .1...} f d '.).G 0 l } = k.k.n.0 q k.c.d d _ P I.,X$.l F w = 7 %.} F Z..XF _ k.C.=X:.G >.| n.B.).N.;.x.Z.].P ` Z.` } x.d + %.| 1.~.D 4.Y.f $.x.P ` } I I _.[.{ V S | 8 A.q.* = B.$XyX0XG $.z F ;.N.%.5 < y J. Xm f n.q.B. .n.n.;.1XB.^  .l s P.].l l I I d 0 | q.^ q _ F 4 r r 8 D F.6._ ] * k.N.q = ,XxX,X..;.7X[.;.o.B.>X>XF.q & q f 5._ l  . .1.l & f d n.%.q 4 4 H H ` m.5 5 T z & k.N.B.;.A.q 4 n.5.P j.:.I I _  .F l ` F l D [ [ l _ D 3.A _ 1.F %.I n.1.f %.G z = l C.5.D ^ q.V.q.,.A D  .] f _ A 6.`.wXgXgX1X:X'.` 0 %.H  .w l j 0 P k.=.: P } N.).1XG ).;X] 1.l G G F k.N.G & T m.G ] ",
"| | ;.].Y.n.Y.1.| n.;.6.[ J ).N.$X`.[ 2.1.S 1.%.1.G w f 1.r H C._ & 5 f n.n.Z.| w A w w ] _ G + F 5.5... .S w f f ..k.'..XqX_ ] 4.] ;.n.4.=.Z.k.L.N.n.6.Z.k.Y.N._ 5...;.;.w 1. .S  .4.L.] = [ 1.H q 5 :.f.6 & T G 4 q %.;.1.{  .1.F : d Z._..X:.=.;...q = } C.I o f _ H G 4.} 0 0 } 4.5.#.j f G l I C.r 6.;.I G n.5.%.[.6.H = H H [ A | l w f I ` 4.%.4._  . .<XV.S H ] 4.z : d f w 6._.} _ 6.N.1.%.).n.;.l F ` =.d f = z f & T G %.N. .H L.I.z $.'.'.L.). .Z.L.;.I _ f 0 l 0 $.%.0 7 J N.N. .= _ | f & F c.iXk.H J G w G A H G ;.l $.I | e.F.Y.N.%.f =.A.[.j.0 f I I [.'.[.;.F 8XuXj.| f P P f P 5 } 1.^ 6.5.5 l L.4.0 | ;.G C.z = *.0 l w X.;.| l l 4.I 1.} 0 5 =.} |.T.| %XV.S A ;.F P $.$.f 4.C.1.6.B.%X[ H _ 6.=XA.A | q.tX_.A.G f & _ N.1.z 5 u O.` $.:.z ] _.F.[.[.n.0 f 4 4 8 1.F ' $.f = f $.j.I L.>XB.A } Y.V.).6.e.V.;.q 0 F A f 0 4 f Y.} G f A 5.} 7 7 9 o.q.H G d = =.I 5 j.,Xn.%.0 4 f 5 q 4.5.1.4 f j.| z P 0 =.$.& 4 d q 4.L.m.z 5 T Y z q z H _ N.;.| f * 7 7 B.N.6.] 6.] = 7 I A.H l _ 5.| z ' m 5 $.$.P %.G 4 6.F.[ ;.6.I l d q ..1.wXw.!.!.{ S F f 4.%.H N.;X5.j d L.oX` 0 0 ` x.} F & f w A A.1.N.n.n.%.K.I = l G | H ",
"l _ F _ | } l q x.].I ;.B.B._.( q._.X. .Z._ _ n.5.f | G [.B.6.].Y.F ;.5..XI G } %.0 } 4.] w = w  .q F I %.%.%.k.4 f ..C.;._ 1.5.G G G 4.4. X,X,Xm._ q + 4.N.5.q l H I G f k.L.%.'.[.C.L.;.H H P G l ` =.:.d f } w 4 l L.2.w e.[ G 4.5.z G n.;.5 } Z.N.G I I 0 0 G C...[ [.'._ s } ].~.1.4.f %.1.q l A ;.N.;.= P Z.k.P 5. .( A.[.N.] 6.%.f _ =.5.oX:.+ f ..q 0 %._.%.....} 0 5 0 4 N.).4.} o X.DX1XP A [.HX~.z } } ..G f 0 = 4 * l = = = 1.'.=.0 0 $.P _ ] ] w l = 4.I.].T } d ` k...| ;XZ. .6.'.C.4.#.: z } =.f f l ;.l l 4 4 q w = d I $X,.tXq.7 G F f = [ G P =.%...H H ..4.0 } C.F ` I.x.| | m.I.=._ B.B.). .z } _ C.,XY.G $.j.0 ` f 7 1._._.[ 0 H 0 q =.| 0 ` : F 4.%.G [ e w = =.I * 5 F } f f _  .V.:X[ 5.| q ;.[ | C.r $X3.[ } f z G 6.w G x.x z } -Xm.X I 6.A.C.F f ` F 5 q ^ 6.G d x.;.f } T.,X5 |  .w  .q.{ <.#Xr.B.N.;.I F.n.N.n.0 * ; ` x.T 0 } =.I I %.H _ f 4 l f q Y.} & ` uXN.] ;.Y.=.` 5 4 ;.| H n.$.4.z f F Y.;.l d l I %.} #.x 5 L G.J.d q ;.5.Y.].4.} C. .8 | B.^ X.;X1X6.4 G Z.%.0 G ).k.s 0 j : f G $.m.u : z = w k.L.J.=.Y =.<XA.,.( X.D S H G G =.l H  .6.F F z 0 F #.5 * -.$.& 5 } z 0 l N._.k.n.m.:.T d f l F _.,X",
"l _ f %.G 0 w 0 } '.,X=Xn.l S ] N.N.N.B.L.%.q F | 5.q 4 ;._.n.Z.Y.z } | Z.6.F ]  .1._._.1.A f H %.| C.| G I %.n.A G '.] G %.P G I I $.F 4.=.} j.z = T C.P 4.f * P } | 7 * C.4.:.'...F ] F Z.k.G N._ ,XL.5.4.$.4.L.J G qXZ.l <Xk.w k.=X} = J } %.;.4.] = F F | f N.Z.G f C.6.q l ;XV.B.6.] 0 H H I 4 w [.k.G q + 4 H | 4 G %.[.<X6.).).1.k.6.} 4.h.: z f } k.A H H F n.c.=.4 0 =.} 6.4.` j z ).1X.X| 0 V.%X6.q  XrXk.1.Y.%.F w ] tX:XB.6.] 4 A f 0 f : s =  .w } k.C.4.=.$.I : q l ;.A.6.w 7 H A A 4.4.j.$.z l l G %.4.| G F ;.} $.m.>.P _.~._.A _ L.$.l H L.4.K.m.z G = w ] } $.| l ` F F f G f j.J.d d _.).Z.k.n.& * } l l | 6X=XF | 1.F.q.D 6. .V.[.%.[.).G 4 4.l = 0 5.1.N.N.| %.,Xk.} ` Y..X=.| 6.V.~.[ q 0 _ 6.[ l f 5 Y.NX%Xq.| G I ` n.| f T } f n..XL.k.+ F f + z P G _ #.d 2.A.).$.H G } _ | d l l A G H D ) ) 0.q./.$XI ;.2.[ D ).} s - d.P.5 f ` f l x.'.I _ 6.} n.'.4.Y.n.& z j.] [ 1.Z.;.f f G  .l 6.)._ z P I 5.] | | & f j.l F *.5 h y ` z = q | 7 0 4.5.m.uX1Xq 7 | C.Y.rXuX5.f I ] } _ k.rXN.G f 0 ` .X} } z y ; d n.N.;.d d &.m z n._. .3.] k.k. .H k.Z.1.A H ;.I P F 5 d P - : x.XXf F h.* d B.1XV.[.).I T z 0 n.1.= [ ).",
"0 A | } 4 _ G l I l N.<Xn.A.).).,.1.[ _.].=.:.:.C.'.6.] 6.;X6.| l q F H w w A A N._.V.A.] S ] ] 0 L.'.%.f f q 4.N.H ] H k.H * | T.oXOX; P T - : ` $.L.'.F T.C._ H 0 f =.4.f & G z } P * 0 ;.4.;.Y.B.N.S 6.Y.6.w e._.B.A.4.q } F %.n.;.w H N.N.:Xn.[ J  .] 2.6.4.Z.P 5 4.} = w  .1.A { V.).F l ] f f Y.'.q F 4.G | k.H 4.4...q q ..%. .1.k.w = $.` & } ` 0 z 6.rX-X-.oXn.l = ;.N.F q G 5 u z.C.;.z d :.5.o : j 6XY.1.| 6.G N.).1.F.>X1XV. .7 ] 1.| f 5 * %.1.7 G 5.N.4.%.C.j F f Z.'._ 7 = J ] w J S q x.L.P f S H F l G ;._ 5.4.k.z 5 +  .6.[ Z.1.F 4.q } Z.4.` = f .. .[ w I =.x.C.'.0 P z 5 m.-XP d z 6.pXNX.X& q A 0 H H l '.L.| N.F.8 9 ^ ] V 2.{ Z._.%.9.A.l '.5.= ;.%.F f | =X;X6.;.A.;XrXV.%.B. .1.l = 0 l L._ _ f z n.].%Xo.] } L F *.*.y m x z l q _ A.^ 4 q ` $.f 5 5.} | N.V.4._ } _ %.,XqX4 w w 8 5.] 4 <.eX/.B.1.D H F r r 7 [ 4.#.m X : d I I 0 G ..A H rXn.] _.Z.).<X,X:.G q A C.4.H _ [ 2.^ q ;.A.;.} z z G H ]  .} z l %._ =.:.*.*.x P | G 4.n.| f z j.T *.C.5.'.0X4.z L s T ` 0 d | G 6.;X1.H w w 1.N.7 l $.K.$.z [.vXtX'.d : P s 0 G 2.V.Z.n.4.w k.%. .4.F I ;.n.P T ` 5 & : 4.C.k.%.F f 5. . .) ,.3.3.N.2.X.~.`.`./.B.wX",
"| _ l l * w _ G G & A | _ C.n. .r ^ D 6._ F d I | 5.].1X)._.6.| G G L.] w w A G  .] 3.V.{.(.{.%.| G H ;.x.* f ....| l w 0 _ I ] I 5 u ; | | * s z F T F f 5.uXL.T '.T F 4.f = ` | lX,XG A f I _ B.)._.:X .] X.r  .>XL.| q l 4.=.;.4.1.w 0 ] 1.H _.B.3.6.,.3.6.N.L.G P -X} L.iXnX,.V. .w ).1.C.1XL.5.Z._ } } 4.'.Z.Z.'.,Xk.L.I f q = F ;.Z.N.C.F * Y T f f f  .N.,XI.T = = _ 1.4.I $.j s ; * s P P j C.=.u m j.x.G | %..X] k.:X1.6.,.B.J  .[ 3.[.5.P } 0 6. . .G A 5.5.:.=.d L =.:.} 0 = [ [.N.B.,.A.'.,XI _ N.[.Z.6.F K.m.C.5.} 5 l P %.0 + 7 ;.F 0 _ l [.'.F T $.T k.<X;.= F j.I j.I = F f f Z.I.*.C.=.q 4.;Xn.4.;.'.] _ A G Z.Z.| 6.V.S 1.~. .w e H [.6.3.,.V.e 1.G ] L.4.z = ;.5.1.] 9  .F.,.S 9 J F.A.n.4.G #.` 6._ ' ` ;.F.t.D.:X'.d 5 x : u h *.T.5.F.D ( wX$XH 1.;.q q 6.%.Z.tXn.F T | ,X;XZ.Z.l = ] Z.| 4 1.>X&XB._._._ | Z.sXe.`.`.5.} x Y m.=.G 4.4.G H I _.A.r ] _ * ] A.| I I n.N.G 0 F q.[ ^ S 6._.| F f & X & q ] f L.C.q G .XT.P $.P z I 5.5._ C.C.x.` L j z d z m.} x I d j P z u o d d w  ._ A = 7 Z.).;.G C.-Xz.T H 2._._ T h.5 z s A n. .4.H ] k.4.4 | 6. .| L.I.5.z T.j.* F C.I ..5. .7 Z.1XB.3.`.V.,.{ D 3.wXaXdXwXV.e.",
"6.'.].4.5 I P j.n.I H 4.;._ _ w D [ ] G q C.m.l | l n.=XY.4 0 6._ G C.|  .1. . .H J  .8 1.).;X[.} P | ,Xz.- k.=XN._ f %.Z.L.k.%.^ 0 + 5 ).F...q z } f & I x. Xk.` uX,X=.$.4.F ;.$.=.L.k.F =.N.N.N.N._.2X:XH F.B.| _ } 1.G I ] 6.;Xk.G ] | l = f ;X^ A  .1.e. .5.G : s 5 * %.&X>X2X:X_.H ;XF._.L.'.n.q I _ d 5 P =.I %.%.J A.[.k.[ ] w L.=X| 1.q j.j.* L 5.] ] } z z j | F H 1..X'.} d s * j T h :.zX,XP g h 4.` ,XZ.I } ] ;X'.n.;X[._.[ ~.6.3.V.3.Z.C.G e  .[.N.I G f ` z m * s x.n.F w S N.2.6.6.F.;.I o k.7XB.] G ].;.4 ;.:.$._ ^ ;.Z.G = 4 G } q 0 Z.Y.=.C.8XK.|  .Y.1.q f d 5 T %.z & G m.m.=.| %._ l I 4.1.;.n.'.'.& *  .'.6.r B.1.l 5.iXn.w w e N.V._._.B. .N.H _ } F 5 f ;..X_.8 X.yX~.) `.,.D ).1.| _ 0 _ 6.0X6.<XP.,X;X) B.F.n.l d s.h h s.T.Y.A 2XgXV./.3X`.`.,.0.V [ n.G 2. .z z k.tX[.n.5.6.G C.xXH o ;.&X3.S Z.q.| H 1.%Xe.0.( | T s ` %.] 2.B.5.l 4.'.4.A ;.} _ 4 4 I } _ ;.<XT.* l ;.rXB.F.=X)._ w I I j.=.f H ] 1.;._ l 0 5.=.5 0 = d q 4.| 6.Z.j.P 5 s z P j L =.L f F P F s < - , v i P L.} j.` s $.x.;.F i h i s z | } f P s d j j } q 0 w ] $XA.k.F H 1.H } 5.$.$.f | '.;.q L. .0 N.| F H 2.B.,.~./.V.`.yX`.{ r.).V S [ ",
"Z.Y.Y.%.:.m.0 P %.I ;.] n.Y.C.A._.;X_.S q 4.4.z L.%.A H ;.5.Y.| _ _.1.= 5.6.[ w S J 7 S e Z A f q I n.4.* j } } = w N.'.Y.;.Z.,XrX<X$.z 2.e.G L.].,XI G G f * z f C.=.G I } 4.=.} I C.} %.'.F G 5.6.6. .6.6.N._.H k.m...1.V.N. .[  ..Xn.I '.k.G 4.& = 6.).6.[.| s h x P l B.~.r. .7 ..] 1. .w ;.5.w z T f $.T d G G = f Z.I 3 [.7X..0 G I f f 5.8X` : d 1.).5._ 0 0 C.5.f =.k.C.C.m.T ` H Z.z ` =.=.} 5 s Y x.'.C.F q q G F 7 F Z.N.H  . .e ( ] B.( 4.| V.~.S _ G q 4.x.P m & s L.;...4.G w V &  .] F I s L.<Xw   k.T.f 4.m.I 4 n.C.r ^ G 5 _ n.C.I 6.Y.4.5.F x.$.G | 6.[.1.f = F ` x.4.f ` cX,XT G P n.,Xk.;.] q | 5.'.Z.w 0 G  .r _ G f l F %.'.%.& ] %.A _.6.%.0X).| j._ 0 4 & ] I w H 1XB.1.$X,.H 6._ ;.Y._ :.C. .| :.:.5.X.8 D A.6.H P z j x z | ;.1X<.`.t.C y.#X^./ r.0.r G 1.;.'.L L 1.5.5._ _ Z.n.1.).=Xf G `.q.;.6.5.q ).5.o.t.y.3.A F =.} %.6.1XA.5.L.L.I = * G ` =.F & l 2.Z.q.| G ` T.0X2X[ X.q.S _ =X_.C.-X6X:.N.B.| I G q T K.I = = q _ G G  .n.;Xn.0 = ` d l ' m.` } _ | k.F d x.O.< < j z h.C.C.:.j 0 F n.I h U @.m :.m.$.L - * #.P s I F | 2. .^ 1..X'.| ;._ :.:.$.T _ q q I G } G F n.k.G F A N.1.] X.3.V.V.!.( D  .w  .1.",
" .4 q 0 4 | l F A.C.1.| n.] ] F.6.X.A.5.l G 6.} n.| q H 0 _ 4.A 6..X;.4 } ;.] 2.w A %.E f G P L F | z f 4.k.x.x.& P k.n.;.k.7X7XC.4.P _ ] F P 6X6X5.5.4.4.z = d $.'._ $.} :.4.l f * 4.c.].I l T | %.1.H q } f ;.| %.I w 1.w  .1.w %.,X[.| '.n.7 l G A F H I A & U Y z.4.;.N.).V.A 1.F | 1.6.A | n.;.` L C.Y._ ...X%.3 0 | H H ,XC.G l 0 0 Y.L.C.=.d ` F | 4.4.%.w | } 4 q I $.` .X,X<XvXV.B.G I.k.D %.F %.N.1X[.;.0 = ] A G I =.G & = H & 0 6.[.6.H ..q  .1X .= = P C.K.f d * P L.1X=Xk.4.;.2.k.| = j j Y L } P G Y.c.G _ =X5.:.L.n.F.6.& h #.$.F l F } 5 ` d : } } A w A.7XI f F 0 $.=.l ` %.T * d l | Y.n.Z.Y.[ 7 | [.A._.H G | %.z L u - : h.4.7 = A I B.1.= 0 j.C.4.F 0 f 6.| } K.=.d | C.I A D w J _ ] F.q.w $.G l q 4 ;.;.G 5.2.[ ] %.z F n.2XxX;X;Xe.B.^ q.V.B.<.( A [ D G | _ ` L ` | A l } _  . .H Z.].l ` 2.~.n.I l | F.F.V.<.%X`. .] ` ` ] ] 3.V.).iXJ.< h u s.h d F * H Z.6.A 7 l :.Y.] _ 7 q q | ;.q.Y.| G P %.4.Z.} G $.0 _ <Xn.l H f } G ] 1.:XrX5.7 7 1._ l G ] G ;.].| G | ;.Y..X| I ] 4.%.MX,X= 4 I k._ l z O.m :.].n.I * = f } j F f T %.;X6.S A .X.XN.A Y.6XG d } } A 0  ..X=.: z L P.I.d } '.;.f } n.0X:X~.A.4.A.).:X>X",
"0 H Y.;.| L.`  XT.=X=X1.G q N.5.r V.,.1.| ;._ | 1.5._ 7 1.G G ].N.w } _ G l | w w ..f F L $.T s $.j.G P Z.).XXP 0 k.0X4.f F $.$.P = f f G | G } f 0 & = z q 5.F h O.` T x. Xl & 7 ..4.:.} 0 f ..I l 6.Z.I I q I | I A f A 4 f F f :.-X5.G '._ F L.T.=.I 0 5 1.=.: j ` T l A r 1.6. .q f H e G | A.;.| ' P.P l ] ).1.E I b.%.Z.K.5.P P f } %.F = & 0 z 0 F ` q H 6.N.H } f L z j x.q  .B.`.yXC.q J 6...I 5.6.1.X.C.L.G ..6.n.'..X4.d 0 ` P 4.nXxXA.S A ;.6.B.). .l 4.m.} z s & P l 5. . .V. .%.5.%.z 5 h u : j I.4.C.k.F I P l f = | N.^ 6 s L G l H H G 4.m.F f 0 d 5.A q w q $.I + F ` P ..4 l ` T %.%.4 = 5.tX1.n.n.N.[ A.G q ] 5.d j m - ; o : q G 1.4.C.H 0 L #.C. .] G ] [.k.G h.0 5 :.} } L.N.7 ] 4.q D V.l f ;.l 4 0 P q l T.'.N.^ G Z.k.n.[.1XtX] [ ).[ ;.A X 4 H ^ Y.,XN.w * F j ,XY.I %.Z.;.;.G ] G A G z _ rXn.= A ;.[ S ~.{ o.o.N.%.= q ] 3./.1.S L.P L O.5 5 u L z d l %.1._.F.5.} 7 D ;.4.G I :XN.6.] * f l C.Y.} G P + G | 2.q.).$XA G G 1.2.1.[ ( V H 1.A.V.[.`.X. .;.0 A _ ..1.V.3.V.e.pXB._ Z.n.7 A 4._ } } ` : d _ 5.] G f h.'.G s G ` `  . .6._ ] 5.A.A 4.$.q f l q l w 5.G F : j Y :.O.L z s s d z f q 8 A A A.:X4.7 n.",
"[ Y.Y.%.4.T z =.%.| F %.].N.;.5.V.`.B.N.1Xn.] [.] F _ n.n.] n.;._ G L.4.l } ] _ B.uX} P T m.z d : d f L.=XI z z = P 5.] d : d x.:.:.m.k.k.=XC.} G 4 f F F Z.L.P @ M W Y m l q 7 H Z.=.d L f ..1.0 0 _.A.k.f q %.'.).I 5.'.` 0 | x.T 0 * P x.d h.m.z j f 5 4.lX<XC.k.=.z f A ;.Z.H I F = w * = ] C.l _ =.P P q | %...G f =.P =.} & 5 0 & F } F P = d z z T Y u h L.Y.w f 5 s m s 5 F l [ ).6.= _.A.H G | w ).N.w x.x.P =.Z.'.C.;.j f 5 P '.1.4.4.;.] H | q.).,.N.6.l z L I f d $._ F C. .N.;.N.8 G | j j ; h G L.L.%.d f 4.} | F q & _ 4.d d =XH S q.n.k.].4.z m.=.C.).N.[.Y.n.T d s : L.N.A ,.B.| I 5.%.=X;.w | 5.n.6.).6._.N. .f | K.L L s F f } } | 5.w H 6.| : $.k.1.5.Z.). .1.} f f F .._ ] Z.X.1.:Xw ] _.).| z 1._ F z 5 5 m.qX_.2.r 8  .q  .5.[.).1. .l F #.: y #.L.n.n.qXY.;.I P f ;.4.f q I | _ L.6.D _.I.F | _ & d V.B.6.G 1.] V A f %._ ] 6. .;X_ _ l & G F _ H 0 z 4.K.l 0 ].VX).G _ 5.0X[.5.q N.Z.2.N.F.n.L.Z.B.4.I d F 5 q Z.n.N.5.G 1.C.5.;._ A w 9 = ,.`.`.A.[.7 e.N.d j ;.l =.$.w ] [.6.q.6.G B.).1. .B.=X1.n.$.& G | <Xn.] I.C.5.} .X5.= f A 6.N.G 0 | _.G l 0 4 q w B.6.,. .A _ F s & ; * z } 0 * T 0 f 0 = w ^ ,.V.( w 5.",
"B.Z.| q d >.f z C.=.0 %.Z.| l H N.2.S 2.Z.;.Z.1X5.)._.l 4.L.F 4 6.6.| l F l k.).).k.P F F } T x.P f C.=Xk.7 ` P 0 T 0 * I P : 4.:.` 4.=.;.k...Z.[.G %.G ]..XF & g 1 g u 5 = G B.6.A.].-.F %.N.1.f f ~.V.H k.L.1.;.;.q G x.c.` T '.:.z s 0 : + z m j x.XXC.f I N.;XB.L L L.6. .N.1.n.C...| A } C.:.| 4.` F } $.` 0 I 5.'.l f f T ` z j =.%.F G ;.j.F 4.` L b ; u %.6.I } = * G $.=.} I | } q F MXiX2.n.B.w  .).H F f G q 0 ..w  .C.T I x.| f f I G 0 4 & w V.6. . .G = = q _ } -X].;.H ;.F Z.tX;. .G 0 * I C.;...l l ;.,X'.%.6.Z.$.o F j.Y z n.[ q.).Y. .Y.$.} ].7Xn.0  .6.6. .5.4.f f ` w X.V.~.k.5.f | 4.F 4 S Z.] A.6.6.G A 6.2.Z.-Xs.5 d =.;.G } P I G r 2.A u =.6.N.4.'.H ..] A = ;.1.1.'.5.A X.>X;XG G V.| q ` | X.w A q I qX7XG * 4 = 4 ] 4 l N.=X_ * H Z.J.h y 6 5.G 5 4.I $.` d G A q 0 I ` G q | A.A [.|.h F %.P j.[.V.[.D w [  .J [ k.Z..XZ.H w _ ;.| 6._. .[.2.q.H q =.L 5 l 1. .l N.[.2.6.B.6.w 4 w H Y.T.,X;X| G | 4.J.q F Y.B.1.[ A ;.5.C.qX5.).k. .] B.:X6.X._.1.V.[ * F P T h s.F A.:XA.1.S ] %.1...1._.1XH k.} G ].n.G l f :.x.G ] =Xc.z P 6.).6.w w H _  .;XZ.4.H 6.A.3.6.N.%.] = =.0 z $.:.I c.} 4.4.6.P G I { ,.V.[ } I.",
"2.| ).;.m.K.$.=.;.%.1. .I F I I | | F _ _ 0 ;._ 0 _ Y.C.| = H Y.1.A 0 F 7 | ;XC.} 0 f ` I 4.=.l P I 6.1.3.[..XY.4.z | n.h.j.P s s : : 4.5.A 7 I | l & l %.5.C.P s + : 5 5.2.] rX[._ N.f = f C.k.F k.) e.n.Z.[.G S _ I = f C.8Xh.5 f j s T & z h.m 5 J.P.c.c.q H _._ m L _ 4.L.6.%.f F 4.] F I } T =.P s :.$.=.q T 4.T.I.4.F :.:.0 z j ` L.:.* f 4.I F I $.z s s 5 + G C.w 9 ,.%X&XX.k.x.` : G C.0XC.N.H ] rX<XC.| 1.| q ..H ) 2X<X| 4.'.P P H ..I e [ H H q.) 9 6.1.=.z N.n.z ` T k.I ;. .;.).B.J 6.5.G '.'.n. .0 l Y.=X;.c.uXP.m : & 5 x z l | 2.;X_ A Y.Z.;.n.4.4 l G  .] A ] 5.` K.z : f I = *.:.l _ } = l n.n.N.N.A 6.F.[ [ ] 5.I.P s I x.` %.F 0 T %.%._.| : s F  .I H H [ 5.%.I %.k.C.L.Y.B.6.V.N.n.w ] l F ;.[.2XF.F.A 0 | %.H _ ] 7 F ;.| f G ]  .| A | G 5 : 5 n.;.F 0 ` h u z l $X3.H n.Y.L.4 4 ;.[ n.+.+ ` 6.L.N.H V.V.%X3. .w e.e.V.).1.4.I G C.Y.B._ Z.] 2.V.[.] 5 : 5 ; h q f + z e.o. .6._ = 5.$.: 5 = G P = n.'.5._ l 4.5.0 '..X| } =.I ` x.4.C.N.4.] | 7  .:X .G G | 6.L m Y $.F P I.'.} P ] l Z...[.,XI f | | k.,XZ.] | _ F 4.C. ._.L.z L ..Y. .k.| G  . .L.j.} H V.&X!.1.1.;.Y.6.pX6.2.).Z._.;XA 1.N.6.6.[.N.~.>X%XA f 4.",
"N.1.Y.I | -X_ 5 m.'.'.A.4.G G 5.} L.oX$.` n.$.F =.5.n.5.4 0 l n.| * I H A G P } :.} z $.l 1.6.= S  .=  .).tX).4.k.0 T :.s : =.d * : 0 G C._.1.[.=X4.` f q j.n.x.d P T ;.;XA.6.] ~.A.[.n.7 = '.1.* A H  .1.G w ] N.rX6.= = ` h.=.: 5 T C.=.` :.` z h F P L.,X].V._.%.z Y 4.Y.6.f = 0 A [ 6.| j j z z : x.P ` :.5 T ].$.F $.d C.T.j.L + T j.G G L.C.| F h.K.} j P j P ` [.A.3.t.t.3.rXY.X F z o } } _ l + f '.I H [.k.n.Z. .J V 3.6.$.m.G G c.5.4.%.1.<X2.q.,.,.V.wXA.` x.=XZ.T z z.Y.;.).N.= l Z.1. .w A [. .( ,.H | | C.=.4.#.: *.#.z.L + | 0XA.w 8 ;.).B.G 1._ A f q _ n.[ G 7 = ` m.:.d : + : + 4 n.Z.n._ 2.).X.N.1.H 1.>XV.S l q d z 5 #.K.d P 0 : T n.| ;.} 5 I ].Y.k.;X .G 4.P ` '.4.T } G n.n. .<XZ. .6.6.N.2XtXD.,.,.H Y._  .A.5.;.| _.N.6.I 4 = _  .7 7 | :.m ' 5.=X} *.|.T h ` 5.$X>X2Xn.Z.xX4.= ;._.I.N h uXrX:X[.V._.`. .X.]  .H V J  .1.| 0 f I 1. .7  .8 S q.X.w = d d s *.L.qXI.G ^ D 1.A.| 5.].$.5 u =.n.' : =._.| F _ C.l + d | P $.P 4 f s G F F 1.;.1.4.[ ).4.] A.=X| x u I.AXL.F P l 7 | G F ,X'.L.4.H A  .4.5._ q I } H q ].n.w w 4 j P 5.| 1.n.c.F l r f f = I  .V.e. ...I G ..).3.,.w 2.7XH ;.`.q. .= 1.6.6.2.`.J F ,X",
":X;.l f ;.>.z :.} G %.} 5.G n.4.` 5.m.$.d d 5 d n.<X=X;.l I G Z.'.l S _ V.%.f c.m.j.` 5.c.).[.N. .H 0 [ n.N._  .G I T & + f :.:.#.L d l _ 4.;XL.;X<X<X=.k.;.Z.4.f L.Z.n.:X6.V.( D /.fX&X{ ,.e.~.6.1.3.[ l k.2.V.D  .] ..f + d 5 d C.].T q %.4.4.L j 0 = m.6XC.%.[.A : #.6X%.7 F * d H 2.2XL.F I | 4.7 1.5.Y.1XY.%.k.} k.l X } J.L u T P.` P | I P _ F f 0 } 6.;X6.%.6.A.;X`.[ H f } F H A.N.1..X$.} I T l f q 0 Y h z %. .n.I = * G C.P T Z.$.x.:.f $.G } A r S 6.6.} P k.m.m h |.uX;.2._.2.= f H V.3.{ V.3.9 B.V.] A %.` T d T P 0 Z.] 1.q.V.o._ 5 f 5.` f ;._ 1.C.] k.G 1.n.f | 5.f d s u < o f ).$X=Xn.]  .B.D 8  .X.[ A.>X2.k.'.P ` h.T C.j.f z : $.P F ] Z.T 5 $.4.| Y.D ] j.P h O.$.& * f f G F I H L.} } _ N.V.e.#X_.5.].'.k.|  .%.f | n.1.4.l r 8 D ^ 1.[.N.P :.1.[.L.5 h y i h ).&X,.F.[ r Z.| F 0 } ' ; ; 1.A. .6.:XrX5.* 6.=.F = F $.4.'._. .X.S H } _ _ q.6.2.q.l | 4 I P T A.F.0X] 4 ( ( X.[.'.l l & & H l + 5 * *.n.] l l q _ G f T  X=X4 & = = ;.%.L. .%.1.H N.;Xl | ..| *.* x j.[.B.S ] r  .A.2.[.[.6.1.& G .X1X;.%.f G G F C.C.5.w = 7 z z %.5.<X<Xn.F ] ).5.= 0 I |  .H 6.F x.%.| w { 8.) w H H N.[.).2.H S [.[.k.:Xk.I :.",
"[.A._ I T z $.Z.q f P | L._ } q z f G F P } l d } 4 l w w q q P _ 0 _._.D =XL.| :.F : F } ] ..6.Y.1.4.G I G A )._ f s : 4.oX|.T.h.$.0 6._ 0 5.w _ 5...| '.%.I P w H N.[ G  .3.D e D V.V.&X`.:X1X2X6.,.q.'.;.2.fX>X,.6.Z.` f z z C.L.'.A = f $.=.P s 5 f } ;.w = 6.%.=.=.4 f _ _ = } V.( ] l h.K.Z.N.).6.1.'.L.%.} ] ] P 0 P J.$.: - =.XX| ` F * T G f ..I w V.A.J w S w 5.| 7 5 s =.} _.[.A.rX.X5.T x.} d $.$.P ; - : 0 H %.q = j.Y.4.` ;.$.I z d F T 4._ | 2.2.N.1.z 0 I T i U * 4 2.%XF.N.q z P  .6.B.V.,.S 1.G  .H * 5 & : =. X_ } w e.t.<.V.m.z * d d F G 1.N.| l w l G H %.L.lX] f F : T :.H ^ ] [.[.q.).[.^ A [ A.w r B.%XxXL.P m.j.} 5.G f F %.` 0 5.;X[.;.P j z I G r ] x.L j P #.z f f T F z $.| ;.Z.Y.Z.r A S ,.6.G | 4.G H 6.=XI _ <X;X6.1.] | >XtX$X[ ] F %._.$X_ z * : m z 7 { D 7 D  .| G ;._ q F 5 s 0 _ l = = = = G n.5.f q z = & I ] w N.S  .} 0 Y.A.1.V.rX| ;. .5.| l ;.^ & [ e.3.D B.].%.f 4 G n.5.;.L s L z l _ _ G | C.| l I I %.z q 4 & =.6._ | N.2.;. .[.n. .J f L m d 5 N.%XwXV.X.X.6.2. .^ N.I | L.L.n.I ].k.C.} I  X%...A 1. .F s l [.N.k.5.l C.7X'.` $.4.,X).[.n.0 z C.Y.1. .V. .l J 6.4. .w [ w  ..X4.F %.G f I ",
"X.tXC.l z f P d & %.n.I | 4 w q 4 | Z.;.4.-XI F :.4.=.k.Z.C.P 4.4.f 6. .w 1.G } x.G :.=.l = 4 q I | P s q 4 0 f f s 5 h =.k.K.L j L 0 I H N.).l  .'.I T m.T L.].5.%.Z.H q l ` } 0 4 w V.[.C.F $.N.6.{ _.m.= A `.yX/.~.rXI 0 * T '.5._ & 7 _ 6.$.I.=.L F $.| w n.).k.$.f = f w 0 P s  .V._.H j : f 0 | ;.0 P K.0 f F o q z C.8XT z 5 f $.| l q _ } 7 ] ).6.8 ).;XA f I C.:.:.f & =. X` f | %.} Z.I . j z d j f #.: : q G ] J ] 6.5.<X4.0 l H G f }  X0XN.H N.%X`.aX`.4 ` | d g +.h & V.yXD ] F f 5 5 H B.:XrXI o s P ` F f } 4.6.;._ G q 3.t.X._ z = q } '.;XB.B.6.S H G * & A ] _.).%.5.f l } 8X5.n.n.H N.2XsXHX2.6.F.w A [.6.6._.%.* 5 : 5 + 1.1.f Z._.;.[ V.%X_.` m + f 5.6.2.Z...1.C.Z.| H 4.0 5 h j.5.| C.T.n.G ^  .A.n.$.;.P G f 7 n.n.N.Z.G .XC.6.5.} 6.$X9 ^ 1.Z.6. .l F q = j ` S S  .H B.;Xq._ f G $.G 5.n. ._ z d = = 5.;XlXw %.Z.] ;.4.;X;. .r  .$Xk.l _ w V [ S H } n.m.z.T |  . .[.6.S _._.;.5.z F |  ._ Z.;X_.5.0 5 & * 5.N.q ^ A. .%.G 4  .G ..N.;.w I C.l 4 ] V.). .Z.F f F $.I %.[.).2. .A H [ J S [ k.7X'.| ..;.%.;.n.f f | 4.w ] F.] 5 P } _ S 7 o = _ ..I $.:.j q 4.%.0 f 5 ` L.x.z f F w f L.,Xw 0 ]  .Y.L.5 F 1.} ` $.",
"8 H _ } T 4 d f f G 5._ ^  .n.;.H | C.C.<X'._ | } Z.n.k.Y.4.=.oXj.G 1.6._ H | ..5.L.=XqXC.F =.f G ` z 0 T z & 5.C.I : ` x.G } P j 0 } I I '.1.= ] k.F | 4.` 5.N.N._ H $.P f ` } 5 x.<X1.I | z F A 2.A.N.z + A ( D ( J S 7 G s ` :._ 0 l A  ...| ` T I G I f ] 4. . .P = _ C.H G } z A vX1XN.I *.#.d d 0 = z F d d 5 } ].x.G x.:.= f I = G 1.%. .6.w ..7 7 8 6.6.J 4.uX-XT.j.: F 4.$.= 5 z s F =.I x.m.$.z 4.} | | f 0 G  ._.vX6.| _ G f ;.].I f } l | '.).H A H B.F.w _ l %.5 y * P A.1X>X] G j ` j...] k.].j.: s L j. Xj x.;XpX4.F & I A.B.r G | G _ 5. .Z.).X.A.[ ;.5.7 7 7 1.A.1.1.<X[ S _ Y.C.5. .;XbX).A 4 l 5.[.X.1.1XN.[ Y.C.=.z $.G ..6.f w N.B.1.A 2.B.C.0 - j N..X .V.%X1.N.A.).2.] N.%.I s z | _ 4 l :.5._ '.C.z I F q I } _ l 4 H } l %.;.G $.G | 1.C { 6.5.5.5.;.;.1.%.5 5 ;.2.q A X.[ _ l l f G q B.e.8 } G.T z C.[.).| 0 6.N.1.;X).[.4.F | 1.A.Y. .^ o.( D 7 } :.F :.j.5 5.n.A.5.l 2.vX1X0 F f >.Y.l = w  .B.3. .f F 0 %.Y.1.1.5.).tXn._ ).[. .k.4.H C.N.] 0 6._.6.w P f w q =.j 0 I ] 6.tX1.F G  .1.w P } q & 0 F _ .X,Xf f f | | 5.e.] I K.] w 0  .5.F k...0 5 T L = f f I =.f T T.J.* z m.k.| ..;.l 0 =.k.N.;.s $.j.$.j F ",
"] 1.[.'.F 4 F $.%.6.e./.t.`.~.5.1.] 5._ n.Z.%.G = f H G f f 0 T z F H ..H w  .=XN.H ] 5.G P C.Z.f 5 T z x.$.& f c.P s =.oXlX].5 & P ;XN.& k.C.A 1.H + 5 + F n.7 _ q = T =.=.0 q F } ).4.L._ z $.'.=X:XZ.d =.H 9 7 [ S = 6.k.$.C.T 5 Y =.n.V.;X_ -.d z 4.l w n.%.| F 0 & %.[._.6.%.| '.Z.H C.T l.*.m $.G F 4.-Xm : F | %.%...[.qX.X5.] H n.4.A.[.).6.4.w 6.$XV.~.e.F.| P F j } C.=.z 5 ` d d 0 f $.K.=.T C.mXT.;.5.A [.:XB.[.0Xk.k.T f 4.| I '..X| z P n.Y.C.l 5 n.I.4 F.F.[ f f 5.uX'.I x.G I 6.=XY.f : 0 I %.l = L.,Xh.s f %.N.H l q _ C.n.r 2.>XtX .7 ^ 6.$XS 2.Y. .4.k.} ]  .'.1.w ] n.} 5.1.;.%.4 l 4.d 0 4 & q q.q.4 ;.q._ %._ .X].<XN.$X .A G N.2._ %.l 1.n.P l 5.;.c.5 f  .7 H I q ;.lXiX5.q G | w 6.L._ P 5.l + 4.$.f 0 l  .B.1.] 0 * G j.$.= L j.=.]  .D ,.| _ 6.| G 5.Y.%.z K.Z.V.S N.:X_...= } _ _ j.1.= 7 | j.z G C.Y.n.H 4 A ;.} 5. ._ n.Y.| 7 ] [ ] &Xt.!.`.S Y.$.' u :.P 5 I | 4.6.0 6.j.l =.Y h f.s.d C._ ] %X%X} *.I w ] ] H A 5.;.%.=XZ.n.5.I * F k._ 4.0 G .X1.H 0 0 F C.4.& c.'.1X).2.1.5.| 6.V.;XI q l ] ;.1.C.Z.Y._ F A | 6.5.[.6.H %.H J w n.8X4.| %.o s L z f T $.T F j K.,X| 5 5.4.k.V.w A I I l A _ H | } T 4.] %.",
"%.1.;.4._ _ f G 6.[ 3.&X/.V D ;.6. .5.n._.A.A H I $.f f f 7 s x.4.5 G I q = w w G 7 1.4.| 7 | k.5.l f Y.z.F %.%.=.` T : P 4.x.#.&.P _.F.G 4.L._.tXN.N.Y.F 5.vX6.q f =.%.P f _ x.6.0 ] 1.<XN.& w %.I N.=.0 0 ] ).H l | 4.;.G I ` =.m.O.o ;. . ..XuXj.} C.N.I L.4.H A 5.Z.k.[ N.n.A I ;.;.4.` z : s I T _ q L.j.` } F * q I f H ] 1X).k.I = N.[.V. .;X_.G 2.:X$XV.B.[.4.$.j h $.P f } d :.C.T 5 * P _ j.G F oX].iX:.P [.e.D ] 2.f 5.4.f G G F ;.C.f 4.J.T ;.$.d 6 s z 7 e.V.).Z.).1X'.I : j I f f 7 G x.#.L j l A H 6.C.& : : f = [ ;.* G <XZ.;.n.B.V.S & ^ ).V.2.lXlX_ k.} | C.=.& %.C.} F } k.:.4.| G 4 = K.'.q _ C.N.X.S S _ w 4 l 5.] { 3.!.,.1._ 9 7 & f A H G 7 1.%.H 4.L P Z.B.F G P Y.7Xn.] q j.uX6.xXFXn._ m.C.$.T.'.T I [  .N.N. .4 & G f s s z j 5 4 4 6.B.} G 0 F _ Z.A.;.=.j.| 6.A 6.F.4.] _ A %.4.4.4.H ]  .$.L 4.Y.I 1.].} } ;.I I q A Z.n.;.H A 7 A e.eXdXyXX.H I u d m d $.5.=X'._ F 0Xj.` P 5 + g m z C.| q /.&X>Xl 4 1.D A ] ).5. .%.4.].].z 4 0 f f z | } _ ] 7 H f =.L.4.` 4.| I B.iXN.[ 5.G { /.:Xf q } P k.;XL.N..X;.l %.A q 1.).A A I 1.).;.0 C.h.= = * 5 L z ` ` I d 5 0 j.C.P 4 ..6. .Y.l  .6.6.H ..5. .4.P 4 G k...",
"l 4.;._ } n.;.1.] w e.r./.e.~.^ 1.^ D N.q.5.H _ '.'.4.k.C.k.G f :.4.c.'.$.} k.F I L.).L.6.| %.C.N.H | k.q %.iXqXL.G P z & 5 j m #.P  .rXZ.| ].'.2.3.=X'.6.[.pX:X%.=.k.Z.L.'.| x.| 4.;.0 4..X| 7 A I 0 * 1. .4.F =.=.=.T I | 0 j =.E.m o P [ 4 $.4.T P } G H N._.5.| Y.rX6.= A.4.Y.,XC.f j.6X X} h.%.H ] 7 6.'.0 : f G ` P f ..0 7 P L.4.q 0 7 H Z.L...I k.J S 7 6.).I = z d z I 0 T d j.m.:.s * I | C.Y.6.P =.%.d * q S 9 { V. .V.Z.4.N.G ` T.f l $.I.F x x d s s u 5 I | G 7 _ 6Xm.X s g j f c.} ;.,XP.=.= I I } '.k.& & s l ] >XV. .4.].m.z s l o.%XV.t.&X2.Z.7X%.l } = I F * 0 I ` } %.C.%.f _  .Y.N.] 5.F.2.| 2.n.1X .A _.A.1.l G ;.B.wXB.o.F.3.!.3.D r %X;XV e 1.1.1.'.V.:XV.] ] [.N.1.H =  .} 5.;.G 5.` L 5 T j.n.T F _ =XfX{ [ Y.<X%.| H } d : j I ` F  ._ ].,Xj ; $.I A.[ l P z | B.{ D e l I ] w f | L.5.k.Y.L.=.s n.6.= 4. X%.;.l _ | 7 ] A.;._ l H _ } l X.$X`.&Xq.).F * f ` %.%.;.:.0 f j.:.P } %.` ; + d } | ;.e.wXB.X.6.6. .5.<X_.n.5.q 0 $.$.` f _ 5._ q C.T.5.0 A Y.L.%.<XL.q F 0 f ] N.rX| = | 3.e._ q :.f w F N.L.f G 5.;.0 ;._.Y.;.G D ]  .'.` j L 5 f f =.I 5.m.n.F * $.$.* & F | * Z.6.6.6.[ [ 6._. .Z.A.H  .A H 5.k.} ",
"I } } _ Y.n.I | ] r w w  .$XpX1.] 6.^ ] q.l A I | | 1.N.%.6.T F } } F $.4.C.;.F %.L.%.%...G 5. .G 6.6.& l m.:.4.l f $.:.: h.=.: s ` 6. ...q F F w ] G f | Y.V. .c.I %.A '..X5 G 5.I 7 4.Y.A.;XN.k.k.j I A.1.n.f | L.z s ].<XP * + L m.T '.[.6.;.0 I %.| | H %.S l f } N.7 w 1.S f | =.q f L.-X$.=._ q. .~.N.] l $.I %.G = | m.G w C.Y.4.F _ 1.| _.C.Z.;X%.k. .] B._.4.0 z z T F 0 } K.z.$.5 L P 4.F A A.%...Z.:.Y h P  .,.) V.V.%XH w f d } ` $.oXK.l :.| z d + P ' l q l G ] N.].x.s & h Y } I I '.8XT.5 F 4.q q G | l - L Y.).V._.2X_.n.5 * + *  .r.`.&XfX2X;X] 5.%.L.=.d F } z o 5 P f %.q & I 6.A.L.Z.[ N.^ 4 H 1.n._ * | 1X%.G | n..X;X).;.2.5.%X;XV.8  .B.;.k.] $.%.Z.;X .* e X.3.H A 1.J D 1.6.H l | L * d m.:.T l 0 w q.%X{ r l n.1.} Y.[.I $.z #.x.4 ] 4 f Y j L ` P f | G z L G F.{ _.Z.| A w  .0 G 5.w I n.C.=.s l I w _ } =.4 d F 5.2. .[ A H f ` q 0 G _ B.#X/.`.[ _ | 5.} l _ n.f q 0 F F _ ).rXY.j x '.[.Y.5.S _.1.D 1.1.] H } w 4 & + 5 z $.m.G P qXqX} P N.Y.6.L.mXN.f 5.;.I = * I } ..] G 5 5.e.r.] f P F %._ I l f q '.Z.q A _.N.= %.V.)._ k.` s j z P q H n.;.| f G %.C.j.d o F G f l q  . .B.2.[ ] 2.6.B.1.A w I = 0 F ",
"G | P _ 5.G A  .] _ 0 q A A.>XA.H Z.B.= 1.] A | w ..7. .1. .] L.4.P l C.-X| q | k.0 = G 0 * V.N.6.B.w = = 5 : L * : O.s ` '.| f $.P  .1.G & f l A ] =.h.m.:.F n...4 d z j $.%.1._.0 0 ] ] I N.L.l l F d A.S 0 :.C.f : * ` ].C.d P P I T 4.F .XMX4.} %.4.5.;XFXN.7 F ..w q B.rX1X4 4 q f Y.-X4.P 4.H A.rX;X;X7 q ` = | C.l _ I ;.l ;.N.1.A ]  .1. . ..XN.] 4.:XA.e.`.,X` j j ` K.XXh.:.` : } x.$.z z 6. .J 6.=.z p *.E.].~.] 2.).B. .& = l X X f l 5.=X=XP z l j.,XC.q | _.V.1X;Xe.= f *.h.F G ] G %.L.T l 4.s j F 4 H f 5 =.;X^ C wX_.A 5 : - : q 8 9 <.r.wXpX1.l %.=.F x.I } T.z.d P 4.m.P = 5 ` j.` f q L.=X%.;.5.w ].[.H | ;.l P $.:.` + F d = G I T _ 4 _ f 5 ` * & L x.Z.F.l w ,.{ ( A S  .^ 6.tXY.'.6Xj.z m P f 4.4._ J r ,.D 1.=XH w  .6.L.).F d G _  .N.7 5 P h L *.x.H N.l T ` | `././.n.%.| 1.[.H 4 w q l :XZ.T d G | ;.7X].I ` C.5.| 1.X.1.;.I I = q N.n.I l ~.yX<.3.;X2.q.n.| Y.L.1.F } n.L._.B.A.C.$.l ;X;X` l n._. .H F z | P l = d $.:.` l :.4.0 %.} Z.n.l G | I 5.=XN.9.| 1.%.F P f 4.4.I I * G e.{ ] 5 0 ` G  .L.6.I G q 0 F 1.;.q & Z.;Xe.w l I T T F _  .A A q 0 q = d ;.F 0 z ` L.} f w H ,.e.[.;XB. ._.;X3. .1.%.| F f ",
"0 F n.| _ 4 l ).Z.G } G q f Z.| A D G  .[ ;.| H %.Z.6.] K H f f } ` n.uX5.q G I 5.] I N.L._ H V w e H I = s T P.s.l.#.5 C.L.4 0 s 5 A  .Z._ F F I f P l.J.: 5 ] [ = F J.z T pX_.k.1.N.%.Z.[._. .I | _ n..X;.l T I F h j 5.C.P P h.d f f o & G ;.` G f | k.] ).N.].4.H w A H V.).w 0 H Z.4.l T j.G l %.V.N.A.G j.,X4.d _ C.k.k.6...)._.).N.] A 1.1.| A ..6.w ..H B.[ _ j 5 P C.I.'.4.m.T I zXCX#.+ s A.wXwX1.=.O.g g m..XN._ 7 G L.| F F G F z q G 6.;.= G n.4.;.5.G q } 6.$X>Xr.~. ...'.I.:.] %.| %.F w N.'.} P f q F f P 4.1. .S ,.X.5.= d T d N.6.B.) r.e.N.] q P =.q P P f %.C.F 0 } I T P = f q * 5 = F F } G n.n.C.[.Z.%._ 1.%.L.` d ' T >.| I T C.6.f %.L i ; j x ` } [ [ | | ] 2.D J S w l 5.G l 4.k.;.0 f f ` ` z f  .6.V.] ] J 6.]  .G H w = P l q e.[.;._ m x x P $.1.$XZ.d #.| ( r V G w w H n.1.A } 4 A 1.1.0 d l Z._ I ` G =.Z.n. .).Y.N.'.N.| = I 1. .r w [ 2X%X`.#X,.e.%XZ.H H %.w H l 4 7 8 q 1.1.l <X2.l = _ 5.| j.f m.` 5 ` G #.-XmXK.5 _ l * } 6.} N.q Z.<XrX .w 4.N.=.G %.k.G 5.;XV.J H 5 I `.3.w f $.K.Z.V.Z.%.5.k.G G 6.). .f 5._.1X1._ C.= 7 L.f = 1.L.1XL.f F f f 0 d z z L.-XG 4.;.[ A { 2.[.V.N.$X6.2.1.n. .=X5.x.",
"x.5.4.$.Z.f | G 1.L.I.` z T k.4.).V.;.1._ 1...1.1.| 1.{ o.{.6.Z f 0 4.K.4.= H ).'.6.[ N.6.).B.V ~.A.;Xn.F h x z.T J.x.I ` :.s P.z.d H e } F d }  .H f 0 $.: f n.H 7 G 4.=.=.Y.C.0 ;.[.k.G Z.1.%.[._.r C.n._ <XC.%.L.` m.7XC.$.:.z s } %.P | A.[ x.T 0 l = ] 6.1.1.F = 4 _ S S w = = 4...%.=.} I } | G 5.k.l l $.K.x.` L.C.f T 4.G & = l %...7  ._ q _ f P |  .S V H _ 0 P s 0 d 0 ` 4.= s #.T.P s s 4.e.V.H } z h h f ..| _ 5 0 P 4.=.q %.].6._ ;.H | _ Y.1XX.| G %.j.*.T  .{ 1.6.=.F T =.F I Z 0 | 6.A.Y.Y.$.z P =.| $.h.P | V.6.1.| 1.P F _ _ [.rXsXF.).q.;.).] %.L.c.l 0 0 C.].F P 8X'.Y.'.4.= F I 4 & 5 G I H L.A.G _  .& = { ,.V.[ | [._ n.Y.A 4 5.^  ._ z b u m.;X;X1X6.) { w 6.iX4.] H %.| | w 4 L.Y.Z.Z.1.w F f f = A [ ;XpX1X1.5.C.%.7 S w 8 ] | ] B.^ 2.k.0 j.T.I._ =X[.l : u l 9 D /. .H A H %.| '.;.G w = H d ' C.K.4 = G d o 4.6.H ).G G 4.'.| ] [ V V { [ q %.6.,.3.,.3.e.| A G S ] 2.[ ] H 1.Y.5.f H ^ ^ G q G ;.l F = F 4.G %.<XY.k.k.] k.n.f w ;.6.1.1.] =X=XN.A A 7.[.N.] Z.I _ N.B.,.D J G =.,.!.[. XT } %.6.5.I } $.$.%.| 2.] k.[.1.1.6.S q.3.e.1XA.[ N.C.L.c.f P j s d j.z L =.k.Z.C...q 1.;X`.6.).V.1.{ 2.G G f 0 _ =X",
"L.8Xf z } :.'.f } ,X>.I.*.5 I N.Y. .Z.pX6.| 4.H f  .6.V.B.N.w 1.%.l =.F F I 7 ] [ w 6.iX6.I A A 3.6.;.=.T : o j j d j.$.z s z =.x.` N.B.4.$.f $.Z.1.I F %.| C.].I w  . .| k.l 4 w _ L.C.G 6.k.H _ 1.2.5.F ;.;XF.N.C.} 5.,XL.P } ` z H n.L.| | [ 5.T %.4.] 4.:Xk.G } P _ 4. .] `.r e A I ;.:.f :.T.s G | I 0 f d d 4.%.1.l l k.I > 5 = = %.5.=.f C..X5.f = A 6.B.V.1XL.s 5 -.:.| 4.Z.F q 0 } F + j =.G [ w = 4 $.=.d l f $.d 5 & = j 5 f 5._ _ A 6.n.| 6.].| H n.4.` z m d 5.1.B.I =.T s F L } ] * l  .N.N.f 0 z | 5.q = s d | Z. .I =.K.%.n.L.).1X[. .Y.A.n.A. ...H G ` F | 4.1._ f 6.].].L.C.l l _ 4.F & G ` _ 5.%._ ] ;.A H [ &XV.,.2X .[ H A X.^ q F 2.[ r & j d f |  .1XV.B._.( J H ).6.n..XZ.5 5 x..X6.).1X2X .4 q _ 4 w H J 6.6.Y.rX.X0 w N.1.w 1.).6.:XyXF._.G :.uX<X .[ A 7 j L ..H ).N.] F l I I 2.6.w w e A w l k.Z.} = z %.l f _ F f I q q | } _ X.A.{ t.( A q f Y.V.) ( C 8 | ] | A.tXB.1.sX).N.N.;.Z.).e.1._ l F %.;.;.F 4 ;._ _ A.H _ A 4 w _ * | ;.I C.<XC.4.;.I A A w  .] 5.'.4.I | V.w V e T Y.2. .;XC.0 F } _ P I F T ` F C.1.] Z.6...5 = G :X`.{ { 2.V.6.I l F 0 P 4.L z j #.5X` d '.I. .1.1.B.`. .6.1.B.A.B.} q | A n.A.",
"4.} 7 4 G ;.G l G =.j.x.5 T } l ] N.N.5.$X_.J l Z.6.6.;XN.3 ;.N.} 5 z h.C.I 1.`._.B.%X1X6.f %.N.A & l 0 * : d x.L : ` :.* = * : w A ] Y.m.5 T $.1.5.=Xx.F | n.k.I 4.w.&X3.] G 6.1XiXZ.z q l q = 4 S e.>X_.%X>XV.H k.Z.I A = G } q %.| ] G G 2.S ..Z.: F I 6.pXL.f G P } = %.3.).N.6.%.%.G T P F 0 F | =...%.=.$.K.'.} * G 5.= * & & o P k.k._.l %..XG f = 4 1.2.2. .0 T #.C.Y.'.:XrXY.k.,XL.l = F | _ 1.3.D 1.uX[.7 V A G P 0 f f q 1.Y.Y.,XZ.1.6.| q .X1X0 = q l $.` s = s l | q F F s j F _ _ 4.). .A G l z $._ f l T :.P 0 7 G z I C.5.l = | L.;.4 q 0 G G F $.5 F ` f | ).[.G %.G 4 d H 5.2.D [ 2.n.F 5 z :.+.h f l | | 2.B.wX[ ;.5.z T F A ).6.0 + } l ).).4.| H ).6.A w ,.&X;X2.6.1.I } f P l 0 } k.A 8 r [ ] I q l l N.C.F f 5.k.n.F l G | L.A._.&X[ ,.2Xe.{ 1.4 n.rXq.A ;.q 0 5.cX,X` _ F s 5.=.%.1.F.6. .V.3.w | | c.| q f f I ` z 4 | $.q f T ` C.A 1.F.`.^ _.Y. .q.H D q.3.] ] } ] H D D  .X.^ H 6.6.6.2XV.r 7 f l n.4.` l F H H S A l G A.6.G ` 5.5.q = f 4.4.f f F G '. .D f _ Z.L.F _ J w w f & ].~.{ V.] H G q 0 d d d z 0 T 4.l k. .n.} & : 0 ;.6.7 S k.N.P l f l q T x.4.z o ` j.$.| ` l P ] J H A.;X[ S A B.).l _ =Xn.X.;.",
" . .] H A =X).6.f P l P P..X7X1.4 8 ^ * S 6.6.Z.N.;.I %.I G 5.9.4 + & I  .l 6.N._.e.] [.,Xx.1.| 1.L.5.0 :.*.P $.=.P 5 ` d =.=.P ] S k.I * : L z 0 } 4._ 0 G ] H .. .D <.( 6.3.:X:X).T P f P l  .^ 6.| V C ) D.{ q.5.;X,XG 5.5.H Z.6.H F } 4 n.n.J | ` Z._.X.N.%.} x.s 0 & 6.1X;XB.6.1.G l f z f T j.P G 1.'.k.| k.%.k.k.N.=.%.:.` :.d _ j.| Y.V.2.S H ..0 V.~.B.[ & z P *.P.C.[.A.w n.%.4.] 7 7  .Y.Z.Y.>X1XZ..XvX[.B.6..X;.f %.A.] A.Z.5.1.I Y. .q ] =XI l ;.5 4 T n.m.$.P * : Z.C.5 F 5.| =  .Z.;X$X] _ _ F : 4 _ C.'.m.j.I & P 0 x P ] | I F = f 5 I z j.n.j.h.5XT.m.l H %.A l ] & = P _ ..H 1.$X1.l G %.P d : x 0 l ;.L.5.6.n.l 5 * 5 q 0 D $X] d oX5.* ] _.6.6. .A [ ] S  .1.{ Y.,X| x.T.d 5 d P L.Y._ D ^ F.;XG 5 d } %.5.0X).rXA.= | '.z & | V.q.V.3.( $X~.2Xn.l | A.,.A | f z z *.P.:.Y d j I ] | |  .9 ,.[.2.A.%.l I G f 4 T _ z 0 4.,XT q G z ` F w H 7 ^ 3.B.`.~.wX>X] X.q.N.H l f [ [ 6.A q | Z.$X:X_. .q.B.l = q I _ F 4 G | A B.).n.] Y.).H f 6.| 4 4.=.P : f F x.'.;X2.A 0 0 G } q | ,X)._ ..f G ~.w.).H ;.=.X P -.P d & :.m.F f L.4.J.P o ` 4.4.%.] _ C.l f G l l ] ]..X4.q P ` 0 d } T 0 G _ w 1.] A w _ n.:X6.[ 2.n.4.[ q.",
"r N.).] | 6.1.2.[  .N.<XY.=X).6.S A 2.B.| X._._.A...0 f 2.B.] & : ` 6. .= A w ..1.f  .N.| z d } Y.,X} T qX X: 0 =.h.m.:.d m.:.4.V.~.6.s s m j.L m P L I k.A.e.3.[.V.J S I 1.] B.6.H } G n..Xn.;.| S G G { V <.<.2.] 4.5.;.lXlX%.1.f = } T = | C.6. .N.2.w )  .H 4.| F f f ..2.B.6.e 1.=XF f F P P } 7 _ L.'.6.N.w = 5.6.H } Y..XI.4.C.} | F 6.rXtXV.`.).A._.`.`.] T O.O.h u Y x.} 0 = ;.N.1.{ 3.`.).6.6.6.{ F | m.k. .2.k.4._ Z.[.Z.f $.j.G f q l f 1.n.q ;.4.l = G C.m.F T K.} '.%.+ [ <XZ. . .H N.B.J l } q } 5.c.` 4.5 P f l 0 I O.5 l w G _ 4 q :.6XC.j.4.' =.4.F x.G _ G 4.;.q H 5.;X..= 7 F.N.q.X.tXZXZ.G z } z I I.L.H 1.l A ` d d F _ 6.q 0 I ,Xf & = 7 [ e S A r | n._.S w l P F } I 5 f q ;._.B.3.`._.2X.X*.j s j.K.;._ _ 4.| = 4 G T m j S _ H | q.1.3.~.H z ` N.S H ' j.T 5 - m P P =.F ` G G H  . .[ A { 2.A _ Z.k.I 5 ` $.P l 0 #.I >.j.Y.Z.;.G  .8 [ e.D 2.q.,.1.8 A [._.$.z %.| _ q.w H Y.n.D F.fXwX( 6.).1.T.:.d d 5 n.[.;.1X2XtX1XC.4.;.l 4 4 F K.,XK.F 0 = l 4.6.1.J 4 0 G G G '..XC.;.I s 4 3.t./. .[ ;.G ..'.P d f :.:.F f j O.x 5 F ] C.f C..XG I l ;.I f 0 l 6.4.w H .XT.%.F 5 l n.'.4.4.Y.n.l A 1.;.I q ^  .S S _ 6.",
"] D 1.3.6.[.w A ;.A 5.L.] 4.n.A q.A. .A.^  .6.1X[.] = G {.S > I =.z Z.;X3.D ] w d 0 ;X'.T #.j } 4.f & l ` d d $.& 0 F ` $.P F q H B.G * l.s 0 =.Y U m 5 L.[.8.1.!.N.A F n.4.[ 1.w G ,Xn.Y.5.n._.1.A._ ] X.] 3.e.w w A N.k.Y.Z.= G f = 0 C.h.f G  .] G 2.).>X1.6.K.z d ` Z.Z.w N.;XG k.Z.G 4.1.I 4.k.| k.[.k.I w ;.1.= G w G F =.z ` Z.| 0 G ( { e.6.H 5.2.e.{ D ] P : s i m s F P G 5..Xk.B.F.B.3.r.N.F 1.A.q & + & A.B.] w ( J w 5.;.} Y.n. .| l H A | 6.D w 7 q G 4.f f F 4.l ` G _ 4.[.rXA.A B.6.`.G f ..| %.F f $.4.} =.'.Z.'.z.` >.N.{ ;.1.l = 5.j.` z j.5 L O.` F P ] } .X;.0 .. .H 4 & | C.Z._.q.:X).S Z.=Xj.z P :.=.I N.] | j.q 0 | 6.Y.G | :.f & f | A.C.2.[ uX1.[ 6.2. .H H C.].F X d } | _ F.>X,.V.F.D H d + h :.:.Z.q = 4.5.4.G _ d 5 d I ] l 0 A.2.o.B.I q _ .X5.q + * 5 5 : : s z 4.| -XH 0 q  .[.tXF.1.1.[ 2.'.k.| %.$.} d z f $.jX$.f 5.| I q l ^ _.e.B.!.,.e.2.A 7 r H } =.5.A q | 1X).C.| | _ e.$X_ [ _.<XT.*.P I * l ;.N. .[.xX;X| 0 1.q.;.} f 0 F 4.$.} } P ] 6.2.N.1.= A = ..| 0 = } F f f 3.r.6.{ ).7X[.f _ 0 } 4.P } 0 * s *.s.$.pXuXx.z C._ f F ] n.Z.] _ J 1._.| k..X7Xl * 4.Y.I.G f T C.N.w I f q %.G  .n.Z.C.6.].",
"3. .1.%X;X2.e.6.F d } T P f q 5 %.n._ ;.n.] w  .I & 1.A.| P N.C.,Xh.;.[.B.,.| ] F | n.G ` L } C..XZ...F ] %.4.$.F q f F z j T x.=.* z |.'.4.6.[.j b h 5 4.;X,.e.3.] } = } .X4.1.I 1.[.N.w & q q ' -XB.{ X.%Xe.B.1.2.N.n.4.%.4.'.L.G q ;.4.f G | k.).` ,X1X1.F ` z 5 0 7  .4.1.H I F H f c.vX'.| Z.1...N.L.| H ] Y.A.G F 6.L.=.F P ` %.F F V.).r 2.H & f ` } J  .;X_ 5 *.' 4 = N.[.N.Z.A q | P = C V  .N.e.V.k.T f n.iXvX;X6.D V ,.,.;XvX2.F.$Xe.;.] 6.X.2.A.f F | f = f T z 0 0 d j L $.L.qX| 0 N.2.Y.1.& 4.n.0 0 G } =.=.} %.C.<X$.x ,X$X>X2X).I z z 5 d d d F s T =.h.%...;X5.0 = = 6. .w = } J.n.4.` _ ] = 7 6.].z X Y T.k.G _ n.I F q ] ;.I 4.;.'.I.` z %.C.1.A._.1X:XA. .V.>XV.V.1.1Xn.= G | | ]  .6.D 0.t.{ F.Z._ f } l 5.l w ;.;._ ;.} l ` z L.C.F z 5.2.~.X.* P I _ 6.).Y.| | ;.F C.F * 0 I I 4 = f %.k.4._ l 7 B.1.w _ L.C.n.z j.=.*.j.$.& F } N.%.l l Y.0X_.2X,.3.[.5.l 4 D B.} T | l _ ] _ 1. .] Z.l D ).5.l = F =.* F ' & f F G 8  ._.xX4.q ] A H ` H l l _ q 5.Y.6._ %.V.`.P 4.N.5.Y.P d d =.} ` 1.1.9 w 1.| I k.G L.P } 4.F F 0 f O.h ,X].| ;.` m._ f P 5.I %.FX| w | 1X;X .Z.].| G 0 ` _ =.].-Xs =.G * 4.} k.%.0 2.2.q.2.[ S ",
"<X6._ q. .J V.6.P $.L L C.} G n.C.;XN.n.A.] V.k.k...[.(.d l 1.).oXz = 6.1XV.1.'.%. .] I T 4.Z.'.| '.Z.H ..Z.| k.I.5.P } F =.J.jXT.z s z P 7XyXe.4.*.z oXZ.A ] 3.] 4.z.L Y.1.F =.I %.[ H D | q z P z 4.Y.D.r  .Z.A ] ] = q I Z.].[.0 4 q o 5 I 1..Xn.s T  .G | T d =.%.H  .;X1.l = =.| F q ] %.5._.f 4 f 4 l ;.6.] A A f 5.L.x.$.T.T q G A 1X).H V. ._ P F Z.:XN.V.S _  XlX=X5.F.>XV.H l l 5 0 I 3.,.w %.;X).4 f Z.).B.~...] [ 9 ] 1.[ q.A.N.V.>X).F.).] ;.1._ L.8Xm.5 P $.} s } jXXXL s =.$.G l %.N.w o I G G =.` n.6Xn.4.0 f f d 0 5 $./.#X&X( 0 _ >.P 5 d F $.x.4.| | l Y.0XC.C.P P C.L.%.G $.` } P $.Y.C.7 w ;XL.l = :.=.d :.%.F 0 _ q H | F l G G } $.* 7 H  .J  .N.6.S &  .,.!.!.V. . .1.A w _ I  .6.V.fXe.V.:XZ.| n.<Xn.;._._.n.;.f j.$.} n.P | 6.0 f ] ,.3.A f = z l 1.=X[.N.5.| G %.F H | ).Z.L.} I C.I q l ] 2.6.,.^ ]  .= 4 f 4 $.#.*.:.P '.C.%.F %.A } C.| A l n. .l | l 2.5.4 G N. .| 6._ ] 5.H | l B.1._ _ f $.#.P f 5 F G I _ [ q r ;.T 4 l N.A.n. .f q w Z.).] H 1.[._.8 l ,XZ._.rXxX8X*.I.8XY.C.X.8 ;.<X} d F F P f H '.Z.%.4.q j Y x.P * + 0 I 0 0 G k.I | k.H w A _ A 0 =.$.F 4 F c.* $.7XI.$.f f f f ` h.4._ Y.^  .[ ^ ;.",
"T.| } I 4.I F G 4.x.'.Y.;.| 5.5.} 2.D ;.2.A.=Xn.n.F 5.1.G ] G N.'.} F I  .H B.iX;X .6. .L.,X]._.1.N.;.1.).f 1.Y.] f F F z s h #.T = 5 z = l [.~.5.F * F 5.| 1.| 7 0 s ` L.k.I d d I.[.{ ,.[.| K.I #.K.;.w 8 A.| 4 G 5.* * q } I = 7 w ] N.%.S 6.,X$.y Y z F ` : P 4.4.1.D _.,X] ` x.G q F N.A.rXrXZ.l P G | I Z.%.* H 5.Y.L.5.4.` f k.5.=  .1.D ]  .] ;X} N.;X .^  .} L ` 8X,Xf 0 ..5.f G = = V.tXn.z | ;X`.S N.>XV.V.3._ 0 ..1.G q q F } G G I 6.4.q f _ f l = ` m.G F _ f 0 h.j.} x.8Xm.:.z l 7XrXB. .5.I z f l G 4.j.z F G ` T G z F D y.&X3.A =.G z l 5 d ' #.` n.4.f k.[.4.G c.C.P l } 5.| z q ;.'._.S { o._.;. .C.K.=.L O.#.} 4.'.5.H F q F & z d & z ..V.V. .[ I S _ 4 4 9 { 6. ._ C.x.z 0 z 5 G n.1. .8 A H d & :.qX5.G C.%.w G Z..XT.| 5.G 4 | l F ^.&X3.S } d z w X._ f d j 5 z 0 s n.C.<X).Z.} z K.q & G L.rX:XV.]  .H l ]..X+ z l T P k.5.F d n.L.G q w l l q ` 5.q q 4 | tX=.;.l } 5.6. .6.5. .=X;._ G 5.Z._ P z >.T ` Z.6.1.L.5._ l } A  .G T.rXC.| ] e %.n.Z.] k.A. . .V 0 f 6.Y.A.Z.I.J.#.T ` ] H H 0 z s L g m z ..C.B.[.V.[ [  .F z z j : z P q %...] 4.} 0 } } F f & T K.d 5 F .X'.q T $.F P * : P 0 f j d x.C.r ;.6.2.).",
"%.T d z =.I P 4 I 4.4.1.;.S H A.1.N.S A l k.[.,X_ 5.8XN.f ).] _ ,X.Xw = 4 G 4.[.C.[ 1.2.].4.F L.<X1.e S ..1.'.] f I I ` #.s j.-Xk.$.s C.5.H 2.1.1.G = f F w A 0 %.5.z l 2. .= & F ].A.~._.N.n.$.q #.I & o _ '.f I K.J.} z f _ F 1.=X6.w .X=XH G j.T - : #.4.=.M : z I 0 ] A...G '.-X4.f ;.MXZ.5.5.| f $.5.$.0 P I | 6.C.;XY.;.4.G ..Z._ H .X:Xw = r 7 6.N.[.;X1.H >X:.- i =.-X_ = f 4.;X[.H 2.A.6.l d G | 1X;XV.`.`.wXN.I 5 l k.n.} G f f ;.5 `  Xx.4 = | ` z f =.s 5 4.F 0 4.4.z x.x.j.4.= 0 f H Y.1...n.f $.I.=.T x.P l f k.'.5.G | ).C t.3X<.B.%.* :.4.| z 5 0 =. ...F Z.:XA * _ F & = q 1.1.4 * l Z.pX3.>Xe.$X .6.[.Z.k.s < 5 z } 1.;.H + Z.L.T c.=._ _ C.4.6.vX7XH I [ J 2.A.F.H 7 5.G P #.z L d n.C.H H w l d ` m m :.j.q F l F | |  XP.>.).1.& l ;.X.e.r.V.rX6X4._ $.5._ m h Y Y 0 F =.'...A w G f q L.} X f =.1.1.B.1X( & ] C.;.4 f f 5 ` P + 4 4 q G f l q } $.P d >.& 4 H _ 1.| } G q.;.8 ] ).] | ).1.* f  .l 4 = = d P 5._ = G _ r l A 1.V.A.Y.:.F H  .G 0 %.rX1.q Z.V.7 1.[.;.* l  .| d : ; s 5 w 6.%.F =.s * j O.s f 4.H 7 l N.{ ~.!.G F ` :.P j z T C.4.;.k.5.} | %.l _ d 5 z z : F Z.I * q I 0 : s f :.$.z $.z XX).S H _ l Y.",
"F L P : >.T d 5 F | 0 1.L.G H ,.H ;XA.w l G ` _ = N.6.1.H F l w .. .I ` 4 x.C.z ` q : $.z 0 ` =.C.1.q = = k.H 7 q I 4.} #.d #.j..XY.} G [.Z.e.q.;X2XN..X] H _.6.;XmXk.7 1.`.2._.L.4.G H  .] f f } :.& P x.F T * d z z ` F k.f d =X,Xk.= G I d s * 0 } %.| Z.uX=.` T.*  .L.6.4.k.'.<X4.l G 6.7 7 j : z : F F h ; G L.A.H 5.%.1.I ..%.1. . .4.T 0 %.1.H  .2X_.3.V.3.[ f i ; &.j.k._ G ;X>X>Xe.| n. .k.f f f I  .D V./.2.G q 5 Z.,XI | ;._ F z f T T c.l | Z.I L J.4.z 1.;X;.k.5.=.x.oX= & & P } 0 0 G G l ;.f & T j.} 4.` k...Z.n.G G L.uXq.6.q.B.).} * G >XA.4 0  .;X1.5.$.,X).] I 0 F z f n.| [ ] _  .A.;.[ 1. .N.f 1.;.G } L.I.*.5 F ;.5.q f I 5.I = | k...V.| Y.4.} F 4.l e 1.6.A. .5.K. XI f $.` T j.k.5.4.` I 5 s i L s =.f N._.n.;.F :.d d Z.B.7 1.N.6.n.l q j.$.d G =.T.$.+ : L T = ).3.J 4.h.5.H _ } 4.h.x._ l A  .1.| A Z.1X_ _ q } :.5 l w w q H w 2.N.6.;.=.T =.:.P = } } n..._ | 1.tXB.[ :X$XA.1.[ 5.q.1.] 5.Z.| n.=X].| l | n.S A l 0 f V.e.1.[ 7 G f f q G _ G w 7 H 6.;X;X] _  .H 5.h.m + d ;.1.e.2.Z.oXO.L =.I.4.x.Y.| e F ] ;X:XV.e 5.C.| -.` 5 4.P %.Z.5.I 0 F F C.C.P s s s f & } C.G } %.| d 0 ` 5XL.5 #.j I.:Xn.} 5.n.C.",
"P :.j.F d K.9X%.I G n.L.P 4 ;. .( e.6.0 = 4 5 q 1.).A.N.C.=.w 6.V._ I I :.-X#.j f : Y #.: s T.I _ k.G 7 A  .| L.c.4.L.J.f = : & F 1.N.F 4.k.H ^ )._.B.6.1.B.B.~.Y.6.V.e.).;X3.:X:X2.V.C.} w q k.'._ l ].T.` 5 =.: ; j z ` l z L L L I 0 F P ` #.P 1.X.{ 3.3.J 0 | 6.;X;X.X .] Z.P Z.k.| 5.k.G 0 o g m L $.` < h _ k.] %.1.H Z.Z.1.{ 1X:X_ 5 ; L =.H N.).X.~.{ S 2.] z j # - F l 0 & V./.e.H .... .V.| 5 j d } [ [.1X7 = z m ` l q ] F | } f T =.= k.).).V.] k.%.F 5.I l  .<X5.0 d T 0 = * '.x.I k.] H  .qXx.F ` L ` } ` H 7 N.;X[.H %.A.n.G w 6._ I d d F.{ 0 G [.`.1.] | P 2.1.] ;.} l * %.;.H ,XxXC.= + 8 |  .| 5.[ G f I '.8XT.x z j.| ` :.$.=.I | uXA.[ fXpXZ.f 5 * =.Z.C.[ 2.6.7 P : F F f ` m.j.z 5.1.= P d *.z : T ` z ` '.rX;XH 5 z d 4 A [ ] G l j ' m L P z $.` ' $.*.m : L L w V.B.( G I lX6.4.=.j.qXoXf l  .6.l w 0 Z.5.= G I =Xn.0 G 1.n.l  .B.D J %.5.f d j.C.P T I G |  .C.F F H H 2.o.V.V.[ q.yX[.).[.).A.C.=X5.| _ _ Y._.] 1.Z.] I  .;X;X] w 0 4 G 5.H f ] H & f H A.A q G ] %.L u : + z %.%X%XB.ZXXXs P d H  .T I S | | G  .] V.6.A.4.4.8Xl.s z d f 1.| 0 f =.$.:.| L T :.#.d f %.%.L.L.4.;.f z F K.x.P } d d _ ;.f Z.k. .",
"N. ._ f _ Z.=X| :.z d G P = f 0 %.5.G H w 6.4.| Z.H  .k.P 5 G k.A l ;.T h.m.: : s T z z T ` f F :.4.P G %.F q h.$.C.T : z = k..XI I Z.C.L.uX[.& A  .] J  .= S N.1X6.D D  .V.;X] w 2.rX| %.N.L.T.| d P #.j.O.- m z.L L ` #.z z 5 i g I.1.).1X4.=.6.V.3.<.&X!.1.| ] 6.V.1.I A 4.n.4 f 5.N.F 6.Z.= u d P I.-X|.=.h.=.=.=X'.F ..6.6.,.`.[.x.L : g j s | } k.[ N.q.0.3.A I L d.m 4 4 f q ] B.] e 5.2.( ,.L.F s : h.K.;X6.0 j v.l.- : =X_.2.1X<X5.A { ^ D I 6.{.S.rX[.1.G 5 = 5 G Z.| N.N._ F 5.].0 F 7 F 6._ P $.4.` =.: f | [  .$.'.A.N.>X6.%.f z ` ;.A T 5.X.( n.G I ..Y.=.s j l H V.:X5.F m.=.F 4 I 5.} 4 k.A.F 4.rX).I 7 w l P F : : d x.m.` 5 P 4.T F %.[ ~.DXB.h g < ; h L.qXV.%X/.e f 0 s j d f G 5 G 5.1.6.z :.:.5 * x L q I A.n.H q q _ 5.;.n._ T u u O.:.' T 5 I 0 4 z L x.O.: h -.[.] ..{ H A 1.;X0 F 5Xh.f Y.1.9 3.J P =.z ` ;.5.n.A.N.] | n.n.S 7 ^ [ [ _ } j.z F f 4 I n.A.k.2.T } F F ,.<.&X{ [ wX~.^ o.D [ X.^ A l A | | 1.F.A ;.Z.Y.[...J A.).H A 0 } 5.%.0 & T %.P w 7 & * _ I A.'.Y ; u m C.1./.<.w F ` & I $.q l G w e H ` 0 w e.).2.S G =.} P ` L z =  .6.=.T #.T d : s I j.%.T h.} f $.P T ` F z | T f 4.4.z T } l 4 q J H ",
"4.]  .2.G l I } f d 5 z :.$.` h.=.F 0 G [ lX;XH S 6.[.k.P T | w _ ] %.F #.f : s j T ` .Xj.P f C.:.%.c.;.L.} f ` z s 5 P $.Y.C.5.l I :.` =.6...Y.).2.6.6.[.e ^ 6. . . .S H | ] 1.%.A q o f C.j.z * :.z : z 5 d z j z 5 : + s z h.s.O.h.4.%.'.| 0 G w 9 7 { >X).1._.N.w = w 0 _.5.1.I 6. .0 %.F z z #.#.I z P T P I.k.4.6.A l k.N.t.y.= d u u O.g m 6X%._ N.B.$X).wXV.G ' H.x ` ;.n._ ] 2.D B.N.,.V { N.} = + *.#.L.Y.P L O.U < s Z.A.6.$XB.D ( !.~.2.w G '..X`.1X). .P $.F K..X6.A 0 %._ 7 q I l = G l f %.j.m.T : z F F ).'.T &  .).q.] G -XC.;.Z.l ` =.V { 5.z Z.uXY.s u m 1.2XnX6.f =X.XI.$.= } F 5.k.Y.=Xl G 4. .f ..] q f ` s - m d d d 5.4.= l A = N.[.8.Z 5 < v < o j K.L.2.( 2.G F z 0 s j.T.L G [.6.;.I q j.*.f j 0 4.T G H %.G Y.'.j.} k._ d j 5 h f q T J.-XG 0 T d s * T T ;.L.H w {.N._.V.Y.} F 4.L K.lXB.) ~.V.P P f d 4..Xn.] r 8 S _.A.2.B. .2.6.I ` T $.=.` f 1.A.6.0 l ;.4.` } 3.) &XD.V.:Xr.[ q.S r F.^ [ B.X.B.1.)._.] >Xn.] N.& A H ] 4.6.k.,Xf 0 f :.$.I G f A 6.[ [.V.Z.Z.*.h : =.| A ,.6.6.4.l P ` ;.4.I I 4 7 ] F P Z.1.).B.A H 0 ` T h T T q w %.'.` s m u P m.K.k.] Z.J.* s 5 s : F f F 0 P f 0 F %.] _ _ 6.C.,.1.",
"[ _._.6.l n.H l ` T ' x.#.z O.z L m.4.I 6.;X] 6.]  .2.S q F =.C.C...F q 0 z 4.].| 0 5..Xz = Y.<X<XL.1.] Z.Z.I.-.- 5 P d f %.H ] =.4.0 s f f %.;XvX_.6.1. .6.r w w H 1.Z.C.q = f z z d P ` $.d d } } | L.j.F G k.2.[. . ._ ] 2.[.F j.1.I G z < ; s 5.N.( e.;X* I ,X[.] | ,X).1.).=XJ 4 ..C.f H C.f z :.m $.#.T f | 4.G l | N...[ ,.X.T ; + @ g Y O.$.j ` _ Y.A.q.2X1Xn.L z.m #.].bX:X( ,.X.[.e.e.,.V.).1.C.0 X : N. .=.x.j ; P z d l ;.6.3.e.^.!.( I } : & P ] w _ N.T $.j o G [. .0 G 6.6.C.L.Z.x.%.%.| T k. XI 1.4.5 s d T P } G _ f 0 H 5.6.F.1.| ` q H ^ H I 1.} 0 5 : h Z.;XN.1._ | 4.=.T =.n.;.5.H w q * q G ] G (.;X4.5.} m #.z h.z.;.N.%. .;XV.8 7 I G f %.4.=.g i < u P.%...4.;.j.G & _ .X.X5.T [ w w $.$.=.'.:.z d ` d * i L + Y J.*.* 5 l  .[.| H q = G :.' s ` ` f T -.s j %.I = w 9.H D w 4 P 0 s d T 4.,.t.t.7. .P P T.5.N.] 7 r B.X.6.D V ).V.0Xk.= F d x.=.` P 5 = 4 = } =XZ._ 5.3.{ V.>X:XV.&X2X[.6.).[.^ | [ _.<X] ] ] 5.A.4.] G A 6.| G C.iXL.I 0 f %..XZ.I G | ).rX[ 5.1.] ] x.f } <Xk.* l 4.m.%.1.'.C.'.4.G 0 w [ A * j.5. .:XA.Y..XF j.$.h z $... .L.5.: 5 m u Y 4.T %._ | x.0 z $.j.j.=.0 G Z.Y.C.} C.Z.q l ..%.C.~.6.",
";.5._ | F %.n._ %.4.T.,XC.h.K.j.4.f K.'._.).B.tX5.7 w 7 } z P 5.] H | k.A.[ 6.rX| 4.6.f = l 1.C.N.| L.4.0 | =.: * s s : f * G :.K.j.T F z } =.T | ;.S A w %.).6.7 F 0 0 } L.L.d u h Y j j o + L 5 $.x.` G F H  .`.!.&X1XV.A.=X| q F 0 G ].$.j u s 0  .6.B.[ & j.<X1X_.A.A.'.] A 0 w H ;.F & 4.k.G %.K.m.#.} f 5.'.Z.N.] 1.;.l l I x.=.Y g - m s.=.Y Y d l 6.A.G  . .& G $.6 m :.;.~.A 7 } 5.1. .B.6.1.w H d j : | N.z.*.p.J.L f Y z P A 2.%X!.V.A H } F P.'.6.G | } F f & q & 0 F %.%.k.5.} I L.7X].,Xm.} ;.j...k._.I s 5 C.Y.$.` =.m..Xn.q ;XN.2.;.l n.;X;.| n.A | ).L.*.o ] [ ] 1.f P %.f = 4.n.Z._  .5.4 0 N.;X[.J 0 G '.k.:.P L z =.m.m.f [ ~.e.K S k.4.j Z A L.XXm v O - #.F F } n.m.} w } I I ` P D 7 4 f Y.Y.F 4 n.%.'.CX@.N N @ y j : 5 f Z.[.V.B.`.N.} 4 q z ` |.P.P d ` q F I q | ] J H ] I Z.%.F C.I & H 3.t.V.( & 4.=XC.l w F | =X_.3.F.F.2.1.;.I | .X| f P f T j :.K.f T C.1.6.;X>X[ r N.[.X.2.F.;XF.X.A D ^ S r 2.H D D ^ ] 1.] V.4.6.0 T F f .. .%.Z.I q n.4.I G 1.[.1.S | 2.n.Z.,XI Y.C.] f ` P T 0 0 f w I z I } %.;X1.5 j.x.| [.1.2..XC.j s j : s } Z.C.f d #.J.=.T $.5 =.'.x.;.l | I.I.5.q | Y.;X).A I N.n.f ] l G 4.2.V ",
"L * 5 5 = = $.%.q l k.;.L.;XL.'..X%.C.Y.] 4.[.6.G H 6. .;.l f  . .6. .6.8./.t.>X2.C.k.0 ] | I H G C.,X_ F | f ] 6.| F f : $.$.#.:.P z j s P m :.'.).`.N.] H N.| * = 0 4.5.m.m.$.z j L z : ` #.s * d s d d s 0 q [.`.;X1.H | } z o s ;.| k.F 5 #.j.l A w.V.!.6.6.Y.N.A & w %..XZ.A 6.N._ F q 7 k..Xn.=.J.P f f 6.A.] N.| I k.1.F ; b #.L P T J.#.h h s T _ 4 4._ C.n.0 w :.>.u + * #.Y h Y h 0 P x.l [ ,.D L.I.j } $.Y g +.M < < v h ; = = 1.fX~.r 5.H 6.rXiXZ.q } %.k. .= n.| C.=.j =.I.* 5 T T T F j.` * f n._ G H 4.1.| L I ` T.'.G | %.f Z. .6.] ] [.| } N.B.F.e.,.] F f [.1X'.} f 4.C.F ;.4._.6.6.6.;.4.] N... .f 7 A %.4 $.h.* P =.$.0 = G 9 e.] J I q | 6.2.7Xx.P s h ` %.]  .6.f & 0 z F 4.5.$.j.B.1.| | l _ _ l '.N.Z.kX*.# a N m #.d * * L $.F | _.<XG 4 F :.j.m.z 5 F f f G o q c.4.f 0 l T ].'.5.qX.Xw e.t.w.y.{ 7 `.0XZ.[ } L.L.} 4 ^ <.e.B.w 7 4 T '.z f z = $.0 ` | l F } 4 4 ;.Z.l & = 4 q q 0 * G l ^ B.1.[ D A.N.] A.q ] q. .V.] %.= f j f 0 0 ] F ` $.| G %.]  ...Z.2.1.V.6.n.z & H 1.| w =.P Y f I [.iX;XP d f A.rX6.& s j l J S = F F j $.Y z :.k.1.l 4 T x.I.=.P } z T j.h.G w 1.4.N.N.H 4.A.A.H A H _ 1.)._.6.q f I J ",
"j z ' T j.*.f 5 = F Z.5.| 1...k.N.C.Y.H H n.%.] I | tX;.0 5 I Z.A.V.B.A ( !.^.#X).C.A.| H A G l J N...w | G 1.;X;X_ 0 T m *.L j #.P z } Y 0 j P 5._.[.k.I A ;.k.F ` j. XI.} $.I T :.T j j #.s & d z =.O.- m Y 0 N.;X>X6.l & : Y ; s P F [._.F f k.q.K D ( 3._ }  .1.r ]  .;.Y.k.w C.C.l q I  .S N.| 0 $.` =.G 4.:X[.%.4 G n.n.F X - u L d =.#.s : #.` ` :.L..X;Xn.Y.4 | ].n.5 z.u - v g i.M o #.I.` 4. . .[.:.f f 0 T L - X g U a < * =.'.1.1.N...J A A.`.4.q & 5 f n.). .1.` P m + z P d s 0 z m.$.} G & z ;._ V.N.N.4.z j z = F 1.[ 5.6.G = 5 ` q A 5.6.A I A ,.]  .= 0 C.~.1.F L J.j l ] Y.1.F %.,X5.5.1. .1.H N.4.A ).k.q z P = 0 z ` 5.H H J N.N.w w q 1.[.F.2X4.z :.4.C.1.`.).B.;.f : 0 0 C.} d | =XA.} 5 & F 6.l ] ;.q q m - T z.z z F 5 5 * z j & | 6.k.I.x.j.$.' f & c.f 5.XXf 0 Z L = 0 q } Z.1.1.1.J H ;Xt.w.3.!.D ,.B.).q.N.Z.Y.` q { V.2.1. .n.;.k._ Z.uX,Xn.uX:.l ).MX4.= f w * G -X<X} 0 | | :.l 0 _ ;.;._ ] D 6.1.%.N.G _.Y.6.N.B.k.G 4.=.G w l ] f | :.I 0 4...| G ] 1.] H 1.w * d w S _ ;.| } 4.z ).tX'..XP f I 1.wX_.= s F f S w ] | z ` h.Y F } A G ..H ;.'.C.m.L.F s F f F | J w 6.[.k.;.H 1.:X1XN.1.).;XrX_.] q f c.Z.",
"$.F 1.4.'..Xj s f } 1.L.=.F F ] _ 2.F f k.%. .H I I ;.A q G  . . .1.P 0 [ ,.C X.;.T P C.2.B.).>X2.;.1.'.C.H 1.).:.P j.#.T T m 5 F k.n.] z 5.| * ` I l q =.G F n.m.x.P = f =.I 4.1XN.$.s Y m * f f T Y U u i g h q  .2.[ ;.G | #.j - $.%.5.,Xk._ V.<.e.X.* 5 5 & = ..B.`.`.e.6._ I = 5 0 I H 7 D D S ).Z.5.%._ Y.L.T.T.l 6.F.[ n.#.- - =.:.z T F I ..q I ;XZ.4.4.G H $.5 ;.G l 5.z m h h s.:.u O.O.&.5 f z z j L =.4.:X:Xz h x.XXU h 5.[.rX1XI T f ` T _ z * 5 z 5 q |  .| n.G & $.F P ` =.f s f } F ] ;.5 s I $Xq.X.N.q.' L I ;.B.V.6.%X1.0 h T T f ] q.;XsXZ.l w  .rXA _ C.| ` : u h - * s I z 5 z & w k.,.[.V.| ].n.C.rX%.f d F F 1.%.I } ] 6.4.q = = 0 4 A ).wXwX4 n.n.| Z.q.`.`.o.^ ] 1.G N.L.0 P :.$.=.P * _ ;.4._ ].Y.2.[ ` L n.n.| $.L s 5 l z $.=X;.1.'.m.L | } f 0 _ C.f :.z.f I .X,X] H A.F.F.'.[ l _.`.^.{ V 8 H ]  .G ;.B.(  .L.` f B.;X>XB.Z.n.A.e.H [ #X2Xq.'._ H [.rX;.f F S ,.F.q.=X| n.A.A F l I %.$.s h s 4 H F = = 7 ] A.;X1.J  .%.L.Y.G : P ;.l _ I H ] A.Z.T 0 = %.5. .] 9 w ;.r q.F.].;.n.x.F w 1.k.I 5 %.;X3X`.[ 2.] ] 5.].%.=.].L f L L 5.D ;.X.^ ] I } j.k.n.;.;.;. .G Z.B. .Z.j.` 4 1.~.).| q [ F.1XN.] H z 0 j z ",
"=.$.C.C.%.} T ` z ` [.;.f F z 4.N.V.%.F =.%.=Xk._ k.P 4.'.L.pX[.I I f : f H 1.[.I * z ;. .;.{ _.o.8 | 6.G q 7 ] 4 f _ j.` 5 O.& 4 6.2X;X} 5.G z #.: * f z F F 0 j :.:.l f $.] 1.6.] 5.s s P =.=.T.K.u u < a L s.F 1. .H ] | 4.F u O.x.q %.N. .H 1.`.>XB.} j.h.T =.] e.!.8.F.D H ;.z d #.$.4.w V.[ 1.B.] | q G I = q s ; 5.B.F.[.#.M ` O.T =.P I Z %...G q.1.9.A Z.5.T I rXB.k.G = T.G.u T z s h s Y ` 5 5 P f } $.0 ~.e.f k.C.-.0 4.C.6.[.4.s ; m =.` m + 5 x *.j.%.5.| l 5.:.C.j.P q = F n..X,X5.H ).$X=.=.[ ) F.0.^ w 5 >.m.l ^ 3.,.e.;.` Y s : l _.1.B._.w = w 6.Z. .$.0 L ` j g Y &.L : #.$.4.` 0 H H { V.] q w w ] ] F : * } A.]  .5.0 7  ._ 0 j ` $.0 H ).>Xq.H Y.G = ;.] V [ D { ).;X%.L.4.: 4.m.s j z 5 | ;.d L ;.G _  .z $.| | Z.=.P j %.;X_  .B. .H f + s =.F s | :X6.G $.%.P %.].c.G | 6.] ^ G 4 l ] V.&X~.6.[.).n.[.l * V.B.| } f F H [ ] f 0 F  .V 2.X./ D r r | _  .6._ %.Z.{ V.%XA H =  ._.A.I .X.XA F #.l.m H ;Xl ;.Y.1.G G w 1.A %.] w ..| f L G } F H N. .r A f = } 1.Y.MX2Xe.S H [ 2.6.[ _ j._ G l G I I f n.wX%X) { ,.[ 6.^ f P 0 q l f =.Y._.N.[ 2.[ S I 0 %.Y.F.[.1XN.Y.G I 6.[._ z I d 5.). .w ;.rX1X6.[ N.1.w F f q ",
"N.Y.:.T & 5 L.L.F 0 = = d j I Z.tXB.} f F G z G c.6.| Z.;X.XC.;.f k.XXP 0 5.N.7X:.x =.#.| } A ] | _.l 7 %.H D 2._ q ] _.'.'.$.* Z.).H _ z d s 5 P j.F P z =.<X;.+ < P F s s J 2.] 1._ z P.x.G H | j 0 L T i h =.$.4.6.6.%.I f f m s.m.G 7 7 q A Y.[ B.[.=XY.4.Z.2X!.[.X. .3.e.V.V.:..X'.T L. .] ^ >X_.1.n.;.I | L.'.T v G J ] F s M #.j u L 5 * > A 4.Z.).[ 0 =.J.F 6.F.~.[.Y.f 5 m.m.P Y h z _ & ` C.P ..k.A. .G _ A._ H L.h.5 : I =.3 ] f : z T 5 P : d P j z x.;._ G | T.m.j.P h f f  .6.V.;XB./.%X%X6.1.3.3.3.A 0 G ;.;.[ r 8 ] A V.[.5.P s j.;.l * 0 5.n.w S ;.H  .` : 5 s ; h h Y z.: z T '.] A B.1.e.3.V _ I | 7 H C.: : l H D 6.5.%. .).1.F P z C.6.I  .<.r.=X_ * 0 N.q.q.2.3.pX%.G P | x.q z ` s j #.P ' h s d 6 6 } ' _ $._ z L 5 P m.[.;X).;.{ 3.V.l * Y h.P f G 6.1X;Xf f C.P $.s * :.G G [ 4 + 8 A q.~.3._.B.6.Z...H [ Z.;.} :.z l q q 5 ` I d %.B.2X$XV.r. .Z.S [ Z.l 6.<XB.[ ^ B.2X=X4 5.F.X.G ;.1._ | | P :.F.1.] B.).S f 5 q N.6.V. .[ ] I T L ` 4.F | [.X.2.] C.s F P z 4._.,._ 4._ 0 _ l z ' x.P %.%. .C.F | A.q.^ $X$XZ.L.} I F f ] F k.;.B.e.B. .B.~.r 0 I Y.).q.6.N._.K.q ..[.rXA.f : ` F A ] k.L.1.]  .6.yX/.{ V.6.G ",
"Z.;.P P #.G %.'.G 5 d 4.$.: P %._.S q k.;.w f T G %.5.w %. .0 = & A 5.k.L.k.Z.k.` O.u : 5 _ _ F. .[ D 5.=X1. .$X=.;.k. .k.n.P F n.| A  .0 f z z h J.9X-X` 5 | %.; @ s z =.1. .V.6.} I *.*.z N.).l + T P.#.L s s $.N.:X$XA.k.q G d m ` } ..;.] 6.%.| [.e.I w f %.6.D  .4 _ 6.V.A.'.0 4.| o ;.1.S ;.1.l q _ 5._ oX,X$.i h 0 F f d M p y i m P h L L.'.x.| 1.I 4 -.f T ).6.V.`.I 0 s L T } 5 + 4 C.5 ;.N.E ] ] 2XtX1.;.;X] '..XL > s f G } c.=.=.x.Y h h h O.|.'.5.G l H H G :.*.s z z ` | [ ]  .e.,./ V.!.D D N.).6.G z L.C.B.X.:XN.w = N. .l l =.N.f 5 ` 4 0 Y.} l ;XB.1.I * F 4.T s.x.z h.d d =.Y.V.w  .6.V.D w H k.Z.k..X:.= F f H _._.1.N.N.k.n._ 0 T k. .l H F.%X| d z 5 S q.:XZ.] q.l f F $.f $.=.z j s.L ` O.5 u j.T.d n.,XH ] H z d u z $.A.e.q.N.~.V.6.G s h z j 0 f | 1.[.A.N.k.G 4.*.: } n.Y.X.l ;.2.yX%X= 7 [ w N.k.l ] tXqXT s $.;...C.4.H $.z * } _._ M./.#X$Xq.5.1X5.* G 6.%XvX .1.q.Z. .G l q  .N._.[.`.6.f C.>Xe.( A J ] I z.4.G } %.B.[.k.F z ` d f q 6.] q.F.6.c.$.#.O.: + D q.n.C.N.^ r | z 5 L F L.xXZ.= l f A w q } C.` f f Z ;.k.c._ Y.6._.e.^ A ] F.N.F _ _ l _ 6.1.;.l >.} H ).;XC.Z.| } _ %.5.5 _ } q  .).3.,.1.6.] ",
"T 4.T f G F  .H F f z j.s.h s 5 z z =.'.A.2.| } 0 '.'.7 6.e.P F H I H N.k.G N.G $.T + : : } A.6.;.H _ | _.] ^ | Z T L > 0 h.L...1.B._.N.A q.F.| } z 4.'.} q H 4.$.h #.j.1.] 1.B.N.=.m g o j j.F j d 5 -.| 0 z ` | ..] %.F. .L.} z F L } '.,XZ.N.S ~.&X,.Z.;.F z & l 0 F =.} : G l H F 0 1._ ~.V.[ G 1.q l | z z O.+ < u G } j u i i M *.j.L ; s Y.;.d _ ....k ~ > $.). .7 H 0 P T u L =.T I _ ;.| f } q > I G n.| f 1.l :.4.h : 0 s } $.L f } x.*.T g m d Z.A.=X).l l T : X & = } =X:X).[.[.1.A  .D H A { 6.w q _ _ B.n._ :.2.V.[.L.0 * H 6.%...;.0 :.qX].| + j h T F 5.j.5 Z.:X-X| =.j $.z : $.1.6.V.N.V.e.V. .I L.[.n.x.I z =.k.| 1. .H A 6.Y._ F L..X} 5 0 0 G  .n. XT._ f f 4 l ^ D ] I -.T 5 L _ G 5.m.< < s P >.T.n.} f 2.,.[ H ;.j._ 5.A 1.2.w C.L.H 0 5 : T 5 j $.L 5 &  .{.%.E 4.Y < L Y.q.3.r  .1XdX#XD 6.6.] F C.l A B.%X} : s L N.=X6.H 2.q. .l n.2X0 5././.r.t ;.| q 0 H N.[.[.).n.= _ n.F w 7 '.1X3.{ !.wXq.w  .~.,.A S ).C._.C.0 s s } G 5 * f =.z F %.6.[ [ S | ] =.` L : = _ F.q.n.F.[ e.yX;.4 =.d I ,X6.G z T } F z z 5 L $.5 d z -.j.4.x.I 0 1.$Xn.l _  XT : 5 I _ | I d 5 I G | 5.2.tX.Xf : & P m.F :.` 4 l 6.[.2.w ] ] ",
"Y ` j 0 F | N.L.I.$.P.:.z s O.j.4.T L I 6.).[ %.l %.G H ~.[.%.s n.[.N.2.A P k.C.|.Q #.K.$.4.V.2.7 1._ 6.).N.[.| P -.s b U T G H B.%X1.q.F.V.( r P z w 4.Z.l  .N.C.T m s ( %Xe.S } J.U i p m s : z L P K.4.0 d ` =.=.H f 6.B.k.$.L.F s j + z T %.%.( { 3.Z.l ` J.$.T 0 C.k.F z d 5.7X;.%.qX_. .~.6.A.L.F 0 f T T Y *.j j '.,X#.a i i m #.s.*.T 6 :.z + s f -.~ ~ s z ;.%.| %.N..Xj.m s m.<XY.A.].5.d z.;.4.[.| _ _ f 1.G F h.*.&.0 s -.&.: h j * X i i < d _ 6.q.N.| 5.j.i @ m -X[.1.X.6. .F %.).1X;X,.D e.>X} * 5 5.=X| = ;.r.D.q.k.5 =._.1.= k._ = } %.H Y.m m U s F | s F _.1...0 = =.=.} P.P H `.V.3.(  .N.A.N.] | :.j d F G n.1.S [ 5.G H S 0 4.1X1.z P x.5.G l [ 4._ P ' d ` l 6.vX;X5.F s u P P %.l s g U h ` | 0 ^ 2.4 S ).,.] '.} | ;.| w [ | d G = L z * P j s L P m j J 3.1.1.} L h O.] V { F.G e.aX*X9 [.6.l f L.%.2.[.] f Y Q h _ N._ 8 ,.D.[ D [.| + 5.&Xu.y./.R.z z }  .^ w 2.C._ I =.5.Y.4.f n.A.3.wX%Xr.`.6.) e.] |  . .w l 5.$.< v P =.L h.$.K.T.T Z.F.1.^ G 4.P = 5 j O.j.} ]  .`.X.7 3.tX4.q 4.` l 5.] 4.G z | } 4.m.h m.J.G.>.: I T z : F c.).F.` 5 s z @.L j.'.l q f z i : x.A.G ] B.H z T d I _ } ' 0 5 ` | :X[.A P P "
};
