/* XPM */
static char *be72e82f3ff94050c95bf3d80601861aUfxOSEzYjWa9gymB[] = {
/* columns rows colors chars-per-pixel */
"440 440 181 2 ",
"   c #001256",
".  c #001B5E",
"X  c #00205D",
"o  c #021E62",
"O  c #052265",
"+  c #092467",
"@  c #062A65",
"#  c #0A2A67",
"$  c #062569",
"%  c #0A266A",
"&  c #06296A",
"*  c #0D2A6D",
"=  c #11256A",
"-  c #102C6F",
";  c #0E316E",
":  c #12316E",
">  c #18396F",
",  c #052A70",
"<  c #0E2D71",
"1  c #0F2F78",
"2  c #122E71",
"3  c #1A2E73",
"4  c #0E3172",
"5  c #0F3479",
"6  c #153275",
"7  c #183477",
"8  c #163975",
"9  c #1A3976",
"0  c #163579",
"q  c #1A3679",
"w  c #16397A",
"e  c #1D3A7D",
"r  c #21367B",
"t  c #203C7F",
"y  c #16407A",
"u  c #1E417D",
"i  c #204177",
"p  c #21417E",
"a  c #27487E",
"s  c #28497F",
"d  c #173780",
"f  c #1B3780",
"g  c #173C81",
"h  c #1E3D81",
"j  c #1F3F88",
"k  c #223E81",
"l  c #293E83",
"z  c #233F88",
"x  c #1E4182",
"c  c #1F4A83",
"v  c #1F4488",
"b  c #1D4988",
"n  c #244285",
"m  c #284487",
"M  c #264985",
"N  c #294986",
"B  c #264589",
"V  c #294689",
"C  c #26498A",
"Z  c #2D4F8D",
"A  c #2C4A8C",
"S  c #30468A",
"D  c #304E8C",
"F  c #304C8F",
"G  c #2F5086",
"H  c #24518D",
"J  c #2E518B",
"K  c #2A508F",
"L  c #2C508C",
"P  c #2E508D",
"I  c #2F518E",
"U  c #2E508F",
"Y  c #2C538E",
"T  c #2E528E",
"R  c #2F538D",
"E  c #2D548F",
"W  c #2E518D",
"Q  c #30508D",
"!  c #32508C",
"~  c #30538D",
"^  c #31518E",
"/  c #30528F",
"(  c #32528F",
")  c #33518F",
"_  c #31548E",
"`  c #32558F",
"'  c #31518E",
"]  c #37588E",
"[  c #274790",
"{  c #2B4790",
"}  c #264B90",
"|  c #2C4D90",
" . c #2E4D90",
".. c #2D4F91",
"X. c #2C4D92",
"o. c #2E4F92",
"O. c #2E4D91",
"+. c #314E91",
"@. c #334F98",
"#. c #2A5091",
"$. c #2B5192",
"%. c #2E5090",
"&. c #2F5191",
"*. c #2C5293",
"=. c #2E5192",
"-. c #2D5895",
";. c #2F5498",
":. c #2F5B9A",
">. c #315090",
",. c #315391",
"<. c #335390",
"1. c #315393",
"2. c #335292",
"3. c #345290",
"4. c #325491",
"5. c #335592",
"6. c #305792",
"7. c #345491",
"8. c #345693",
"9. c #355592",
"0. c #305194",
"q. c #315295",
"w. c #345394",
"e. c #335595",
"r. c #335497",
"t. c #305697",
"y. c #355794",
"u. c #345696",
"i. c #375696",
"p. c #335294",
"a. c #385191",
"s. c #385496",
"d. c #315893",
"f. c #365895",
"g. c #345B96",
"h. c #375996",
"j. c #355895",
"k. c #385895",
"l. c #385A97",
"z. c #395996",
"x. c #315798",
"c. c #345598",
"v. c #355699",
"b. c #36579C",
"n. c #355599",
"m. c #395699",
"M. c #325899",
"N. c #375999",
"B. c #365898",
"V. c #35589A",
"C. c #37589B",
"Z. c #36599A",
"A. c #3A599A",
"S. c #395B9A",
"D. c #3A5C99",
"F. c #3C5E9B",
"G. c #395A9D",
"H. c #3A5C9C",
"J. c #3B5A9C",
"K. c #3D619E",
"L. c #3D5DA1",
"P. c #3E61A2",
"I. c #405D9E",
"U. c #406197",
"Y. c #40629D",
"T. c #415EA2",
"R. c #4262A4",
"E. c #4865A7",
"W. c #4769A6",
"Q. c #486AA7",
"!. c #4565A9",
"~. c #4967AA",
"^. c #4768AC",
"/. c #4A6AAC",
"(. c #506BAE",
"). c #4971AF",
"_. c #476CB0",
"`. c #4C6DB0",
"'. c #516FB1",
"]. c #4E71B1",
"[. c #5271B4",
/* pixels */
"$.t.C V.x B e V A n ..t.C o.G.o.e B e 0 B B w h h C ..n x B A A A B h e x C C v x *.v w B A n V B e o.h w B h x V.0.x n j.Z n *.w e 4 C B A 4 d o.A n B $.C x B x w x x 0 B A.r.e B w Z A w A A *.Z 4 B *.0 n A t.n w e n e e n B 0 ; e n e w e e n B e w M A N n M p 8 8 h n h 0 x e 4 0 B C w x e 0 0.n C x t.Z n B A B C *.*.0 B B B A B h B 2.n t C N w 8 n 8 8 e M N N N N B e e e w h n w 6 w h e : # 9 N p e u n u w e n 6 M U n ; ; p 1.w C C w w n n 0 n e w A 0 Z B 6 u e u p e 8 9 n M u 6 6 u N M 9 e : N n M M : 8 A A u Z n A x B h B h B n w M e : p e M U U d.u u M C M w 8 e Z p n e 0.e n e A v.x o.r.w w M e 0 6 A p M 6 n w 9 l.9 A u n M M 6 M M 9 9 Z / N 8.M Z e N : p M 9 M 8.6 e e Z p e e 8 A 9 L p 6 M p N M p 9 : Z N : : e e Z _ u 6 Z Z 9 p Z M e 9 p p B M N / 6 7 : C n N N r.7 e e N M * 6 B p M p N e p / M M p 8 u 9 t m 9 p p M / 9 N M _ M n n e 0 9 e p p 9 e p n M N p e ",
"x w e h n e h k e e B ..A A C h A C w 6 e e 0 0 0 h n h e e h h 0 e h e 0 w x x x v w 0 e h e h n 6 h 6 < n n C Z C x e n u w x w U n e n C.o.C B n n n C $.M.M.K C C n w e C B x C w n n u Z n Z V.u n M w C A C M n e e x x u C e w x n e w e B C C C A U / L U 8.H.A.A.v.A e u U V.t.*.t.U C Z C e Z e n n V.Z n C *.C C Z C h A A C o.A B o.0.Z A N n u u y L M M A 1./ Z N N M N C B C A n h k B V B p N F N M M N M M M Z Z u e Z / M M / j.F.j.C n B B h V.A v.H.0.A j.U 9 N 1.U N A A A u n p u p N A N y.U j.w u F.1.U 1.U e M w B n o.e B n C M n 8.8.Z N 0 p A C l.d.H R -.U n u p N u n e Z x A B q.=.A v.V.B M 0.C 9 e M u n 8 8 8 6 n 6 w u u 8 6 p N N p p Z Z M Z e e 6 M 6 p e : M / Z M N p 9 n 9 u u u e u 6 N 9 N M n n e / Z M M M M M M w Z / M p N N M N N A p p e M l.p 0.p C e e e A 6 w 7 B C e N 0.B N M / M M 8.N N U N L u p Q m M _ p 9 8 M M p 9 p N N M p M Z Z M N Z Z Z / / Z ",
"*.v C x q.k V h h B B A q.o.n x q.n e w 0 e e 4 h B A C n n n x e A r.o.n v C ;.C x x B n B *.o.A w x 0 0 C A B B n n e 0 w x w w M x @ 0 n A C h w n h 4 x ..x w v x 0 8 w w n e B 0 4 0 e C 0 w *.e 0 0 0 n n * 0 0 * 4 e x 0 w w w 8 0 0 w w e 0 0 e n n u e 9 9 9 w n B x 0 e C Z A n n C t.0 w 0 w ; e n *.C x C Z C n B n 0 h e 0 h h e n 0 u n u M R d.Y L u w u M M u 9 e e M N e e h w w 0 e n N M M M n u p n n u n N p 6 : p / Z p w M N A M x e 0 0 B w *.C C 6 A Z & M j.A n A A p 9 n M u 6 6 9 w u w w 6 6 B 8 8 w u w A x B w h 6 x e x e 8 U 1.B n w 1.K.C C M L R d.1.U / / 8.u n 9 w 0 h w w h A *.C n N A M M 8.N N A M 6 e N M L M F.A.n 9 p n p e p B M e 8.p e 9 Z N Z M 9 M e / e N e N N 6 n w M 6 M p 8.9 N N w p p M M Z Z N C M e p N e # 9 M 9 : p n p : : # 0 N 6 M 6 e # 9 6 a : 9 6 e M p N M : e 9 M 9 9 n e p M p M : # e 7 9 M M 9 u u L N M 9 n N p e e p p 9 p M p p M M M ",
"..v C n A h k e n A h e A B w x o.h A q.C A o.x e h n n h h h x e B A B x v C ..C 5 w C x n A B t.C o.A C q.o.h Z B A C e Z V.B A.Z C w A e ..L.A A T.L.n $.C.w w $.C n *.0.Z A.1.t.A C C U 1.C n 0.C n C C A Z n B B n C *.U n B M n x n A Z A *.C A V.H.1./ r.A M p B *.G.V.q.n n n B n e Z R.* e n n e C A U n e n C n x n x h n e w h h h B n M M M x x x u Y c u M A M n n N M Z F n e n e n k n V A N M M M n M M M M M Z 6 M L p n 8.U 9 w w M 1.*.n x n w w B e u 0 N U 9 Z 8.A M A N p n Z U M p p n n U e w 1.N u ; M e M M F.0.v.B A x A n B x 8 M M # 9 e 8.j.u 8 @ 4 8 8 8 8 w e e U 1.A n x B h 4 * e e 4 w p w 6 M H.p M A Z & u M w 1.w A.r.w 6 M p e p N N M e e : * # 9 e e 9 e 9 6 M e M M / n ; e p M 8 M A / # e e # 9 e 6 6 M e 9 p 9 : e M e 9 M / e : p M M e p e e N 6 9 > a e N i N M p p a M M N M 9 p e N e e M p A M p Z u > 6 : M # N M p # M p M N Z / N p p p p w M N p u p N N ",
"e x x A x B h V C q.B x o.A h B w < e C e e B x n x x x x n C o.n n h e x C C v $.w v *.n e h 0 w 6 6 w 0 e h * e 6 8 8 6 n C 6 C x e * x < e C 0 0 Z o.0 B =.5 0 C x w n t 7 n n e x x e 8 0 x w w 8 w n e * w A u w x M u 0 6 w 0 * & 4 e e 0 0 6 w n x 8 w n e w w n C C h 0 e w n U *.B B *.w n A x x n C n A x n A n B A A C A n h n n x B A n M L M y w c H c M L C u u M N p N Z n h n n B B B V n e p M p u n M n p M A 6 A / u 9 M N 9 p u N r.t.C A q.w C n e 0 A M A A B n n M n n n u p n M U j.1.Z j.Z w j.u 8 0 / Z Z p A e A C v.n B h n n w p 8 u j.8./ A C d.c d.x.R M M N N M M N N n C A n 4 n o.B e A j.U p Z R.M U y.l.w Z 8.A R.M Y.F.M N / Z N Z 0./ Z M N N M M M Z N N e 6 p N l.M M M / M N R.1.1.1.F.l.6 N Z p 8.l./ Z 8.N p Z N 9 p 9 n M M N p e M M M p N M p M : 9 9 M p N > i M 8 e 9 8 9 p M M p e N p p N M / N p _ _ p > 6 k.p _ _ Y.M N p L / Z N p p M n e e M N p e p B N ",
"x C v x.h B e V B o.*.=.t.A x x x.C C o.C C t.H.o.A B C A ..q.G.0.A n x C ;.=.C C x v A C B B h n n e B B A L...U n n n B *.U e B V.r.e A q.x.} A V q.o.n $.C.C v *.$.C C C N A 0.n *.0.A n e *.r.A Z Z r.*.w B r.M n 0.V.Z B C 1.C e e n C C n n B B C M n A 8.M u w u B C B B A n u B C n n B e x n 6 w w M n t.C A 0.A Z r.r.C A n n C B h n p 9 u R R x M Z.M u c A n 0 6 u n 0 e N k e n B h n n n w 6 9 p p u p n n u n N M w 6 9 w 6 6 8 A M M C n e n o.h 0.e n w U u M 1.n w n M B B A w w w u A 1.L n w r.u 1.6 n e 9 N C e C 0 h e B e h 0 n C n N w : U N 9 6 y H 8 A U L p u M M p p u n w n e w * e w 0 6 w M p 6 6 u : 8 u u ; 8 n M Z w N M e p 9 9 0 : 6 6 : # 9 M p M 9 p e e / p Z M l.p Z N u w 6 Z 6 u 6 w N : p e 6 M M p 9 9 # # e e 6 6 6 N M 6 9 e p Z M p 9 M e 9 p : 9 9 i 8 a # 9 Q 9 s i > 8 8 8 a p 9 M p p N p Z n 9 L L p > : ) p @ @ _ _ 8 # M M p 9 9 e M p e e M M p e p p M ",
"C C v C x e 6 0 w e B A h e w 6 B e * < w 0 w n B h h n B B B o.B B B x x C C C w x w 0 h n h h 4 w < e 0 w o.h w 8 ; 6 e e 0 w w Z n e x =.n w o.C B n x x x h w w x x w e B n A e C x e n w n C M U u n A 0 n e e x n B n n B 0.n w e u e e n o.o.A n B U j.l.C e 6 0 w x A v.K.t.C n B C Z 0.A n C e A B 0.A *.C A 1.A A 0.U B A C C q.o.B C Z Z / 1.N u w n M u n 0./ p e M C e n F C n B n h n C A B e p N A C A Z A M N U 1.p w M n 8 8 M / 0.0.Z n h B o.A o.n A r.Z n H.j.1.U L / 1./ A n C Z A A A N n n Q.U /.1.Q.j.p M U Z H.C A h C x C x A 0.Z j.U p l.1.1.d.d.l.M u L *.A N / / N / M A u U h B x q.n A U M U H.U C N Z N 1.Z / U N l.M Z U / Z A r.F.F./ Z 8.8.N M / Z y.M ` B M l.N p e M N / 8.8.A N U M A N p F.8.z./ Z 8.C Z M e p N Z 8.8.Z M / N e p M N / / Z M / N M Z e a p a i z.i a F.G U.] s N a 9 s Z p Z Z / / M L N M _ M i m p D y.9 p K.Q.N N y.N N N M N / / N N Z Z N N C N B ",
";.C ;.A L.A o.B A n q.q.h h A n q.C w e q.A e B A B n A ..C A o.n o.r.o.n v C $.$.L.A e n B e h x o.B t.A x q.e C A B A H.0.A P.C A e *.A ..w h 0.o.A o.V.$.v B C v K A w n Z t U B U w w 1.n n w M 1.0 w *.x C n t.V.A x n B n *.n e n n e n 0.B B e 6 w M U A A M M A C n n B u n n x x x e w A n C u *.e u 0 M x B Z B n B n < 0 0 0 n h 0 0 r N F N M M M n 6 # : M N e 6 r M 6 9 N n 0 6 * < 6 e n n e e p w 8 8 9 8 6 6 w w n M e ; ; 8 p 8 n Z A n x h h n 6 w n R.8 e R.9 N N e 9 p w # * e A M e w u n M / @ / u _ N n n M w M 0 x h o.6 h w e w 6 u u w e : u M u M 8 ; x C n w e e : n 6 e 8 Z e o.q.n 4 x A 0 w 1.A e 6 B w M w A u e y.: M M N M u 9 M M 6 : p M 9 9 N M / p Q e e p M 9 N n l.Z Z A 9 p ; w 9 M 6 p p M 9 e p 6 p e : e M e p M 6 e p 9 9 p e 9 p n p e / N p M : 9 > > 9 z.8 : i 8 G s i N i : 9 M 6 p p M M 6 e p M M ; : Z a 9 u n 1.u p ; 8 ; p M N N M N M p p p p e e p e 6 ",
"w 5 } } ;.b.5 , h & w x n n e r.0 n B q.h 6 *.e C Z < e n 5 C $.v ..C w w C C w v.n n e n B 6 6 x < $ 6 x n n n O h V.v.B h n C v $.$.v x C ..C t.;.v h B e e v.e A e e 6 q.C x B o.B e n =.C 5 C C C n C C M u C C n n C Z B e n h e e 0 6 0 x n A n 0 x x.C * U P.w u r.x x C *.V.C A w Z C *.V.j.u u n M C 0 C C n t.n w r.n n A.w C e A A 0 C t.n *.*.v *.v x.C w x t.B k T.0.6 n A.n e C B *.C A C Z A w A B r.C U 0.x n B v.B 0 n U 6 6 R.n U w r.e L.A t.h *.L.H.A.j.A w p M N C C B B B V +.s.@.V k k n L *.M x.L Z.C M A U *.*.0.*.Z C x B n e n *.*.n C e w e e B Z C e q.e C C e 8.n w U R.M e A B n h C A n B U Z n M u U n Z u H./.0.n & Z V.x B n B k C 0.C N N M M p M M 9 8.6 e L N p u n Z 1.r.w M n w p M M U 8 / A M U u 6 U U n n p 6 _ w 1.U N 8.w w 1.n n M @ R.6 N t 9 7 e e 9 N D p D / 8 M u w A j.U N L M M L N M N _ M m 6 M i 8.N Q N M p a N Q Q Z 9 u M M p p M A N 8.8.Z a p i 9 ",
"C g C v *.P.C C ;.x C C A Z n o.h h e B C A o.w V q.C *.M.C C C C ..C x v C ..B 0.n B e k 0.Z r.=.B e n A o...A e x x e e e e e ..M.G.$.C C C C C n x x B h k q.n C h e 0 B x w e n e w x C x v v v u w w x v x M x u x x w w e e 0 0 0 4 < 0 e B C B n B A B w 0 n O ; u 4 0 w w e 4 w 4 n w w w e & 4 w e n 6 n w * x e w B & 2 n * w w w e * w x x C v w w 4 x K x w C C e n e 6 x n 4 u *.w n w e w x u 4 n w B w n C w w 0 n h 6 w A u 6 n e A w t.w *.e n w x h w w n M u M p e 7 0 e n A w e k k e w w e M A x U M H 8 4 n n n x u e e w C B n n e w e B w e x n * w n B O e 0 x A B A M M e M * 0 =.x x w n B x n A Z B u w M p N 6 9 8 C e O 8 x 4 h e w 6 e C N N Z N M M Z Z e / 6 p Z Z M w 9 u n u / U p w M U 1.K.n M w w U N e M B M C A n L p N N M M 8 8 n e w U w _ # M p p A p Z M C m 9 e # 6 M N n N A p e p p M M p 9 u N p m e N i Z p a u 9 9 e a M M M u M N N M M M N / / Z M a N N M ",
"C w w 5 x =.C C C x v e x A e x * 0 h 0 0 e 6 e e n Z B A $.w h C C x x x v C C 0 6 e < 6 B B Z B B x h x B n h n n n n B A A n $.M.G.M...C C ;.M.A *.v.A B A Z v.o.A n A B B n k B h n *.B v P.C C C x x C $.$.*.M n A M 0 w Z *.A A o.A A o.x.B n B A C x h n j.r.M U 0.C Z C Z *.B A B *.x w M Z n A t.r.P.t.t.A n U Z A t.e B C V Z m.C +.k M C Z.M.;.*.v M x C C n A V w w C x C B w C A.C C n B e C A u U n *.n A r.C B e e A B x C Z n n e Z M F.n o.w h x B B n M U Z n N N Z F Z o.+.0.e e e e k k n n M L M x.C R y w A A A n u e u n A B B C w * w Z x *.Z Z * B B n < x B e A Z w N n w K.A C G.h *.*.G.G.*.A U 0.U U n n w N e p e U A 9 x B n o.o.B e n Z C N N e 6 e M B 6 e # 9 6 w e 6 8 M U N U p * ; u n M 8.8.N e u M n w 9 p M M M M 9 n e n M 9 w e e M n 9 M N M 8.m - : e / C Z Z Z 8.p ; M M u n n u p 9 p M M u 8 9 p p M p N 9 i 9 e 8 8 9 e p a p 9 9 e p M N N N N N M p i a N m i ",
";.v w h C C v x x x A x n q.A A 0 n q.e h n < C h n o.0 h $.w C G.$.C ..$.C C ;.0 e B e e A e 0 h C C n n C B e e x n e 0 e n C w w w h w 5 w C C w x C 0 6 e 0 C w h 0 B 6 e w e 0 * 0 B 4 < M.8 u x u e x x u x w w e w * 6 e e 0 0 0 0 0 0 e h x n B n h h x C n x B u e n w e x w w 8 w * O e n 0 e e w C x w n M B w 0 e w e 6 e w C 6 w 6 & & M u w x ; w K x v t.V.n w C *.w e C n x C Z n e n w B A e C w A x B Z n n u 6 n C w 0 w n n 6 u u r.x B 0 x B B n n M C n 8 9 p N Z Z C B n n e w w e e e w w u 8 A n K u u C M n u w 0 w n C A *.*.B x C H.x C e n & Z n * h h A * 8 M O n u 0 R.0.C *.4 o.*.v.x.A n B M M A p e 9 p p M n w n n B C A q.o.G.o.0.m.0.Z N u p N 8.8.N M p Z M _ _ n u A U B l.A e M 8.U U K.H.1.j.8.M u n n U 8.N p N ; 1.M B A 8 N U M F.j.N R.p M N M 9 ) Z 8.M M p p Z M B 0.A u n M M Z M Z _ _ L M N N Z Q Z N i p M Z M M M N Z N a e p M N L _ _ _ L N N N Z / D M 9 ",
"t.C w v C x u w x C M.n h A V o.A B C 0 A G.w n n n A * 4 B w C ;.B v C C C C ;.h e C n B +.w * w x B n n A B e /.!.V.B h B q.G.;.;.=.$.C C ;.P.A x C *.n C v.0.V.n A B C.n A A v.B e A V.C v P.K ;.x.*.$.*.*.K C *.;.A A 0.0.C C B n B B n x n e n n h n A B w n e C A A 1.t.Z n C A M C C A C t.r.B C B e A C C V.R.r.U U Z t.Z t Z n q.n C C n u x.C C x.n *.K w x *.*.n B r.A e e C C B C U u e n w C *.e n w Z n x n e n B e e x n w w u n w p n 1.B B n o.v.A h 0 w u n u e e 9 7 0 w n B Z B e e n B n u n n w C x C e n A B n n e w e C 6 e n e w n M B w n w e 4 *.C 0 h 0 o.6 u j.8 j.H.8 B 8 x q.e o.n B C n n M A Z M Z / 8.Z N u 9 8 u M n n o.o.o.n 0 e n e e e 9 - 6 p M e # 6 e w M M 9 8 p n w A p 6 w B e e 1.u e M A e 8 e u n M w : e @ Z n 6 w @ w p 8 U M 8 j.8 p 9 9 6 I.p e # w w & 9 p M N e 6 8 0 6 9 9 u u u p p u 9 9 e a e 9 9 e p 8 8 9 e e 9 > : u u p n M p u 9 9 e p m M i 9 8 ",
"K C 0 x x w x x v C G.n 0 e w n h h h 0 n o.n B B A A e e x w v v w w x B v C C B 0 e e n o.h e 0 e h h x B n h o.B e w h n e < $.$.C x w w x C x e x x 0 e B B n w 0 0 x 0 w w A 0 6 n C C B C K C v u u n M v w C A x n +.Z e B x h n n h e e h B n e n q.A 0 0 0 n e x C e n u n C e n e C n *.*.x n n w n n x C A e M *.e x k 0 B w n n e n K C K C C K M C x e v n e C 2.Z x A C x C A.A.A A C A n *.A.n C x H.*.C C n 0.t.*.e e *.1.L M 9 M M n Z C n B q.q.o.B n B M N M p n M M n n n B Z B e u B A M n A.q.n 0.B C e B *.C B A A n B U C r.V.*.*.H.A.*.0 x U B e C V.*.n 4 q.n A W.Z j.C e n u n A n ..C B B M M N N A Z l.j.l.N U M M N M U B n *.A v.v.A 0.r.0./ l.8.p p M N / 9 N M N A A A / H.K.H.H.1.p u M M N K.H.j.1.l.F.j.Z A A U Z Z r.Z F.r.0.r.L 1.j.1.H.8.M R.Y.W./ A 9 I.8.Z M Y.!./ l.R.A 1.U U j.8.Z 1._ _ L L _ 8.L M N N k.` U.` 8.Z M M N N N N N M N N L _ _ y.y.y./ Q Q ) / / ` l.",
"K $.x $.$.x ;.x.;.;.P.*.x n e A w n B C h h q.o.A v.o.q.t.C C =.C C C C $.$...$.0.e k n C o.B r...n h x n B A o.h x n B o.o.x < C $.C x x v C x $.;.$.B B n n B n x e n n A n n +.e B o.C x.G.x M.;.C v C $.K C n $.*.C B A Z C B x x B B n h h x h h x A A B h e B Z e C Z 6 x C B A e C e B w Z Z x A Z n C n 0 n C 0 n Z 0 x k n A n w Z w e K K v C A C A n x u C A x C 0.N u A n 6 e *.A x C n n 0 n Z e x e j.C n n n A C C 0 e C B n p ; u 6 6 w e 0 e B h h x n n p u u 6 e B A C n e 0 u 8 6 6 w u w 8 A n 0 B e h 6 e C e w n C x e x n B B n x x n x w w 0.e n 0 *.C A * B n w 1.M 6 # p M A n 0 n e A B n n M n u w n Z p n ; n p N n 9 N u x B e C V h n n 7 0 p M M e 6 e Z # p 6 Z p 8 w u w 9 9 1.Z 9 : e p p N N U n u M 9 & 8 w 8 9 u w M 8 w n n N u u A u w R M / p $ * @ ) M p 9 N M * : : # w e u M p e M p M p e 9 u u 8 p 7 9 > N u p > 8 8 8 8 8 8 9 9 : 8 9 u u p N L p 8 > 9 e e i a ",
"e n w *.$.w C C v x A n e h w B e 0 & w 0 w *.< 6 n 6 n B 4 x C x x x x x x w 5 n < 0 e e w 2 B o.e < < 6 0 e B A o.A h w w n C 5 x x w w C C x x C v w n h 0 n e x 0 C n V.A o.n 6 B A 0 C x.& C M x x C A n w e x x x 0 6 w B n h x B A B n x n w 0 B A x e n 0 C *.e *.r.0 C B x C e 0.C U u B B e A *.n B e 4 A P.n n A w t.B Z r.A 0 2.6 0 v C 8 M A v *.e *.w C R.1.n C Z P.j.M n Z C n U *.C n ; e A e n x V.A B A C Z n C C v.0.8 w Z M N u u B A B A t.q.C h w 0 w M / C Z C N B B B C U M n M A A M n k e 6 A B A h C 1.n n *.t.A n n H.1.1.j.0.M A A.F.n V.e V.e t.u !.h A A w 1.j.8 U K.u A 0.C G.h v.o.A 1.A.l.1.Z n / N / e A e w u 6 A Z Z *.e C C n B V e e Z 8.l.N e p l.8 Z e 8.p 9 M / U U 1.F.H.A M 8.H.U N n K.j.A A 9 6 l.H.Z Z / M K.w n M M j.p n l.n u A 8 W.K.A F 9 m.N / M Z / Z l.8.C 1./ N M e u U y.K.K._ N Z L N F.m i : N a Z p / Q Z N M N N Q _ j.l.y._ L y.l.8.N M D k.` N M ",
";.G.;.G.v ..v ..;.C M.n B n r.w e h C A C *.*.x n V Z o.A C C v w ;.x.w v M.C $.x C M.M.C *.M.C 8 e $.x $.C $.C C C *.t.*.C n e w Z r.C n o.o.B B x x A 0 B 6 A M 6 A e e U 0 C C e C C C Z x n C w t.x e A 6 M e A e 0 Z n 4 u n *.n w C C e e @ e Z C n x e 0 8 n x e n e w x M A A *.r.C w w w e n C x 6 w A Z n n n n C x $ n e n w n A 6 n C 0 n w e A e C x x h x n n u w 6 e e 8 e M N u 6 u n w x o.C 0 4 w C C M M M L n u w y w 8 w u 6 e Z F e 2 e m.n C A n e w 6 # 1.n w e n h e e w 0 h x 8 9 u w e e 8 8 u w 6 e p N / n & Z : 8 n # 0 : e O 8 M u u X M n u 9 ; / 6 # 8 e 8 e U L n 6 6 n Z p ; e 9 e M N M M U p n n 6 & w n 6 9 e 9 6 / 9 M e 9 e p $ * Z h * e t F 6 Z 6 M # p N : u u M 8 ` p p n M j.p _ M M A A M u u n M M u w w n B n h n B B u u M U 1.A p u M N n e e / N e 9 6 : e N y w ; M w u 8 n M u n 1.d.M u u w n M e 6 8 9 w e 8 A u w N e C 9 _ p p p u _ u N Q N a 9 8 8 8 ",
"x C C $.w v x C $.v $.x B h C w h e x B B A A e e n n n x x C C x C =.h v ;.v C w w C C x v C x v C M.C ;.C ;.C v C *.*.Z Z Z C B 0.V.*.A o.o.C v.*.*.v.n A 0 B B 6 C w e U w C C n 0.Z 0.F.*.t.A e j.n u A 6 n B *.n n 0.A x C n C n x A t.Z A H.t.A C t.H.V.*.C U A A V.A.r.H.C C u x C C C t.F.*.C 1.r.A n B C Z H.K.0.Z t.0.n n Z x M t.B t.F.0.H.Z Z V.C Z *.o.A A 0.j.j.1.Z j.H.8.j.K.F.1.A 1.1.U 0.H.H.t.C C ;.P.K.*.*.K.K.d.R j.K.H.j.d.Z / / Z Z +.o.Z m.G.m.Z C / 8.8.l.A M M C B n B o.A v.A.U Z U M Z 1.L A 1.U Z 8.M N U Z n U M U j.U Z 1.j.u A U M / 6 Z M Z Z u j.j.1.A n n U F.j.j.Z p M y.8.M y.y.y.1.Z B M M n N M e u M A M Z 8./ Z F.M 8.Z Z N M 0 B !.+.6 r.Z r.9 8.p U.` L y.u N M N 9 L N N M M 1.e / A M A L N M A U U p n M M C A o.*.A o.0.Z A U 1.1.1.A M Z / A M M t M Z Z M e N F.L -.L K.Y d.M U H.j.j.j.A n A K.K.M w M M u n 1.N n 8.N C r.Z A.L y.N L / _ l.L / 8.k./ N M N Q ",
"v C C $.x v v A ;...$.n q.B n B o.n B o.o.*.*.B n B A B x v ;.P.C v $.C C $.C v v C $.$.C C $.C x n *.x C u C v 8 n C e e B C n n B C C B n h j n h B B e n 4 h M 0 n w e Z w C x e C u n 0.B B x 8 A x e B 4 e u e e u n M n x A B B n n B M w w w x n e w w e x x 0 0 n B x n x n e n A B u B w w e n e 6 0 x n w e C n e e 0 B A 0.w ; w * * x x C e e A x e n n e 6 0 w 9 : w M A M p n n e n n u u x n C A x 4 0 C C 8 8 M M w 6 u N M w ; 9 p e 6 w B h * w e w 6 6 9 p M M n e e e w e h n n o.0.M p u 6 w M M n N M e p w 8 8 p M 8 B M Z 8.e / C u N p n j.n M u Z _ n 6 M C 8 : w u 8 e M B w 9 M N p M U / A p u u p u C u 8 p w 6 e N / / N Z 9 N p p N 8.n B G.+.C Z n r.n / 8 M a p N e N L _ M / A A M n Z 9 1.U M A Z A A / 1./ M N Z A B n n B h B C B n M n u / N M N L Z A A e M Z Z N p N 8.C Y M M 8 M n A A A 1.j.U M A l.U u 8 u p w n j.n w M u e B p A L u p p N _ M N i M Q / N M M Z ",
"C C C C v v x v C C x h o.h 0 B A h n A B n B n e n V B x x C C.v 4 n C x C x w C v C C v v C v M M *.x C w C C $.G.V.C C A.A.C t.Z U V.V.q.o.q.q.A q.o.A =.n o.C e n 0 w C e n t.r.F.A C A.Z A A C H.V.r.H.C Z A B A t.t.j.t.A H.A 0.0.n B A w e n *.V.Z e e A H.r.B B r.V.*.*.n C C *.A.Z x n n C r.V.Z C *.P.P.C C H.A.Z C n n U V.M u U A e C 0.V.0.t.P.H.t.v.r.o.n B A M u C 1.j./ N A U U H.1./ t.0.A q.L.x.B n Z 1.A K l.j.M p M U N e 6 e Z 8./ C A o.Z k n B B B N Z Z n n n n e e x B B n A 0.M B M w w B M M U N 9 6 p M u n 1.9 j.M N j.; C e M 0.N u A M n e p M p w M M n A H._ 9 0 w n M M M M N u A / A B N Z Z M r.M u / p ; n / 8./ Z N e Z p 6 9 N w 0 B n C A n r.C F 6 9 i 8 8 6 e M A M N w u u 9 n * N N e p n u p n n e e p n u w 6 6 0 n B A M B M M p p u w e p n n n Z p 6 6 w e 8 : x L C u w M Z Z N p u N U A n u 6 C 8.A n A 8.j.U M M p p n p M y.9 M M N L u U p N l.z.8.Z Z Z ",
"$.C C C *.$.C v v C w x o.B 0 A A n A o.n h B B e n A o.C x v $.C 5 C ;.C C C n A C C ..n n C v u u C e v 8 M C C K M w x Z B * e 0 w n B x x C o.n A e e h 0 w C n n w w B u e n n A e e C x x w w B M M n 0 6 0 6 e B B B n 0 M w x M e x C e C w 4 8 e w w e n n 0 0 C A C C e e 0 w n n e C C x e n C C n x e w C j.B 0 e A 4 w n n u U t.0 e C C M M C C x w h h w w M n w e n M u w w p M M u u B x 0 e B A n e 0 w N U U Z p 9 9 w 8 6 : # 6 p N t 6 0 n h h k n t e p M u n n n e h n B A B A *.A Z 1.A A U M p / j.A M B 1.C u 1.M R.n M 1.6 A p A _ Z N n A A A u e M M n u n U j.1.A N w u U 0.n n 1.n A U C M B M N u U M n j.N 9 U / / N / M N 8.e F.M p t +.R.v.q.o.w C w e 7 e 8.j.0.0.Z *.U 0.C A U _ U r.e 1./ N U 0.U U / U A C A A A A A A A n B B n n M M n U U U U _ y.y.8.K.1.M M A U M u w M 1.L Z Z Z p Y./ M p M N N N 6 N / N M A U M 1.A n M M n M N _ 9 N N M M 8 L A F 0.F C N C Z ",
"C C $.C G.;.$.v v C w C B Z n Z A C o.A h n B x n n B o...v x v C w C C C C C C ;.C $.;.A C ..C K K G.*.Z.C G.P.t.t.A n A A.+.e n u n A o.[ ..x.q.B q.h B C n n B C B e w n n e n e A C C *.C 0.A A *.*.*.C x w x n C Z t.0.C x A n C *.A A 0.*.M n n C B n x n M C e w B B n C U *.C A r.Z M Z x x x n C C C C *.C 0.H.t.A Z A B C A r.A t.P.w n Z C 0.0.C t.Z w B A n u M M u M N N M n M A U A B n C B h h B o.0.V w t / H.8.Z M p t e e p N N e e C Z h w e v.0.Z C N N Z 8.8 e u e w h n B n w h x e M A B A A 8 # u U U U w M u 6 n A j.e n n n U N A u p U w Z A 1.n w n n 8 ; : ; ; e U j.p 9 M M 9 w U n p n M B p n M u A M p Z M w M p p 9 Z 9 M / : C : : : w n e V  .q  .e w n 0 C n w n 8 0 ; w & e u n u M & e 6 : w n n u u p u w 9 8 8 w e e w n n h e e n n p 8 w u e u n n u 4 w y w 8 8 w 8 n u n 6 e 7 t 9 Z D F Z N N / l.A 9 6 w n u w 9 M p 6 p N p N M L p M N n e 8 M m.F n w 7 e M A ",
"w w C v $.x x w 5 w 4 x 6 V n h h x n e 4 h h & B w 0 h n w w w 5 w v 5 5 w 5 v C x v A B x v x 4 4 x w x 4 x C A C x e e n n e e u n n n x n C e 6 B 6 n n h w e A C x e x C n w * e x x e 0 B C C n n n u x w w n w w C n 0 w 4 6 ; 4 0 * * 0 6 n 0.A x w e x n A B e e w 0 x w e w w x 0 * * 4 e B n u u C *.r.B n *.r.A.*.w 6 4 0 C e x H.w u n e *.*.x *.0.e A o.x 0 e p w n n M M M n M B n u e u n n n n B B n e e M Z C M t 9 9 7 7 e N Z n 9 e B B n w A B n B n p M L u M M B M o.0.o.C h h n u M A n M L p 6 e A U 1.M p u u p j.A M U 9 H.1.j.Z 6 M A 6 N 8 A M e e 1.N p p u u A l./ A M M M n n C / M M 1.j.A A 1.A 1.1.A C Z N n e M p l.9 Z l.9 / M / Z n n n R.o.n L.V B r.w n C n j.A C x 0.x Z U U U H.p 1.M p U A.j.U U / / U / U A B B C o.*.o.A B M A A M M U 1.1.1.y.8.U M H L M M L R R 1.p e # t 6 p p : e N Z Z Z Z D U p w u B M M N A M 6 A 1.M 1.Z y.1.N _ / M L N F.0.B n n C Z Z ",
"C C P.;.G.v C x x x x =.e G.G.Z o.o...x x q.o.* !.o.n A t.;...$.v ;.M.x v C x M.;.C ..M.*.C A C x u *.C *.u K M.Z.x.K B x k B A A 0.v.*.A C [ o.A B L.B v.*.B e 8 C C n u x A n 1.n *.t.*.n 0 C *.A e x n n *.A x *.e w *.C 0 n n C n n *.n e U A C x 0 0 n B x e C C n n e e A 1.Z u w n B C A.A C n n A Z C u 0 w n C B Z 0.n V.*.A V.w * A * M B w U C ; x n e o.q.x 8 n Z A p p n N A M u e u w 8 0 e n B n B k k B M e e B A n t t t e t M M N n 0 0 B A B 0 6 e n n 9 9 p 8 w u w u C A B A h h x e u n w 6 A N e e p e u A 8 8 u 9 1.6 M Z @ j.u A p @ N M 6 M @ n U M 8 M w 6 8 M A n 9 # p N p e n u 6 j.p e U / u 9 n 8 u M e w M A w : e p l.: M 0.6 Z 6 e t e e 6 A n 6 B * * Z 0 B w 8 r.M n 0 A 0 9 8 8 w A 8 N u : p A M w 8 8 w w p M n w e C t.C C n x u n u 9 w B A A N Z C n *.M 8 ; 8 M M x u ; e p 8.e e - N t 7 6 t m n e @ p A 9 ; p U Z M n ; M / p A n N L 8 M N u N 9 B t e e B V k w ",
"n C t.V.*.B n B e 0 x B h h n B e h x B B h 0 < n e w w x n e 6 h n B B x x C t.o.x e B *.*.A A 0 e h e x C A B 0 x n h k n n 0 k e h Z e 6 V e q.A B n h 0 0 w h C q.r.A n e e n n n C q.x.B 0 B B n n n n B A n n B B q.e A x B 0 q.B B e h x n n h w e x A o.0.Z e 0 k B C r.Z n e e B C V n M *.w *.x B n n V.0 *.0 C Z w B B C Z t.j.0.Z A A C C A A A B n r.F.A.C w x *.A.r.e e A *.Z A n B w 0 B r.F t 6 e Z A x C 0.*.Z u e w e B A n e *.0.C t.t.n C e n w n n *.Z w A C n x C *.Z C C Z B A.Z e w 6 r.r.C Z t Z !.Z B A.C n Z V.r.r.H.A t.t.Z C Z 1.1.1.n A r.B n C x t.B h Z u H.U U K.U Z j.2.n n +.0.H.F.t.C n M M 0.F.F.Z B C Z C B A v.A R.Z N n r.F.M 0.0.C G.q.A n Z Z e C H.r.A j.V.*.C A A n C A Z A C Z Z A Z Z 1.Z C t.V.A n l V q r.n A +.*.B Z A x A t.x A *.v.V.r.0.A n A l.H.1.L / A 9 N 1.U n M l.R.Y.e Z j./ A Z A M p Z 0.N N 1.y.L M 8 M j.A M A n M 1.A H.t.n t.*.r.0.k F n / M Z ",
"n C *.H.H.q.A A B h x n e e B A B C A ..A C B B C.A B o.o.x e n x n C A B B A =.C x x A v.t.*.*.n n e 0 h C C n B C B n V +.A h e h B m.V k m.+.A B B B n e e e 0 h V A B n n n B n n B *.x.A h C B n h e e h h B n n n o.e A n B 6 A e e 0 x B h x n B n n n n M C n w n e 0 w n w 6 6 w w w 0 O e w *.A t.n * e * U ; x A e e w e e n n x e e e e w e x x x e 0 x M x w u M A Z e w n n C C e e 6 6 e C N w 6 6 x e 0 e e 0 w w w w w e u e 8 4 0 * e x 0 e 0 C w e 0 0 w 4 0 w w e e w w w w e e Z e 6 e 6 n B 7 n 7 e Z w 7 C w 4 0 w 0 w u n x x n M B n x 0 ; 8 n x x n n n n w n 6 e 0 ; M w 8 u n e w e e n n e w w w 0 w n n w 0 e n e n n B 6 n : w n Z U w B M h Z B e w C Z e w u 0 0 e n e e B C n B B n w 0 w n B w w n A C C n 4 6 6 e 6 A w k C B x C C w n C w e h n M M B n e w M M u u B n 8 8 M N p u A L M e C / A n M n e N 8 8 n p : 6 N u 8 9 u w 9 u w p U n A n 0 A *.B V h F n N 9 9 ",
"x h x A o.[ C C n e h x 0 w B A e h x h e e x B ..e e C B 0 0 B n n n n n x h h e w h B A B n B h w 4 4 e n h 0 h e 0 6 e n h 6 6 e n q.n e 0.o.A C Z q.q.A B B n B C C n n n n C B n n A =.A h q.q.o.A A C C C ..C n n q.h q.B B 6 A e h e B A j B C [ C x h d 0.r.0.C +.C e n V n e e e k n n u j.n C C H.r.0 e e F.w M t.C x C C C C C C B B A C B M C A A A w n A A C A U Z *.C C C B U 0.n B e e B Z A B n A 0.0.0.r.A n U C C C C B n x e A *.M 1.t.C A B P.C t.C u *.Z n C V.F.t.A Z t.t.C F r.B n 0.N n 0.N 0.Z Z 0.B Z *.C n C A C 0.F.0.n x A t.U n e e x x n A B n C x v.n A.Z M 1.A 1.A M A 0.r.r.A A Z *.Z 0.r.0.C C *.U C C *.t.*.C A A w u 8 M 1.r.0.p A *.A q.A M e n C e e C A n A C n n Z Z M n N Z Z C B B C C e n C B C A B e w t e V 2 2 e w w n n 0 e n e x n B A Z Z Z A M N M n N / U M 8 M 1.1.U U U M e N / C N U / Z A Z N u e n M N A 1.A n M A A U M 1.U 0.n 0 A t.h n h F C Z M B ",
"q.C n n n n [ q.x e B o.B n A ..h B B n h x C ..A h e B B h h C A A C C A *.o.A n B B C C B n B h h h n A ..B h B B h w h C B e B A B o.B w C B h h n V C n k n C B B n h h n B n n h e x n h 6 x x x x x x n n B h e e ..0 C e h < A x n e h h h n n x h 0 0 0 B C e w t e e B w w 0 0 0 0 e e A 1.w * * e C w e 0 Z 6 x n 0 * x n n e e e e w x x u e e e e w e x e e w w w w w w x e 0 x n 6 0 0 0 0 w e e e 0 w w n C 8 4 n C n e u e 0 4 * n B e n n 0 w 0 e & e w * n C 6 6 B A e w n C B Z Z 0.B B C t 7 0 6 0 w 0 * * e 8 0 w e e e B 0.r.n w C *.B w w u C x e M e 6 e & B < n n 6 0.Z 8 w w 8 e n n e 0 w e x n C B x e e w 0 8 e e 8 h C C n M p n L U n 9 n A A A C B w w x e e C r.A *.A n n A B e 0 e C Z A B B C C w w n e e C 0.+.Z Z +.0.w 0 C n n A C n C 0.r.n n B C C N C A A N M M N Z A n 6 p U / A N M B 9 n M u u M A M u U U u e A U n N H.Z e N U M L n N Z U n 0 e x A B n B B Z / l.",
"=.A n h w 6 d C h w n C h e x x n A ..B x B A A o.A n h n B x 0 h h h h B v.G.v.n n n x h h n n x x x n B B n n A o.A n n A A B C A w h n w n k A B B A C B B V k e w w e n B A C A ..A o.o.A x o.o.o.o.*.q.v.v.A C C A G.n =.n q.h H.*.v.o.o.o.[ =.x.q...C C C Z r.A B Z F +.A.F +.F Z C C Z 0.U t.C A Z C j.*.P.M A n V.A B n A *.0.Z A Z C n C A Z *.Z A M n Z A A C C n x x n C t.0.A 0.t.n B B B B B C F 0.n n n U *.u w Z A.Z B Z t.*.B x A U n *.Z n Z C U 8 C B 8 t.H.C n *.t.C B 0.r.Z B B n C B 0 0 w n n t B n 7 n +.n C U *.C n C *.r.n x C Z n x B w C n e C n w n B R.n C U 9 F.K.u A L B n A o.V x C Z Z *.r.r.r.*.*.A M B C C B h C B C Z A u p Z w 9 n A A B o.x n B U 0.M n A n C C B A 0.Z n n t e e w e C A.w w C r.B w n B 0 w w n x 0 6 A e x x e w e n Z Z C B C C M M C U A N N N M u w p M N A M p n N Z / A p u n n w M w n 8.1.p e A p 8.N 9 M N u p C N Z Z A V k n r.C n w e 9 p N ",
"n n B n 0 1 5 g A n n n 0 0 h n e n B h e h x h n B x e x ..B 6 n n h 0 e A o.A h x h e e x B B A B h e e e h B h B V k h n n e h n * 0 B n B C n e w e w 0 w e A n h h n B A A < w w w e e e 6 n n x h h h n n 0 w e e A 4 x w n * x 6 0 w e e 1 w n n h 6 1 1 w n n e n t w e n n n n e e e e x n n n C 4 n n A * & ; M 0 0 0 w n n x e n x 0 0 e n M B n x e 0 w u B B e w w w w n C B C C w w e e w w n B B n B n M n 0 0 C C w 6 e A C n e C C x B n 0 x e j.e n w 4 n C n n C A B B Z C n B B n 0.Z 0 n N e n w e e 6 n B 0 e M C n e e n *.M B Z U A A t.n Z C B A A M C B G.h 0 C 6 Z 8.6 u n w 0 w e e 0 e n n n M C C n n n x u x x n A =.n C B C w p 1.e n C *.*.B q.n A C C t.t.*.A.n A A C A 0.*.B C n e n n e n Z n n +.0.t 7 k n Z A.1.V.Z *.*.Q.A 0.Z C U B n t.0.C C A A n n C U N M A M e 9 e 1.A C A M p n Z U / A n n N M e e p N U U M p n p N N p m M t p F p M n C r.A r.A n B e p 6 e e ",
"n B [ 0.X.B B [ G.*.q.q.B n *.q.B A A n n A A B n n B C =.x.=.C v.G.q.B n A A n B A A B C *.q.o.v.A B B A C A o.n V A B V A B w h A w n A.+.r.G.J.v.q.r.q.+.0.v.0.A n n B B B n A o.*...A o.o.A *.A B n n n B C o.=.t.q.G.n v.=.t.e =.n A C o.*.B o.x.q.C n x n n Z Z Z 0.B e t N V C C Z C B B A 0.*.n Z e *.n C 0 6 0 A e C n n A Z C M U *.B B C *.1.0.Z Z Z n n C 0.*.C B C M e n *.Z *.0.A B C C B C 0.r.r.C Z C n n e u 1.0.n e A t.*.C C A U n B x 4 e w t.n n e e n w n C C Z U U A C B e C e C B 7 B n n Z e n B e C w 0 e M C B n B C x x u n n n n n n n C n e n n 8 n A h * 0.p n U w u n n e e e e n n n x n C C B n n B n x e n B n ..e x 0 p 0 M U 8 n n B B 0 A w C w * x Z *.A.n A C e w e x w w 6 0 n B e 0 w n k n e * 6 e w n V.C n 0 n n H.6 e w w B w * w n e e n n w w n n w e n u 6 8 M U n u M N p n A w e 9 6 e N M e # n B 8 8 M N 9 p 9 t n e e e 9 t - e 0 e V e A A n o.n Z e m M ",
"0 6 6 d j v n B e 0 x B h e x x B A B h h A o.B e w e B B e w e x C B e w n n e w h e e e n x e h 0 0 x A B h w e k n k B A h * * h < w A e h B n e e e e w w e n e 0 w k n n h A ..A n e h x x B n e 0 0 w h n e x n h n * B n h * B h B x n x n B n d 4 < 6 d n Z Z B C n w e 7 w e n C C B n * x C e *.C j.6 n x x w A n 0.n e n n w w M C n n B C M n x x n B n x x w 6 w n n ; 6 n n n M B n B B n B 0.2.F n A n e e e n j.Z n e C C x w e e x 8 u e 6 x x n e B C t.A 0 x x x C *.U C B C B J.A Z C B r.n B r.n C A B A * n C A C n n n n C A C C A U C e C n *.*.n Z t.n B C C ; H.N 8 n M M M A C V n n t.Z C n C 0.*.C C A A C n e n C C C.A 0.B 0.A K.F.n 0.*.Z A e q.w t.Z e Z r.C C *.r.*.n e B Z A Z n e N Z C C 0.t n A F V F A 7 B P.*.A w t.A.].x Z A V.Q.H.M 1.B h n A Z M M 0.Z B N / Z M U R.r.N C H.R.H.l.K.Z U A M L l.y.N C p p A L A 1.R.F e m ) n t A m N e F A A +.k +.G.0.G.V / 9 N N ",
"C h q.q.B [ C =.L.v.q.V.G.t.*.q.A n e n =.G.v...G.V.o.B A t.v.o.B A o.+.Z A A A Z o.G.L.q.Z n 6 n q.q.n h V o.A v.C A n B q.C o.B e 0 e e v.h n L.o.C L.C j L.j C C F.n F.r.B d n e B o.+.r.n o.n C B e e n h < A.0.C C *.t.1.*.0.n n w w C n Z v.R.C n A A o.n e n B V n h e e w 6 6 h n k n A r.h 0 n C B A A.B h e B B n B v.k w C Z n C Z w e r.o.e n n e k k k n k 0 2 e o.B w 6 w n C M B n Z *.C n n x e C *.n n e w C C 0.* n w B w n V n k B w 0.n n e B Z r.w Z B V w B n 0 0 B A B A B e n 0 n w n w 0 B e n C 0.r.e 6 e 7 w B V k t 4 e C B C F A e B B V A Z A B t e 0 0 e e 6 0 n n * $ V A w n e F e B e 0 n e w e n e 0 * * w n 6 7 n 7 C C * 0.n w Z t 7 t * w w 0 6 7 w e n C C e w B Z M 7 6 9 e N B w h B h n Z * w w * C w % V h V n A e 8.p 9 w p p N N e M e e e 0 e h w B e h - 6 B M C 6 9 e p p p p p 9 p t 9 e w e / p p M n 0 e n h n Z A 0 6 e n w # # 8 e e 9 e p e 9 9 e p p e e ",
"..j o.n 6 w 0 h A n x n B n x n n e 0 e x n n h 4 6 6 6 e n n e h n n n h e e e * * 0 h w w e w e B Z B n n h 0 B x A B B C 6 4 0 0 h B h o.6 0 C d e C h 0 j < C n n * 0 f e C +.k n e e n 0 h 6 w e e h n h 0 C n x u x x e w e w C e w e w C 6 n 6 0 h e x h k h n B n e w e B n n B V B V A A e 0 e n n B o.V h e h k h C G.0.A C C V Z Z n B o.V n A q.A k 6 e Z v.+.n n A B n n *.r.0.C n B Z Z C B C A C 0.1.n A *.A t.C J.e Z n C e B Z F Z 0.n J.A C B e 0.A.e 0.Z 0.B 0.0.B n A A N Z Z B Z k Z n A B n F B N A A 0.e t N B N +.A N F *.*.Z *.+.A A F 2.Z A C A Z Z Z n n B Z Z C Z r.F.A e A.F.r.F.0.J.C r.0.Z A.r.r.Z Z Z V n t n V r.+.+.J.m.Z 0.C A A n n n n A A N B n n B C Z 0.F.A n C 0.Z N C Z p p B C r.q.n C A.n r.r.n 0.e 0 +.n Z N Z e / Z M N Z Z / 8./ N p M N n B V k 0.A r.Z Z 8.Z 8./ 0.8.r.l.l.l.l.C ) / ) / N A F.Z M N r.J.R.J.B n B A Z Z C Z 8.N / 8._ / / / / M M N / / / Z N ",
"C.C q.C d C ..x.A C B C C B A q.G.v.t.q.=.o.o...h n C o.V.L.G.q.h n n n n n B C n w e B e e V Z Z 0.r.v.r.o.C B q.B A n B A h n o.o.o.o.e o.h =.L.C ..[ ..=.C C r.r.r.+.C  .e q.+.B Z h n Z B A n n B A A B n B n n B C C C B B B n Z C C *.C t.e A x B C w x B +.n n A Z n n A C V n k n B V n n h e w h n n n B e e h h e k A C C e w V Z n e k e k h h C B 6 0 w k n h e n +.n e w e e e e u 0 w w 0 6 8 w w x n 0 e x e C n F 0 B e e w k N B B B w Z e w 0 2 B A 6 n n n 6 C A n w n e w n t e B w B w B n n C w e e 6 e 6 6 7 7 q e 6 2 n n w 0 e e 6 7 n B n e w w e k n * 6 w e e n B n A e * e n n A w B * w e w k e B w w e e e e w w B w 6 0.n w r.* n A 2 t n w Z e V N B n n B C C A e < 6 w w 9 e M 9 9 e e A o.h k +.n 0.0.e C 6 2 k w n n N p Z p p p p p M N Z e 6 e n e k n 0 n e C B e 9 : M p e e e p M M M e p n N N 6 : M 9 6 9 e 0 h Z o.e < 6 B B 6 6 N e M M e 9 e e 7 6 e M N M p e 9 ",
"B 0 j w 1 x B [ w w e e 0 e x B B n n h e e w 0 0 w e x B A B n e e e e e k n B o.h n C e 0 h B A B n V C B n B v.B B e e B h n *.A B n 4 B e =.v.C o.j B =.n L.B +.r.R.q.q.0 @.6 0 o.h A Z A A n h x A B e e A w x n M B n n C *.e e 0 n r.Z 0.e A n ..C 4 0 n A 0 6 n B e h A V A B h n o.o.B o.o.C k n A A B A C o.q.o.n h k e C n n r.r.B B Z A m.m.B A r.n A A B k e n o.F.r.Z B n n x B Z 1.t.t.*.Z Z A A A j.A A n x r.A.0.n r.Z C +.0.r.0.r.Z C r.Z B n C F.r.k Z r.Z e Z r.0.C Z A C r.C B 0.B 0.n 0.F r.r.B A B w B V A A V A +.n k 2.t.*.*.V.r.Z A F C C C C C C N B 6 n B n n Z 0.V 0.+.B A C C m.n J.n Z F C C V 0.Z Z Z +.0.0.Z A r.C n r.r.0.T.n k V e V A n A k Z Z Z V V C A C A.o.V Z r.8./ / M M N B e n 0.o.B Z k C A n A k n n e e 7 7 6 6 M N n p M M N Z Z M N Z C o.o.B v.A m.r.N e e l./ Z M M Z / / / r./ / F.Y.Z M 8./ Z 8.2.n B A.R.G.n h 0.l.Z N l.Z 8./ N M / / B e M N N M p e 0 ",
"q.C o.n e A C B n B B n x B A q.q.o.A A o.o.A B A B n B C C A A C B n e e e e e h 0 e n e 0 e h n e e e h w w e G.*.V.o.o.A 0 4 x h n C e A 0 h h 0 n 0 d n w =.e n n Z n o.f L.6 0 A.n Z n n n h 0 e C A x C G.C A Z C n e e x *.x n w e A B Z * e w B C 6 h A o.e 0 n V e h A e h w 6 0 n n 0 n B h 6 < w e 6 e e n n k 0 6 2 6 B n e C C e B h 0 h n 0 e n 2 * 6 w e e w 0 6 e e n n x w 0 0 n n n n n e w 0 C Z x n n e C n w 6 B B w N e e n C n n C B w e B Z e 6 n 2.B w e B n e e w w n w w B w n 0 t e B B 0 e w - e k t e 6 6 e 0 - w B A A n n n e 6 w w e e e w w w 6 n n 7 w B V e w n e n w w N 0 +.w B B e e e B B n e w e w 0 6 Z V n 6 n A 6 e w 0 V n n F n +.C A C n n B N n n e w e n p p e p p N n w h A V V C t B C B Z C Z n k e e t N m Z Z e 9 M N p N M 9 9 w 7 e h 0 n 0 n n 0 # # p M e 9 9 e M p p Z M e M / M 9 p C e p F F A n 6 e < * w N N p 9 e p e 6 w M B e M Z Z N M N N M ",
"n 0 n 0 6 n d 6 0 e e 0 0 e x x B B n B C A B n B n h x x x n C o.A B n n B B B B h B C n n B h n B B V B k e w G.o.t.A A o.e h C x h n e q.e n 0 0 C [ C B h B Z Z Z A A q.k b.V e v.h 0.h B A A n n o.o.C o.G.A Z *.Z C n B B B C A.A e e w C 0 B h B A h A *.0.n n A A k h B v.q.o.A +.r.0.C v.A.r.V B A A B C C V B B B C Z Z m.r.Z Z 0.r.J.A e 0 h A q.Z e e B o.q.r.q.A n *.A A A C n n C n n B Z Z C n x V.r.n 0.L.v.*.0 Z C 0.0.n A.B e Z r.C 0.0.r.n B C Z w n Z T.+.Z A r.F C C B t C F Z r.C r.B Z C Z 0.B C C B 0.Z A A t e B n e n n A A e e Z 0.V 0.F Z C B C Z 0.N 0.0.B n Z 0.C n B n A n k F n +.n +.C n A C Z V n n n B B B B Z 0.0.0 Z A.0 r.N w A w 6 n 6 A n C N k k B B k B h e w p M N B p 6 6 7 w n n 6 n B B C Z Z A C A e n t B N l.) N Z 9 6 N M e M 8.M M B n C A n A n r.r.F N e N N M M m N Z N M 8.Z n N 8._ M N Z e M / Z C B k h h n C 8.l.M : M p e e M Z C N p M M p M Z / N ",
"n d A n B L.x.C A o.A B C o.o.A B C A A B B n B C B B o...B B A h e e e k n n n C n n h w V C w 0 n B h e k n e A e h 0 w B h B C h 0 0 < B 0 n n w j =.C n A 0 N N r.B v.@.0 6 o.* k * o.0 h n B x x B C n h x w e n C C B n n w w A u 0 w 4 e x *.h h B h n x k h n B n h e h n 0 0 e n n e w h k n h e e w 0 0 0 6 < < 0 e n w 7 w 0 2 w n e e w < 6 n n h h B C B n n A A n Z n w 0 0 w x C n x n A 0.A C C C C 0 n A n x * N n B B 6 0.e 6 n A w B k B 6 0 e e * n t B 6 w B A B k n w 6 7 Z B Z n Z e n w t C e e n n C w N 0.V w k N n n w e e e n V Z F B B B n t t n B 0 e e w w e e w n e 0 n n k Z n B t +.n w Z Z C t t k n B C Z Z e B C n B Z A 0.r.+.F N n n n V A 2.0.C C 0.2.A k h e t M N N M N e p B C 0.o.w Z A 0.0.r.r.Z Z r.n +.n t : p : N 8.M e 0./ n 8.M 9 9 e e n n 0 A n +.Z 0.l.M N p M M N N N M n M Z M p Z / N M N e e B e w V 0.n B A Z Z N p 6 D p 9 M N M p p Z Z N M N l.l.Z ",
"w 4 j w d x.o.x B A B n B A C x B o.q.o.B h n B x h B o.o.n h h Z A B B A A C B A B n w e r.F.C w B V e w A v.r.q.C q.o.q.V.B C C B A =.B t.e n L.A h v.[ C L.h n n +.w G.v.B 0 !.6 B w R.n h e x x B ..q.q.A B C Z t.V.V.t.A B *.e w 8 n t.C C q.L.C n o.o.q.C B o.v.G.m.v.v.v.A n k o.m.r.o.o.B A +.v.r.o.V B A o.0.o.Z +.q.r.N t C 0.C r.F.C e o.A n B e e A.A Z A n n V n w Z C C A Z C C C B u u C A C M C A t.C C n w C C F C B B 0 F.C e F m.B F B Z 0 e +.0.n A.C t $ w A +.C B C n w e r.Z 2.B 0.n B e B 0.B n B C Z 6 w Z N 2 6 e t e x w e C C e 0 e t B A Z C B n n w k B V V V V B C w * e n n 0.n n n 2.t 0 Z Z B n n n n e e w w 6 t n 0.w 6 r.w w n 6 n C t Z e 7 n n w w n n e w h B Z 2./ C p 6 9 N A n B C k N t n e e n e n 6 & n t n 7 Z e 6 N 9 : M p 8 Z N e p B B A C e n w e 0 e / p p e p N Z Z N M p : M m e M N M p ) 6 6 B +.+.C e e e e k w 6 e N F.M e Z / n 9 e N N p 9 p / N 9 ",
"w g C =.q.Z B n n 6 * 6 e 0 0 e B w e n e 0 e e w B A n h h h e n B n e h w 4 0 0 6 * C e n 6 w 0 e e 0 e n 0 & B A A h e h n h k 0 e A o.h 6 6 e 0 w n x 0 0 h n w 6 w h e 6 * B e w e k e 0 2 w h h e n o.A h n 0 4 e x h w 4 w e n n n n n n 0 B e 6 B B 6 < 0 h h n 0.A w 6 x x e e e n A Z B n e e 0 4 0 e B B w n 7 B e n n k e e e e e e w C Z k n 0.C 0 0.t 0 w n n e w 6 C 0.n e B C e n w B t F e B B V.B G.v.o.V 6 +.k k e A 2 L.0 A o.< B 0 Z B w k / N N C n e n q.B r.B n n B 0.B n * C e e B * n 1.n x n n A C 8 e A U B e w e w o.h e 6 B h B e k A Z n h A A n o.e 0 n B e w h w 6 n C e B r.A Z Z C n B A A B 6 0 6 e n e w C V m.A h A B 0 0 e o.V w k A B k B N C B n B C 0.B e t A Z n B 0.Z r.0.n k V N t B I.r.n C C n A n B e e Z Z C Z 6 n e 0 C C x M x M C C A *.C e e B C B C 0.A e 0 n Z Z n e B r.x x.w t.C *.t.M G.L.v H.U U U j.M M e C n L.v.V e V B e e e w t r.C w F e k w 0.",
"$.$.;.C.v.Z B B *.A B A o.A B n A n o.G.v.=.q...B o.q...o.t.q.A C q.q.o.=.A B A Z Z B F.F 0.B 0.C +.o.C A q.A h 0.v.r.A B V A B A A o.r.G.G.q.A A B A q.q.A A v.F.G.G.m.q.A o.v.C C C A Z Z Z +.B n n o.q.o.C B G.o.C o.v.v.o.A A.r.+.Z A C n h k A A Z v.q.n e w n n B Z A B A A A C n B C A Z *.Z Z *.U A 0.A.0.0.C r.Z A.Z 0.0.Z V B B C Z 0.e Z +.B B +.0.B B B B B C Z A C e B V n n B n w n B A k n n A B *.n A A A n w k n B h V B n n h A V h C V n e 0 9 e n C V n e h n V w w w w n 0 n * n w n 0.0 B C B C x * 4 n A n x e e x C n w k 6 0 6 B e n w < w h e w h n e o.n e n n e w e n e B n 6 7 n 0 w e e 0 6 0 0 6 n t w w n n e B h v.A 0 n o.B n k 0.Z h k n e e w w w e k n N C n 7 0 e e 0 w B 6 w e 0 w n n w w F C w k e 7 e n V k e B B t n 0 w 0 0 e w 6 8 n B B e w w w 0 w w 0 2 6 e n n V B B B t w n r.w w n e n C n e h n 0 n w 6 p n 9 6 # e * n e 6 0 w e e e n n e C B 7 w 6 w e n ",
"C x v ..o.n n A h n x x n B x 0 w 6 h A n n B h x B n h n A C e 4 h n h x e 0 h n n e V w 7 0 n 0 e e 0 0 e w 6 n B B k e e e e 0 h h 0 e A V w e 0 0 h h w e n n n n n e 0 0 e k n B V B C Z +.n e e A o.x w e V.A n B A C n h q.A n n B B n e 0 6 e B k e e 0 0 n n e e e n q.n x e e w e u x u e x M C M C *.B C e C n Z B C Z C C V C Z 0.r.e B C n e e B N 0 n C n e n n e n k e n C Z C n n r.0.n w Z 0.Z A C e B Z V V w h n k B R.0 G.B B L.e m.B B V 0 M n e e n A B h 0.Z e B A n A B r.w n e C m.w t U A 0.t.C C Z C n n n B U t.*.n Z n o.A A.A o.A e n A A A A o.q.A V n n n n n n 0.r.J.0.B 0.A.Z Z r.A.r.+.Z Z A Z Z e w V Z C C n J.q.w n v.A.0.C r.r.+.0.A V r.A V B C 0.m.r.0.r.Z Z r.r.Z C +.n Z 0.Z +.r.0.V C A.r.A 0.0.C V r.F.m.0.r.0.Z r.F.U *.V.0.A A A A t.V.t.0.t.A.A.Z V n n n B Z r.r.A C F A B C A.N w T.k 2.r.V A o.G.m.0.Z t / N / Z M A.N q.A A n e V Z n Z r.n F.A.r.n A 0.A.0.",
"x.C C v.V.o.o.G.x C C n B o.o.B B h n C x n A C o.*.A B B A B e B x.v.q.*.C B q.0.Z C Z B B B 0.C o.o.C B A Z A n B B B B n n n +.q.Z n B q.0.B q.A C A C B B o.B h e n A B w 2 V Z Z Z Z Z C N A B B ..o.C n n o.B h h B B B n n e 0 0 e n n n o.e n o.n k +.0.n +.Z B n h n q.n x x n n n n C n n n A A C C A F +.n C e Z C 0.6 w t n n n n n B Z 0.0.B e n Z w A 0.B n C C n C e w n C n n n w A n k * n n A e B 4 h B n +.w h 0 e h F.0 r.C 0 A w n e n n 0 Z B e 6 e A B 0 n w * e n e n e 0.w e 7 t C 6 6 e 6 w n n u w * & 0 x x e w w w B e B n A 0 h h w w k n k e n Z w k h 0 0 k B n 6 k n 0 6 n C n w k n n n k e w 6 w 6 $ 6 e w 0 0 B n 2 2 h n n e h e h n e e A B n n n B B n t w w t B B t 7 6 6 w e w e e w 6 e k e w w e w 6 6 e w 0 w 0 6 e Z 6 w C e 0 w 0 6 8 e n n C C C w 6 0 e w * * w e 0 w B n w w B t 7 A 7 k n t k 6 n A e n - n - 9 6 : C 0 e 0 e 0 * e n * 0 n * A n n * n w n 0 ",
"B w w n n 0 6 w < e h w e x x w h e x x w h B n h n n 0 0 w 0 < w B B h h w e B V e w w e e e k h n n h e h n k B B B C A A A A V h 0 0 0 e e e n e w w e w e h +.B n V o.A n e B C A Z 0.r.A t B o.A x n o.o.n n h e x A q.v.q.o.Z V B n n B A A w n A e e Z +.n Z A B C n e n B n n C C B B A A C A t.t.*.A Z Z 0.B Z n Z B A C +.r.r.0.Z Z F n B Z 0.B w e N w B C e t Z 0.C R.A.r.J.r.V B Z C F B 0.w C A I.C x.n A o.V G.V F.V r.A q.0.V r.n h q.e B o.A V Z Z Z A r.J.A 6 Z B 0 N F B Z V Z B N n V 0.C C C n B V w w B A V Z 0.Z B k n C q.B Z B o.e B A 0.o.o.o.A B A v.n Z Z n n o.q.Z C A.m.C N F 0.Z V n n C Z Z N n n 0.Z n C 0.Z Z q.A o.q.A C +.v.G.0.n B o.B n q.0.r.r.0.Z C C C B C A Z 0.2.Z B n B N C A 0.2.0.2.Z Z C V Z +.A e C V B C N n Z 0.w u *.n u B n r.Z C C Z Z Z C Z B Z A.r.n n Z Z Z 0.m.0.C A r.V m.n F n V +.A 0 n A n m.N z.t p e 9 / w n h B B e 0.r.w k Z w F.C F C F.n C B ",
"C v v C A B n h h A t.x.=...B n n C x.V.o.q.v.o.A q.t.o.A *.*.A h C A B C B B =.r.C C n +.C F C B B B n n n n n h e e h n n n B o.B h n B B B A B n n n B A o.o.B n k e 0 6 e n w t n B 0.A.0.n e C B 6 6 B A e B n n n A q.q.o.q.q.o.A B B C Z e 0 e n w 0 e h e n n n A B e e B x x C C x x B x e n C A C n n e B n F e B 0 w B N B e 6 * 0 e e e B C N n t n n B t 0 7 n n e e e n B e 6 6 k e w 0 n 0 0 w Z h x 0 e 0 2 w 6 k 2 e 6 * B * h e & V & e h 6 0 9 6 : 6 e n w * n t 6 e t 0 e 0 e k e 0 0 w w w V 7 0 e w w e e A e 2 - 6 6 0 7 n 6 w 6 h * e n V B n k e e n n e n h 0 0 e e 0 e Z C n B n t B Z n e B Z Z N n e C B k n n e n V 0 e o.B e n A A n 6 0 n n h A n B C B t e e n V C n w t C A B B B n n n N A Z C k n n w e C n e B n n B n e n B w w n n x n B A.C w w e n B B B e e B B e k A N A V e 0 0 e k e 2.* V w k A k e B n n A t m 6 e 9 6 B - e w e e w V C 7 e B w r.n n Z r.e e B ",
"x x h e h n h 0 h x B B x w e h 0 e C C h x n e e n n x B o.A h w n B B A B x B Z C 0.n Z n C n B n k n n n h e C n h n B B B A n B n h n o.o.A B n n n A o.*.o.0.o.o.Z B n V 0.n C Z Z 0.F.A.Z n ..A h h C A x A o.A C A q.*.A A V n n n n n n A v.q.Z 0.0.A o.n A C C 0.o.V Z A n B *.0.C B Z n n n C A C n n e V n F n B w e 2.m.r.A k e N 0.C C C A 0.r.+.C 0.F A B B B B C n C 0.r.Z C Z r.+.+.r.A F C 0.0.v.C A C B n e A n V n B k G.0.+.q.C +.q.G.v.Z A l.Z M n N A +.r.C 0.n B B n C e F.R.A.0.A A 0.A m.t e A +.A V t V e 7 e n n k t r.k n n o.e B o.C o.Z V A 0.o.B v.r.0.+.0.+.A B 0 n n n A n w Z m.Z B C Z A C C C Z B B Z C n Z q.e B q.A C 0.o.n B h n +.r.0.A.0.0.+.Z Z Z Z F Z +.V e e C N e Z C B B B B N C B w n B 0 w C n n C B B Z A n B B C n n C A B A C e 0 w n M A *.B e w e n n n C 0.A.0.e w B V e C A n C *.V.V.Z t.V.B U n 9 e e M M e N 0 C C B C C V V C Z A n B n e C n B n C ",
";.M.$.x x V n 6 o.B n n h e B V.A o.q.A e x C n e h e e B *.C 0 w n n B A n w 0 n n Z e n 6 e 0 Z B n B C B n e A n e n n n n B w B n 6 e o.o.e n n x x n A A B n e e n A B w 2 e V C k e B B k x x h h e e e e < 6 0 0 h A A n v.o.B n B B h w e A e * w e 0 h w h e 0 e w w n w 6 8 n B u u M C n n M C n e e e n 7 e * e w n 0 k N n w 0 e B n t w 0 e B n 6 e e e n B B A r.e B C B n e e w 0 e B * w 6 e * x $ 6 < 6 6 O e 6 Z e e h n q.0 e n * v.+.B n 0 p e e n n w 0 e 0 B w w w w n 0 V Z n e e k C k m w w q + O e F % 2 n +.A k e l 0.e e e V 6 e k 6 e h e k A B 0 n e w e n e 0 6 n C B C r.n 0 Z +.B e e e w w n B e 6 w B n t C +.k B C h V 0.k w n n h V V n C Z C n n n B n n C 0.+.B B C t * n n n B C A F 2.C k Z 2.t n F C C +.C Z A.m.Z +.n U n w C C x B w w e C Z C C A Z C B N C C N B C r.0.e n 0.C 2 u & C 0 *.x.C n ;.M.e *.w 8 u U M B e B w r.v.o.n n 0 6 n B w 6 0 n 0 e - N n C ",
"e n n w 0 n C C B x e h B A B x e V A n B o.A e h B A C B n n h n n B V C A C C o.B v.B n A e C A A q.G.R.h +.+.x A A h x A C e n n A v.v.o.A q.R.+.h e 0.k q.C h n A e v.V V k B R.C h q...n x r.n h o.r.C h h o.n n B V n V q.r.r.F.A V v.A B A +.v.h e Z n w B A Z A A A B n A B n k A v.m.q.A A 0.r.v.r.Z B M A Z A B C 1.H.V B n n B A C n Z A B h n A A n C C C ......=.C.t.A B C M n C t.F.r.v.o.n q.v.w B r.e k k B 6 n Z e C A 2.r.e w G.Z Z k n q.A Z n V r.G.q.n n A B n n n B C B n V Z Z F w +.w n t Z V e B A C C o.Z C B B A +.+.o.0.n n +.n 0 V 2.n Z 0.n B V 6 n A 0.Z Z q.r.0.V w B o.h n A n 0.r.B 0 B 0 r.e Z Z C C C e 7 n 7 n B n n Z 2.+.k n w e r.Z e Z 6 w w w w e C r.F.n N C * Z n C e C 6 A R.n w 6 6 B V 0.e t I.n e p 9 A e C n +.0.C e 6 6 e C r.C n e w n N N M w B M n n ..C e o.Z C n V 0.0.C A A n e A F.F./ N C N n w w n Z C B k k n n w 0 t C 0.C 0 r.e B t * V * n B n n ",
"B C n e e n B h A B h n C ..A B h B A B B A A B w n B n h e e w 0 e h n n n h e h 0 C n k B 6 w 0 e n B o.6 B n e n B n h n n h h e h B A B n C k n B h B * n h B B e * h k B A e A x 6 x B 6 6 B 0 < 0 e e e h 0 0 e n n k k n e e n 0 0 B e w 6 e Z n e n < & e k n n k h w 6 B n h w w e e w e e e e e h e e 0 w e e 0 6 0 e V C V n k k n n k n h w e n n h e e e h h e h B n n B C C e w e n e n n 0 k n * e n 6 e 0 n 0 n e w e 6 e C w 6 h w k 6 6 e 0 e k e e e 0 6 0 k e e e e w w w w e w B B n A e N k n w 0 n n w 0 h k n k n n B V e w 0 e n e 0 n r.B A r.0.A.R.0.w 0 2 2 e B B e A h C o.h h A B Z 0.C k Z e r.n e n e t B e e C t C A B B A Z V B C n n r.A n Z w e e e w e B A r.n N C 0 N C C N r.Z 0.0.n C 0.o.+.C C B N l.Z N Z N / V A C 0.V C Z 0.0.C e 6 e h B 0.J.F.8.Z U Z Z 0.t.q.o.o.A.o.C C V n e n V n n B Z / / 8./ / Z C B B V A n B B C Z 2.A.J.r.e B J.C C - 0.0.e Z 0 C C n w ",
"A A n e h B n e o.C n n A o...C C A o.o.Z o.q.v.n A Z A V A C B B B C A A A A A A n o.A A +.n B n C Z C q.e q.V C A A C B B A o.x.q.*.q.x.q.q.v.o.m.G.0.m.n m.A V q.B B C q.A +.t.o.L.A *.P.A A 0.A B n B A o.0.C o.0.0.q.r.r.+.0.o.m.A o.L.0.o.o.A v.A B A n A 0.r.q.o.A Z A B A +.0.A C Z +.+.r.0.A C A o.0.q.M Z t.t.Z C C A V A Z B e e k C n n n n n C A V A B B C B n n C C C Z 0.*.C n x n h C +.C V V e A V k o.e A n k n B Z e n A.A e A A A.A B Z B A A.0.A C C C Z q.B V Z 0.C e n Z 0.n 0.A 0.C e B F C e n 2.Z e w 0 e h n h k n B V e n 0.o.A Z A A e w e e B C e o.A n n V q.q.o.A B A o.k e B B n C C n C w C e e n e e n e e C 6 e n e k V C B n B e e B t w n n n n n e e t n n e e e w 6 A n t t Z n 0 e n C 0.n e w N Z e M N p N M C h B V B e 0 w n Z +.F r.A k 0 6 9 p M M w w B C h h B r.n n Z Z e e C n e n Z C e n / / Z N C C A B n 2 0 e n k e n B n $ * Z C e * A 0.n B 6 n B w * ",
"0 e w 6 6 e h 0 h e w e x x e 0 6 6 w e 0 6 0 n e e w w h n n e h e 0 0 0 w h n n h e 0 6 0 e n h B B e n 6 B w B h e e 0 0 e n n n x h w 0 e h A n 6 * n w B * 6 B w n e A w h B < o.e e t.0 e w h h w 0 0 0 6 n B n 0 0 h n e n h V e h C e e e 2 w 6 * < * k h e 0 * * 6 0 w 6 w e e e n n n h e 0 0 w e e e w x C C B n B C C A A A n h B 0.h k h e h n B B B n n B n h h n n x e h x n n n h e B o.A B n n B h e o.0 B n w 0 w C B C r.n e B B q.B k B e n k k n n n n k k e e N 0.C w w B A.e Z n 0.w 6 w C e 6 e 0.A e n 6 6 0 w 0 0 e n h * w C h e h 0 m.Z C N B B B n n C Z n w 0 h C V B A A n e n A B Z Z C B e n e 0.r.Z V C B n Z 0 k n e e C +.Z B C B B B n n B C A Z A C N V V B C B t V 2 m.A r.k m.C n T.r.C C w n n A.l.: B N p Z n 0.n Z A Z A C C C C n e n V Z Z Z Z Z / U M n C A A A o.+.V C r.m.Z Z m.A A +.r.0.N N / Z Z C A Z o.Z A t C 0.r.Z n w 0 B n B Z F r.C V +.C N k V C n w ",
"h A o.B n C o...C C A o.o...B h h n V A B h n A A B k n +.G.m.o.A V B n n B C A +.q.A B h e B o.A 0.0.B 0.n v.B H.t.q.x.v.=.A A *.v.C.=.C B o.v.F.q.n e r.A q.0 A m.B A n r.A m.t.e G.A B R.B o.o.r.v.o.A C B n v.G.v.A A q.v.+.A B q.C C +.n B n w A o.A B w V B V B h h B C C o.0.+.o.o.0.o.B n n B V A C B n w e n n n n C A o.V B V V n B Z o.V n n n B C A h e h n n e e n B n e w e n B n k n n B V k h B k w e +.e o.o.B 0 * e B C V w n o.C q.B n A e h 6 e n B n n n n w w t A C e 6 6 r.w C k r.n n Z B n 7 e A N n +.B n n n n h n Z B 0 n +.n h n w t n n n n k e n h B o.A e 0 e n n n n n n h n o.w w e e 6 6 * 0 k N e 0 w 0 0 e w e w * * 0 e w e e e e 7 e n n e e e e t p e e n C e 6 n $ A B A 0 C e 0 r.A n e 6 h n 2.N @ p n 9 M e A e n h e t k e 0 6 0 w 6 w k n p p M N u p u w e n B h n B B n n n e w h n B k p M n e 9 9 e e w e n n 0 w n B B n w 0 w B n w k V B * e n e e e e e 0 ",
"w B A n e h n n h h n n B x e 0 w h n n k e e h h e 6 6 h A A n e e k n n k e e k A n B h 6 h e 0 e e w V 0 Z n x n A o.o.B w < h C ..B x n C o.B V A C 0.0 B h 0 B h h h B e B C e C e n *.h B V B n k h h k n n B C V C A A B e e A n h n e n V e n n n B e A w h n n B B n h n n n h h n e 0 h h n B B B k e 0.0.*.A A Z 0.V.+.n h B C n k n v.A B B C C C A n k n V B n n V C A C V A A V t C o.B n A B n C A A B r.B v.+.o.B 6 e B V n e r.r.o.m.A A q.B V n A +.o.A A +.0.V B C Z Z V w * Z w C n Z A C r.Z Z B n C N N r.o.B n B B n V 0.+.B A A.r.o.Z A n Z Z A 0.Z B Z A B B o.q.o.B n h n e e B n n +.C B C F B 0.n 0.B +.A B C Z A 0.C F A n k C 0.0.A B C C B +.A.0.0.+.Z 0.r.A.r.0.0.A.Z n Z n Z r.0.C 0.B e Z r.J.q.Z r.r.r.Z p 8.l./ 8.0.m.A A C n B B n k N r.R.v.q.A n e p N / A 1./ B C v.v.A r.A.r.+.0.m.0.B o.r.o.B A l.8.N N N Z A C Z q.v.n n n B C A Z Z C C B C A.A m.C B r.C r.C A Z V ",
"..G.L.v.*.q.v.=.v.v.v.v.v.t.*.o.n A A B B Z o.B B V B k k B o.0.A A A A A A A A A r.n o.+.B o.k k h k V G.n A.r.e A q.o.B B n e e n B n n n n h e n A o.o.* B 0.e A q.A v.Z C B A A x e A A x o.n e e n n e e n n k n C A B B B e h 0.A n n e V r.n n 0 e C B 0.e k n n n B n h e h k e e e e e V B n n B B B B B n x e w w e n A h e B A n h n V e 0 e n k e 0 e e f k k e e k t n n n B V k 6 n o.n 0 B V e h A q.k B h B w k k 6 e e e n e 0.6 6 B e w h 6 0 w h h e e k h e n B n e n B e * w 7 k k w n 6 e n Z B e n n k B h 6 < 0 e w w h w 0 6 e n e 6 e 0 k 0 0 V n 6 w w 2 < e n k 0 6 n B e w A B n +.w 2 0 k 0 N * k 6 k e 0 w e w e * 0 w 6 6 e n t 0 * - 6 * e C w B k w e n n e w w n w 6 7 e * e n B 0 0 e 7 n C e e w k 6 # e p p e 9 n w w < < + 6 e t w 6 % O & 2 e C A N p e p p p u n B B n n w 0 w n B k w k e 0 6 7 t p e 6 6 7 w e e e w 6 0 w w w 7 e t e 7 6 e F 0 F B * n * n 0 w e 6 ",
"4 e h w 0 e e 6 n h e e w w w 0 0 h e 6 6 n B e e B V e 6 0 n A A n e 0 6 e n C B B * 0 k e B 6 e 6 0 n r.w A A 0 A o.e < w B C B C B n B A x 4 k w e n V & V G.B C A 6 B e A 0.o.G.h e t.A B v.B e n 0.r.B e n v.A B A A B A r.k n v.A h e 6 n V h n h B +.n k n n h 0 0 h n n B o.+.V h k n V A B h e e n B V Z Z A C C M C A B e h A +.B n A 0.n k A r.0.B h k k n m n k f k m V N n A 2.F n B A.A e o.v.B n Z G.n B B o.e Z e e F B n Z C 0.0 k G.q.A o.B Z A 0.q.q.v.A.o.k e C B w e Z Z e w B Z 0.n r.e V C r.0.B Z 0.Z C A e e V 0.A V A A o.B C v.A e A n V w e A.A.V C V V Z r.0.B B A n V w w Z C k +.0.B C m.A T.e +.Z F.r.A Z A B B B 0.0.C N Z Z N 0.n N C B m.!.0.r.+.C V A Z C n 0.A.r.r.r.Q.e A.C Z * n F.C B e A +.A J.C p R.8./ 0.B A.A r.n C B n e w w n V A Z Z A C N M M p U n n Z *.C B o.F.B e Z m.Z V C F.o.V Z 0.D 8.R.Z N N F m.v.Z n 6 n 0.r.Z N C A B A n w C 6 Z w n m.e A.0.J.F.+.",
"B V Z 0.q.o.C n A 0.q.A V A 0.q.+.o.Z A o.+.Z V V B n A T.h m.Z A q.0 q.h B r.C V k C A +.B < n B r.V A A e h n n C n x *.H.C * G.B 0 0 n B h 0 B h C B 0 e C e 0 o.C q.h n 0 A < n n k V h 0 B k A B h n h n +.0 A 0.o.+.A n B v.Z 0 0 B w * k w h B e r.e 0 h 0 6 w B C e 0 0 k w w n w Z 7 e n w e 0 w n 0 0 C e e Z A e w B n w +.e A e 0 6 e e 6 0 n e L.n e e e e w 6 0 h 0 < e 0.C < < B B B n k e e e h n e e n B n 0 * 0 0 * $ 0 O A n C w w e e n n 0 n w n 0 B 0 n e B w n 6 6 n 6 e + B * 6 B e e 6 0 0 7 0.e B w 0 e w w n n n B Z k f e w w 0 w w w * e A k e n e B e 6 6 w n e 6 B e w e e w w e 0 e e e w w e n n n n e w 7 w w e e w 7 6 7 w w e w 0 4 0 e x x M U U p 8 8 u n e e i p M N i : w 0 w V V e n 0.e n n e k n k w w w n F A e 7 e C w 6 w k w 0 w h * n B Z w N Z Z # M A 0 +.6 v.w n 0 n 6 n w e C e * B e C w B V 7 n e w V n e - 6 e n n e e k 0 0 e n 6 Z 6 N w - O n e B w B ",
"h n n B B n e 0 6 w e 0 6 0 e e n n e e h n n h n e 0 k V 0 k h e e 6 n 0 h A n e 0 e e h e * n h A e h B n Z q.A A C A V.L.*.e A.A n V Z A n n o.C q.o.x B q.B n q.o.q.o.o.B r.J.q.h e A q.o.o.A 0.A B A A A r.h o.o.C A B h n w G.G.B V A n B A A A V q.n h n B n B A o.C n n Z n e V B A.n B A n B e n Z k n Z e e Z Z n n 0.C n 0.B o.o.B B V k n h A B L.A A o.A n n A A B C A q.A.m.q.r.G.e h n A A A Z q.J.v.r.r.q.A n e n n n Z r.N 0.Z 0.Z A Z R.r.F.Z A.Z 0.B r.C 2.F V e C e k F n C n r.B C 0.Z m.A r.B n Z n A C C B n B A Z A Z 0.r.+.A A A A A V V n A v.q.A +.A 0.Z C C Z 0.A k C B B Z Z B e e B V Z 0.2.0.C n B B n n B C Z 0.V n k t k V +.r.6 e A r.H.H.U n A U K n e u n n n n p B A F Z C C B V +.Z C C 0.V C V N A r.2.A B V V N B A A A F.r.A C V B C Z A.k V B 0.M Z M M 9 n Z B 0.V B N F A J.Z 0.B C B B e 0.B +.C r.n w A C N 0.V n Z n k N 2.2.+.A C C +.0.n r.e Z C t 6 Z C 0.N 0.",
"B C A o.A B n k h B A B n B A A n k e e k n B B A k n V n A e A n 6 n e e n B n n e h 0 e h 0 q.e B 6 0 n h B V 0 w 0 h B B h w n 0 w B B e 0 e h e x h 0 e n w h n k w B h e k w 6 w e 0 e B B n n w 0 k n e n w n h 0 e e 6 0 O A q.e w n e 0 A k e B e k e e e e e 0 w e e 0 n 0 * 0 7 0.7 w n w e w e B w e n 6 6 e k 6 w V w 6 w e w A e B h < n 6 h n B e n C n 6 0 B B 0 * 0 0 2 0 B B e e e n C V k h B +.Z C n h e w 0 6 * 0 C V B 6 w w n * 2 0.e N e C e w * w 0 e w n e B e e C e e 0 e 0 w 6 6 n 0 r.e w 0 w e A N 6 6 w n n n t n V n k k n n k h 0 e w e n e 0 e n B C V N V k 7 n n k n n e w w B n n N +.Z n w V n w w e t n n w e e t k k t e e n C A A A B w C C n e e x n e B e w e e w e B e e e e k n e e n k w w n A A n e n k 6 7 n V t V C B e w e n n q.h B w t 6 n 6 e e 9 w e e B & e n n 0.n e 0 e 6 e e B w e e B k 6 V n e B k n C t 7 w k n n n k e n B w B 0 n e 7 * n t B e n ",
"h n B V B B n n 0 e h e w e e e h e e h n n n B n w h V e r.0 A B * C 2 e e w 0 h e e 6 0 e 0 q.n 0.n B o.B B e n x B o.q...A o.o.n B v.G.A B o.B B C B n C A B q.A A e v.V A B e 0 B A 0 w A B A o.B n Z o.Z v.B +.A V 0.0.A A q.+.B k C o.V h m.V k v.h q.0.Z B A B h k C C k 0.n w n n J.B C r.V Z C A 0.B Z 0.n n Z Z n n 2.B n h B e A.B r.A 0 q.e B o.C n V A B e e B C n n n k e B v.0.h r.+.0.v.0.B n V n n n k h h n k 2.e n r.C A.7 F Z R.6 e r.C Z Z A.+.B k C Z F C B B N n B Z N n Z V Z F e e A k r.e n 0 B k 2.C 0 w k B C N B n k k k k e e e e 6 k 0 6 n e 2 e n C +.Z C C B n A B t e t n n B Z B k n V C B n +.V k t n B B n e e e e e e e e Z A B e e n B n A A C B B B B B o.B B  .V e f A e k k t n A C n F n w w n A V k k N n k n V k 0 6 n B n k B n w C B r.n e 6 N e Z e M 0 n h 0.h B t e B e 0 7 B e B N N e e e t 2.n Z n 7 t n F n n N n e 6 e V e e n n n C n C n e w n n B n n ",
"k n V V B n n n e h k e w e e w < * 2 0 w 0 0 e n w n A h v.0 B A < o.0 h h w 0 B n B e k n e 0.0 B w e n e w * w e k B B n n A B w w C o.B x n h n x e h n n x B h e * A h n e G.h 6 < $ < w * w n h w h h n o.6 k h e B n e w o.n 0 6 e B n 6 B 0 2 B * n n h e n k w w k h 6 B e 0 w 0 Z w B B w k e e e 6 e e 6 6 B B w 7 B n e 6 e 2 A 0 n n * V 6 e n e 0 w 6 6 0 6 * 6 k n e 0 e n B e 6 +.o.o.o.A V C Z e n V B B A Z C A 6 6 e 6 B + n w m.O e w B 6 n n n w w e B n 7 e n e t B C A n B w C C w w t w Z w N n F n F n n B C Z A C B n h n V n h e h n n A k e A V e B n Z 0.Z C C A A n k w w w n B B B n n k t n n n e e w k C 0.F Z k e 6 2 6 e C 0.e n n n n B B n e h k k f q f k h e n @.o.k h  .B B B n C Z A n +.n w e n V n k n e t V A n w w w n V B C Z N w C n +.n N p Z w Z @ Z w V A A L.C n B B B e n Z n n B B C N V B F e V t 2 6 e V e k C A n w e n e n n B A C F Z B B B n C C C n ",
"A o.+.A B n n n C A C n n B B B o.A o.v.m.q.r.L.B n B A n Z e n B 0 B h k n h 0 A A A n B A e A q.R.Z B V n B e k n V V n n A o...C C C ;.$.C C o.v.o.B q.q.A o.o.o.C n v.0.+.0.L.r.o.A n n B h n Z A n B B C A.e A o.A 0.A h e h Z r.B h v.F.n q.A B +.n V C A o.+.o.A A Z C n 0.C B C t r.B 0.2.n A C V V e C B w k 0.r.C C m.q.B B B n q.n V q.n v.V q.r.m.A A n A r.o.h B L.+.k e V Z n e h n V B h e n n k e B C B C o.A n Z B n C B A e n 0 C 6 C n r.0 N e n e n e Z n w n B 6 6 0 0 e 6 Z n 0.0.C Z C Z B e V C C n n w B V B n e e w 0 e n V n h e h n B V k w n B n n e B C n k n B B w e t t n B n e 0 e n B n e e e 0 0 w t N A C N e e k n n n n n e n B n k n n t 7 w e k e 7 e n 0 0 k C B w 0 w B n n n n t e w N e 7 e n B k e t 6 6 t n w w n B B n t n B n e q.w e w F N N # N X Z n n V 6 q.n k C n Z n B n B 0 w e 0.C 0.0.n 6 n n 7 7 6 k w 6 6 t C N e 6 e e e e C e C e e k B w B n B w ",
"n B B n w 6 6 0 e e 0 6 6 w e e w 6 6 w w 6 e V n n e w n w n w w w 6 n 0 0 w * B n n 0 h B 6 e e o.e 2 2 * * $ 6 h k w 6 w h e w x x x x x x w h C h w n n w h n Z n B B C k C * n A A B e w n h n h w e e e B 6 n V B B k 0 0 * w A n 6 B r.n n B A n A e h V B h e e e w 0 w B w 6 w 6 C 6 e B 6 e e e e 0 B k 6 0 B V e e A B 0 n 0 n B e w n e n e C n v.h e e n A B k B 0.B e w n n e e n B m.m.B n o.o.h B o.o.A A q.A e k C C B Z B Z e 0 * V w e A w Z 6 t 0 e 0 C t w r.m.w w e w B 7 Z n C n C Z w Z C n B 0.n B C C C Z C n k B B n V V V A A V V n A n k h e V A n B Z Z C B B B B V Z Z Z F 0.Z B e B Z Z C V C A Z A C C C C B B B A r.m.m.F B t 2.r.Z n t n V A C B C 0.2.F F 0.C A Z Z N n p e Z C C Z C n k B A n n A +.A n n n k k n n n C +.C N B B n k n B F.h n B A.Z / e / 9 N A e A e B N N 0.k 0.A +.e A.e e t r.n +.A.2.k +.0.N n t C A e w n +.0.V t B C n n 0.e 0.e n B 0.e Z C F e ",
"V A A B k e h n o.o.C B V 0.v.v.0.B n V B n o.T.o.q.B h 0.h L.A Z m.k F.B B A w m.q.+.n o.m.n A 0 q.A V A B A k A m.m.V n +.r. .w $.M...C C C x x o.x 0 B B e x v.!.r.J.A q.n q.B A h e 0.o.n A v.v.A B A A B A e o.r.+.q.Z B A Z 0 n v.A A m.A.n o.v.B L.B A m.o.n e n n e e n +.n 7 t e r.w e B 7 n n B B e 0.Z e e V V w e C o.e o.h v.+.A n e h w e V e G.e w h n n B A A C B n n n k n B o.0 +.r.k h q.q.e h n k w e B h < 6 N B e A w m.e C O J.$ e n B A.6 n w n 0 Z n k B C * * 0 w Z n 0.B B 0 B B * V 0 6 * e $ w k Z e n e w w B C C n f q e n n h 0 V q e w 2 k A e n C C B t e e w n n e w w e e 0 w e e w w e n C C V n e w w w e n k w 7 7 e B A 6 e e w 7 e t e e 6 6 t m p i t p M p e e a M a C n B Z C e e A k e e n n w 2 - 2 e k w 6 e k e 6 6 e n e * - w B 2 k n B : M Z 9 e @ 7 * B A k n n n $ e e B 2 J.0 6 6 n O 6 e r.w n k 6 6 2 e Z B k k n k k n e n e e Z 0 Z w w e Z 0 B n A w ",
"n e 0 e h e 0 0 w k n h e n n e 0 e B o.h % * h B h f e 0 6 e B e n V B h 0 * * * h h e n * C e n B A w 6 n w e k k n k e e e k A x w 0 e 0 0 w 0 V B e 6 Z * Z 0 n e t Z C n r.0 n n 0 0 n V B Z h k k B k 6 o.6 h w Z r.h n C k 0 0 h n h e n A k e e e w C L.A.N w w w w e C B w e t 0 w C Z C e w t B n n n q.C A A w r.e +.A 0 G.A G.C e A B n w k A n 0 w h B n e B m.q.h e o.G.n h A e h v.k w h k B A B B B B C Z +.0.0.A A w B w C e n B C C B B B B B n A k n r.A e A + w C n e +.r.e B A V e q.< 6 L.A V q.A w n o.e w k V C Z +.F V 0 C r.r.r.F.0.n Z n e n n k V r.+.0.V A A.7 r.B C Z F 0.A.F.2.B B C V.*.Z t.n n e A n C n Z e x Z C !.0.A.0.Z Z r.B e n C Z Z Z C C A +.Z A Z 0.A n e n n e B 2.F C C F r.0.0.0.m.Z B B B N Z 0.Z B C w 0.C Z 7 n F.e A.n Z R.B o.n r.n A M M / / / p n m.r.Z L.B n 0.e t A.Z 0.e F.0.n 2.0.C J.A A V n N C A V k e k A 2.F A +.r.A A 0.r./ / / Z N N A r.J.0.n ",
"C Z o.Z r.L.G.+.0.r.r.o.A 0.q.o.C o.v.G.o.n B q.A  .A B n n A o.+.0.+.A n h e e e B A V A h o.Z A B q.0 w n h h w e B +.q.o.A +...C A q.m.r.+. .0 B C C B m.w 2.n A n t A B e 0.0 n A B n C B e A B A n A A 0 n 0 C h n A k B n e e n B B h e h B e 0 w 0 < < 0 n e e k k e n C w 6 7 t n A 0.C e e e B B k t B B n n n e B e B B n q.B C B n n n C n 0 e n e e h n n e n A A h < e V 0 0 e * < q.n h k k V o.B w e n n n B C Z n n 0 e 2 e 6 0 * 0 e e 0 0 0 w k n w 0 n e 6 n w k A n w n n 2 w n n < A 6 6 n k 6 e e 2 w n w e k t w w e e 7 6 e k e w e 7 * 6 * 0 e e 0 0 n w 6 0 e w k w B 0 w 0 * * 6 0 6 6 ; e 0 6 0 * 0 w B w e 0 n 0 e w * B 0 B n e t B w 6 0 e e e e w w e t e w w e n e w t e w e C 0 - 6 7 e e w e 0 0 w n n 7 * + 0 0 e 0 e w 0 * * n 6 e * * n * h 2 n - w : : e 6 6 6 e C B h n 0 0 N 0 0 B 0 6 $ e 0 0 0.A 6 0 6 7 w 0 2 6 e N e w e B A n e e h e n V M e 6 9 : e p e 7 w k n ",
"6 h k 0 e C n 6 n B B n n n k e h n A C n k n C 0 k n q 0 f n n B B n n h e e e 0 0 h h 6 h w B n w Z * e 0 k e e w k +. .k e n h e x A o.A V V 6 0 w t n C 6 B Z Z n n C B n Z k Z r.0.+.0.A n e n A h A m.B B e r.B h n n A k e B +.o.A B n h r.o.C C A C n h w n N n n B A Z k w e n C m.r.e 6 w B C n e e V B C B n C h A n B m.A B e B V e e r.0.e n C B e A A A C V V A A V V o.B A o.h A k h k e e V +.n e B Z +.C B B C +.r.Z 0.B Z B C h C r.r.o.A Z q.q.+.n k V n k A A N A A N A +.n n 0.+.e G.o.B k A k n n k n o.V r.r.F N n N N n C A C B n t n B Z A 0.A.r.C B C C t C 0.n R.n I.0.m.r.C k n C 0.0.M 0.Z C C n V.C V.C C n *.n A 0.n 0.B m.m.r.r.C n n B V B B C +.Z +.0.Z C N Z Z C A 0.Z N C 0.Z C C Z 0.F 0.0.Z A A 0.0.C n e A F N N n Z Z 0.n V r.A B n 0.B v.V A.B / N N / M p Z A.A.v.v.0.+.Z r.B n +.N C B F B C F.r.N r.N t e k k t N r.+.N k k n n N A 0.+.o.C n e e M Z M p e B +.+.A ",
"n A Z C A +.C e e h B C A B e 0 e n B n n B B n 0 B A k f V  .B e n B A A C B n k e n n 2 V 6 A B w r.* C h o.Z q.n n +.A e e A A n x x k k n A C n t B C C n C n e w e n n n B B C V n n B V B < 6 e 6 h B e C 0 A e w e w h w e C +.A A Z V h V n e e e n n e e B n 0 0 e n k e e e w e +.Z 6 - 7 k k w 0 w n n C k e A 6 0.n h r.0 B 6 w k 0 6 V A B C C e 0 0.B n B B h k B A h h e B A k v.* 0 e w 6 B o.k 0 e B C B e 0 6 0 e e t w w 7 e 6 w n n n e e n n n e w e w 6 6 e 2 6 e w e n t w k n 6 o.n e 6 e k k w 2 w e 2 t k t e e t k t e e k n e 7 e B B e w e t e e k w 0 e e 0 B 6 t n C +.C n e n B n 0 n x w 8 0 Z B t.n C n U x C n 0 B 0 n n e t e w e k t w w e n e e k e 0 6 7 n k n A C n t B B n n n n e e n n e 0 w w w w e 0 e 6 e 6 B e B 0 * C w k e B e n 6 B 6 t 9 9 p 6 # 9 M w h A n 6 w e 0 0 e 7 0 0 t e e e * 6 0.r.k 6 t C V n V n t w w e t n N Z Z Z C n e e e Z p 6 6 n o.A h ",
"0 6 0 n B h e h n n B A o.A B n e n V V A A V k f  .q.V C @.r. .k n B B C V B n A n V A 0 A 6 A n 6 0.* B e A C V e e A V e h +.x.*.C n h e n +.Z B B Z 0.A o.V Z B B 0.r.2.0.Z v.q.Z B B Z q.q.B n 0.+.0.B w q.n A k A +.h n A h n n k B o.C e o.A A B n n n n r.r.A n n Z C e n n B n n r.T.F Z Z Z C B V A +.q.v.A B r.e F.o.A m.e A.B k V C n C C 0.F.r.B B L.Z n A +.A B A v.B B B r.r.B G.B o.m.q.A G.R.r.m.r.r.m.A.m.0.A C Z 0.F Z C C A A B B A o.A A Z V V V A V n h 6 r.B V F N n V N A B A n v.n B V w m.G.k e V V w e k N V A +.F C e e B Z A n n V 0.B e n 0.m.m.r.C +.Z C r.e F t B C F 0.F A A Z A e C C B n e r.w C e B k C w n C n r.n Z B B C Z Z 0.0.Z B n B 0.+.+.0.Z B n V e w e V B e e n 0.A C C C n n V C B B A Z N n n e B n A.+.A.B n C w 0.B 0.+.r.B A w A e A M M Z M e Z 0.B Z v.A w B F m.m.F N w e C 2.A.+.e w Z A e w n V n k n w e k n N N k e e k B A A M 0 # 6 e e 0 6 6 w e ",
"B e h 0.q.n n Z B e 0 0 e h n B w e n C A C n h e B  .B n C A B A B h e e h h k B h n B e e 6 n n 6 A < k 0 e h 0 2 0 n n 0 0 k C C A A n h k A 0 0 e n C n 0.0 e 2 6 e e e w * n h e w w w w w 2 * h B B 6 O e 6 w * h n < 6 h V n h n A q.Z n 0 0 e B B e 0 e e e w w e n 0 * * * 6 * O 6 e w t e 0 * * 6 w w h h 0 6 w < e 0 e e 2 B e 2 6 e e 0 * 0 n e 0 e Z e 6 e n h w 0 n e n n A B 2 h e e n k w n B w Z n w w n N N B t e B e n w e w n w 6 e n e e h e w k n w e w O n e n N e w t e B w h w n 2 h n O V A 6 w n e 2 0 e k k n B n t * 6 w t t e 0 6 N t w t C Z B e k C n e Z 6 0.w n e w e n n n B n w n k k k w V 7 V k V n +.k N e 0 Z w n e k B C C C C n w 0 7 V B N V n e e n V B V +.+.N V 0.e w w e w 0 w t N e 0 0 0 6 0 w B e 0 n e n w w C e n n B n C 0 n < n 6 n p p M e e M N n B B e A 0.B V B e B t Z B n B B n n n e n A A n k V F F A n t k N A A B n k e n N M e p p e e e n n e ",
"n h n C C n n B A k w e n n B C n n B q.v.o.o.q.n C A V B B B V v.+.V n B V A A B n n B A 0 n n A n 0.B C C B o.B n n V n k k n n C *.q.A n V +.e t B e n e T.w A.n B 0.A Z Z e G.r.o.o.Z A B B B n A A r.q.k 0.A m.C o.r.V +.r.o.B n C o.o.A C A e n v.J.A B o.0.C C +.2.0.C B V n C C e k B n Z Z B e w B A A q.o.+.o.B +.n A q.C r.C A C V +.0.r.C n Z 0.Z 0.G.r.o.q.v.r.0.o.A A q.A r.r.n A o.V A o.V A o.B C B n B N C B n w 6 e 6 n 0 e 0 e 0 0 n n e e n A n V A h V  .e e k F 2.V A 0.A q.C 0.n C n r.A e  .V n @.r.n n 0.2.F V N A A A B C A C Z r.Z n B B B B B B e 6 N C n e k n F C Z B k n n t n A A k N t n A n C - k 7 k t Z k C n 7 C 7 B n B C 0.Z Z 0.0.C B N B B B C B k k B n e n V V n B +.n t k n e e e B F n w 0 0 0 w n Z n t w n w n C C Z w +.n k Z w C 0 B w C M M N M Z M t V A n e F.J.e e w 6 N B A.A k w w N 0.C w n n e w k n k C n 7 * - e C A B n w * - e N N B e : 6 n o.B 0 ",
"6 w h h n A o.o.B e e B A n h e h w e Z +.B A m.f f j k f 0 0 h n k h n B B n n e e 0 h Z & n w 0 6 h h h B e A n n e w 6 e n V w h n n e 0 e V B C n * * 6 !.e Z 6 0 n e n n 6 o.n e 0 6 6 2 6 C n e & 6 B 0 e w o.e 6 w w n h V k k C A n h B v.w < n A 0 < e n 0 6 0 0 6 0 e w 6 e V n e k e w w 0 * * 6 e e k e n B 6 A % 0 e 6 A O 2 w 6 0 0 C B 6 w k e w w e e w w e w 0 e e k 6 e B h Z k 6 0 n h h n k e n Z 0.Z n 0 * w 2 w 6 C k C n e w k Z Z n n A V e f w * e A w * w A A t n V k B n A 6 e n q.0 k e < w q.B 6 k C B w * * 6 w e n B n w n r.0.n e n B B n B B V r.Z C k 6 A.N J.A N B N n w e B N e t 6 w V k n 7 N e m n s.A m.A w B - n n B V w 0 w k B n n B N B V A C n B C B n n B V n C r.Z C C C n t n C B B C 0.0.C n n w w r.r.R.B A N n 2.6 m.k e 0.n Z e A w A B B C 8.F.B 0 B A n A Z r.n Z C 0 n 0 e n C n 0 n Z B r.+.k 6 n m.Z 6 6 e n n V +.Z n w B Z C N C C M u p p e e B A o.",
"k n B B Z 0.B 0 r.o.w B e +.B V e B A B V +.A k k B A A B n h e A A V G.0.n A h C n e V +.n n J.B B Z B q.J.Z v.q.A r.B A e A A e A 0.A k e k n k n r.B A e A A B n A r.Z e e B V o.m.F.r.V n n +.n A v.A n n B C Z C V Z C A A.r.0.o.Z Z A n h e +.V G.v.n A h m.G.0 m.A C o.A n A A V k n A 0.n N V n n V V B n B n n h h k n h A Z n k B A B V o.A B B o.A n A B A v.+.n V G.0.e 0 B F N e e Z Z Z Z Z Z N n V n n V B n V q.e k k e k B n 0 * A e r.k t n 7 w e k 6 e A k A e Z *.Z Z N n A C e n 0.A 0 6 B e 6 6 e B C V B 9 e p e e e e e e V B Z 6 A C B 7 w e n B N C N t n n e 0 w C m.C 6 w e n n e +.6 w e Z 6 n n V e 0 Z * n B e n B A B 0 0 n C B * w +.B e B e B n w n n e w 2 e w t 6 k * e 0 e n 6 C N * e B 0 e n w w n t w t e 6 n n e B n n w 0 N n n n 0 n * B k B * n 0 6 k Z t e e t V w V 6 e 6 - t e t Z N p e e e n B k n n n e J.n e h w V F 6 N 7 D 9 t Z 6 e 0 n 6 - 6 7 e k k e 7 ",
"0 6 < 6 k o.A h n n 6 h 0 B e e w h e 0 h C B w h n n n k h e e 6 6 0 V n 6 h 6 e h w w n k e n < < 0 2 h B 0 h k e n 0 e * e e 6 h n e 6 0 e h 2 6 B w n 6 n n h e h B n 6 6 e h k B V B n B Z h 6 w n w < 6 6 e h 0 6 w 0 w V k h k n n B A A e h e n n w n n n n 6 B n n n h 6 e e w 2 2 7 e w e e w w t k e k n h e e e e k C o.o.B k n B B n n k e h n n e h k n n n n n n e e e B A C n 0 0 w n C A B e 6 0.A B A C n k n e k n n B B n 0 e C A m.B C +.N e n N 0 e n w N w n B C Z B e n A n n N n 0 e Z r.Z B B n n B A M M M M C Z A n A 0.Z A.N J.0.C B B B V C C A Z 0.0.2.A B n A 2.2.B 0.0.0.r.A A.e k n F w A +.r.A n J.e C Z C n Z N n n n B Z r.k N J.F B Z n C C n 0.Z A C e C V 0.Z m.B Z B 0.N w C C 0 B 0.n B C B B F F C +.Z 0 V F C C n Z C B r.F A Z n 0.w Z C Z e 0.C A F J.Z V B B A e r.n o.A Z J.) D M B C Z Z C n n n V F 2.N J.e w V e n Z n ) F 8.F 2.8.n V V o.n t n B C A A n t ",
"C n w e A v.q.V o.A n A B +.n n o.A B n A m.r.C A V B B B B B n h n B A.0.B r.A n q.o.V r.A.+.A e e n n +.v.n Z Z B +.B Z e A o.n V B h e h B C e e A h V e V B q.A C o.A B B A Z A A A B n V +.C e n A n e h k A A n e n k n q.A A V B n B A o.A e B C B n k q.A n Z n A +.A V n V A C n n V A e t k e e n n n n n n h e e h n h h h k e e n A n e w e e e e h k B B n n A C h 0 V +.C C 0.Z t n n C 0.0.Z B k A k w e h k k n 6 0 e e h h 0 < e * B e 2 0 k 7 e n V w w e 6 n x C C C 2.A t t B n n n e e n Z n k h e 6 < 0 k 9 9 6 0 e B k 0 n n w B n Z e 0 n e w w w w e e B B B n e w w w e w B k k B w n n e w e * w e t w * C w w B C w n 6 6 w e w k Z n n 0.B e B e n e w B n t e * 7 6 e e B 6 0 6 e C e n n 0 n 0.n 7 e w 7 n n e n Z - n 0.C n w C e 0 n w 0 w 6 n 0 B n n w C V C 0 n 0 6 - * 6 O k * w w e N p e : 6 e n n h 0 6 2 6 k V w V 6 e A f w e n e A e M N t e 7 n k e 7 0 0 7 w e w 7 ",
"0 0 6 w h n e 6 C B e h e k w 0 h h e 0 h B B h h e e e e e w 0 2 0 0 n w 6 B e O 6 6 6 e e 6 6 < * 6 6 n B 6 e e 6 e 0 h * e k n B n e 0 e h h h e V e n 0 k h o.B n B V B B A n n B B n e w e V h B A n k B B C A n h B k h A o.A B n h h e e A 0 C A B n < B 0.n G.0 V o.B n 6 7 e t e w e n w e e e e k n t A Z +.+.o.A A Z k e k V B h n 0.o.B n A o.B B A w e e h n n n e 6 n C h 7 e B n Z C n n n n B B Z n e w e n Z r.e h n n n n h e r.7 F.n e k B e n V 2.n n C n r.x n e e V n 6 2 e n N B n n n n n n A Z B h h n M M p n B A C n C C k B Z Z n n C C B B n n B B C C C C C A C C N n A n B 0.n n J.Z C C e n C A B w 0.+.n +.J.n C n k N A C Z r.2.Z A.F Z r.A r.0.C 2.A N C w n C Z 0.0.C V N Z +.V n B e B r.n B C B n A C n C A 0 B F V B e B r.Z r.Z A 0.Z F.V +.+.Z V Z Z Z n 0.V A V n Z n r.n A N M 8.8.k.Z Z C B B A A A n n A +.e A e m.T.r.V V r.t F.n n F M F e +.V A B k e e t n V C ",
"e k B A C B B C v.o.A B A V A B k B C V V A A C Z o.0.q.q.+.A B A o.V A n h q.C 6 e n B A h w n n e n B r.v.n A o.n +.A r.n o.v.n n n e e k h w B n C e B e n h B n h n n B C A h e h n n e e n n e n V n n Z Z n B h k B h w n Z V n B A A B n Z 0 C V B B 6 n A n T.k o.0.n h w w e k e 7 w k e k n n N V B k 0 e n B n h e w e e e n e 2 < w h 0 w n B e w e h w e V V h n A h B A V e w k A r.Z k w 0 e n B k n h 0 2 6 e B e e e e e e e e V 6 m.e e e e 6 6 w n w e e 7 A n C e e C B e t e B V n n B B k e w w h e 0 6 2 9 e e 7 0 w w 0 e e 0 6 k 0 0 n 0 7 w w w w w 0 w 0 0 7 e n n B N e e 0 e Z e w V w e e e e C A V k N C 2 e B * 7 w 7 6 0 t n w e 0 e w e B e N C k N e w n w e B n e w e w e e e n 6 w w w Z e w t w w n e w e w 6 n e 0 n w 0 n w n e w e e Z w e n e e w w 0 e N k n k e N k A e V k 7 n M N Z N p 0 0 h n n N n n n % 6 O e n e w e B # ) t - p p A 2 e 6 e e w w w e e e w ",
"e h n n w 0 e V e 0 0 * w 6 e w < 0 h n h e e e w h n n n e 0 0 A A h k 0 w A e w e e n V w 2 e e 6 0 w A A 6 k n 0 n h A 6 k A k n n n C o.C h C n A h A n A B B B V A A Z o.0.q.A B n n n B o.V n V A B A v.r.B V n B o.B e n A V B C o.o.C n o.n B n n C n A e h v.+.v.q.B e F C C A V t t N e n N B N V n t B A q.r.q.A B n o.+.r.v.0.C C Z Z A A q.r.0.A A n 0 e A C e k q.h B o.q.V h k V @.V k e q f h k B 0.A.r.Z Z q.r.o.A A o.A C A +.n n +.n A A n n B N F N V V e 2.n C B n C A C 2.C N n w w n B V o.n e h B C V C B Z N n e k n k N C B e r.e B R.B B C A Z Z A C B n t n B C Z 0.r.B C n A r.V C Z k Z Z Z n 0.0.0.r.A r.e V 0.w B Z C t n Z A e C e n n C r.A r.0.C +.n B r.F r.Z n n 0 n e n e C A.B +.r.Z R.0.n C B B Z Z C +.0.Z F.0.C F.m.Z B e C n e n w C N N 0.Z r.C Z V n F B C n e N n A k r.F B A M M / 8./ B n A Z B F Z +.+.e A w n A V A +.Z p 2.A t / l.J.n e e n V A F 2.2.A n e ",
"A A o.0.A n V q.B h B w B e n e h n C o.o.A C C n C o.A n h e k A C e n e h Z w e n e e C A h e n 6 0 w C C 6 k k 6 k k A 6 e B 0 0 0 w n C n w k 0 e 6 k 0 h w 0 h n n n k n n Z B h e e e e n n e n n e n o.A n n h k A n e n e h h e w 0 w e e n 0 0 e e n w 0 h 0 C n e e e k 7 0 e w - 2 w 7 e w 0 6 w w 6 0 e h h e 0 6 6 6 e h e w e n n e e e w e k k e e 0 6 w e w w h < q k f q e q 0 h q 6 2 6 0 e f < w h e w e h k 6 6 6 w 0 < 2 0 % B 2 6 k e 6 e 6 2 7 2 6 6 O w 4 e x e e w e A C n e e e n B Z n 6 * 6 e n n B e e 9 0 6 0 0 6 w e w 6 0.0 e F.w e e e n n n n 0 0 0 0 0 w e n k 6 w e e e 6 e n 6 C V V 6 e e 0 C 6 n 0 n C k k e e w e e w 6 B 6 w w n A e n k w k 6 w C n n N e B 0 n 0 n e * C 6 e t * n 6 0 w 0 0 n k w n n 0 n w 6 n e e C n Z B k e 6 k e w n w C e B e n A k n e 2 e e V w V n n N e 9 9 p M e e n h 6 e e e t 7 2.t n k w n Z e n 9 t 7 t F N k < 6 e k k k n n n e w ",
"* < e V A B n A A B o.h A w h 6 e e e n B B n h B Z 0.A k e h B B B h B B V q.w w n w 2 B G.+.e A e w e Z A 0 n A e A A r.e B 0.B n h n A q.A k A n B 0 B e n w 0 h B B k e e e n k n A o.Z Z o.A B C V h B q.o.o.o.B V q.Z B o.h B A V h h A v.e q.n B V n A * q.v.6 Z e e V +.A n n V V n N r.A A V k k B V V o.0.0.o.A B B B o.v.r.B n A q.q.o.q.o.B B q.v.o.q.o.B n B 0.o.B 0 [ [ 0 0 [ o.j V k d q f C @.r.v.v.o.n h B A A B B A q.o.B B A w E.7 n 0.A t A V n C B A A e F e A 0.A B e k +.n e e n V n B C +.V n B A V n n N M p e n B n e n n n e R.n B ~.e e e e t n B V e n n n n n B C n w C F C n w Z n w r.m.J.k +.Z n F.e A n Z 0.Z C e w B C k w e 0.e k n C +.k n B n V w e C t e V n Z e C w B n e F.n Z Z 6 B 6 t B e e B n e n 0.w V C n V B F +.C r.Z B n 6 e n w n 7 V w n e N Z n B e 6 k k r.w e w e A p 9 p Z Z N N o.A k A A k w 6 J.A A e 6 B r.n J.p A t p 8.N F e V A F N t e t V 0.m.",
"q n n q q B C n 0 q n 0 0 V A q.e % B B 6 n B 0 e h h h n C B h n 0 2 w k e h n 0 w e k n n e w e h e e Z 6 o.n 0 B w B A n o.e A 0 6 w G.n 6 * 2 6 7 n Z Z n 0 C n w e e k B 2.2 n h e B e 0 A B C B e 0 h C +.0 w e 0 < * 6 h h * n O e B B V h w e 0 n B 6 e 0 n * < n w e n t k 7 * 2 t k 7 V . 6 C * 2 n 2 k w w e q 2 6 k n B n w 6 e n k n w k B e 0 e e e h k k e e f k n e w k n e w w < 0 e n n 6 2 B V A V k k n k e 0 6 6 w k n n k e V e e t e n 6 w * n n k t * e w w w 0 7 e t t 7 0 0 e k n e 0 6 2 + e 2 N w * n n * e e % e w e 7 e N A n w 6 n e +.Z 6 e F n Z B n N B e B m.t n n n n n V C e k n n t e n Z r.C n n C A B e t % n e 0 V e * A n 2 6 B e - t A e 7 w e A V 6 n w k k 7 n A w w e e w w l V V A * r.N V n N k n e e k e e B 0.V A t V 7 n e n e w w n n t e k w w e k t e B +.6 e k n N V n w e e n C C n t k w V B 6 n t m.n n w V 2.t e M e e Z N e e k n +.2.m.V e V n e A ",
"f B C h f n n h C k o.C n B k q.n w o.A e Z o.A h n n n n C C B n k k V V n e w k h f n A @.+.A B B n n q.e r.A C o.n +.A w B B B k h 0 r.+.0.A n k t n C C C n B n B C B n B +.e A V V r.o.n +.r.r.+.B k n A Z C o.v.m.q.o.o.q.+.n G.B G.T.v.o.B n V C v.v.n Z 6 o.+.v.0.h V o.A Z C k B r.J.r.n k n V C B n t V A +.r.+.B k k B C V n B Z o.C o.A q.A.+.+.v.r.V A  .A A V V A B k k V A n h e k V A A A k h A n V V n n V B k e e k n A  .V n n F n V C n V 0 7 * k t e n w C k n n n B N N B B B C +.r.2.V k B A A r.e V n n k e 6 k n w n n n e 0 e n n k k n C B e n n n n w n B n n n B B w k n n n n e 6 e k n n n N Z 2.A C C A Z C n w N 6 V n w A k 0 N e 0 k F A n A 6 * 2 6 e A +.n A n n n n A +.C Z Z N e e e w 6 C * +.n N n N n 0 w B C n w e B e k 7 n 7 t * * V k e B A V k k 7 w t n e w e n w e k k n N n e t t n A A n n n t k e 6 n w 2.A h 6 k A n p N e e N p e V A n n Z +.n e n N n N ",
"e n B h d f f 0 f 2 j k e 6 % f h e B 0 * 6 2 0 k n B k h n n n e n B n n n e 6 e 6 * < w e e 6 0 0 6 0 n < n e e e 0 B e & e o.6 e h $ e h B k t w 0 0 w w w 0 w e B V B w e n 0 h e e C B e e n n h 0 0 e e e 6 e n B B n n h 6 * e 6 n B e 6 w * < 6 k e * e h k w n e e C h w e e 2 2 w e w o e * % n w o 6 e n V B n k e 6 w e e h n V n e B n A A h n B e k n n n n k n n w 6 0 h n e 6 2 h V B f k k e k A o.A V n k e w e h k V A A n h k V k V C n k * B n A t e V n C w e t n n t e w t t k B A C n t k N n V 7 w 6 w n w k n V C n F N e 6 e n N N N V r.n 0 F Z w B n +.2.C C r.r.Z e N V n n A n 2 6 k n t e B A A n V A Z A N n n F n +.V t A N n +.k n Z Z V V n 2.Z +.A k k n 0 k n e e n k e k r.2.A V V A B e n - n e k t n n w n +.r.A n B Z m.r.V +.A 2.n k n e 7 e B n e 7 e t N V n e e n n n n n B A V n k t n V V n k k n e e t F 7 A V V e n F Z F F M N / Z C 0.r.+.q.F A N e e A +.t ",
"k C V B n B C B V h V V V A f B A +.r.k e k 0 n o.o.A B B V B n k V V k h V A B A n e e k n k h n n n B A n V V k n B A n e C G.h A +.e Z B A n N N C C C C B n V C A.+.0.n C A B A A V A A B B n B B n C 0.q.0.B A Z o.+.r.r.q.n e n e B o.o.+.v.n n k C B 0 q.o.n w n h B G.n n Z +.V n n n n 0 V e t J.A 0 +.k V n e w k B n n n B A A A B n n B A B h n n 0 n n V V V B n n e e e n V n e 0 n +.V q k V n k A A A V k e w 6 e e f n B n k w N A n A +.V A w V A A t e V N n n n B V V n k k n t e t n N V V n k 6 e n n 0 0 t * k w e n 2 t w 0 0 e e e e t n B 0 6 n n w e e n e 6 0 t n t k B e 2 7 V N w - e e 6 6 e e w w e t n n B B B N n n e 6 e e e A w t V e w e 2 e w t k 7 w w 6 w n e k A e * 7 - 2 6 7 w e e w A n V V V N A A e n n n e w n Z r.A e w w n N A N n k n A A N n 0 w k n t w e n e k k t k n n e e w w e e w 6 6 7 e n V r.e n 6 0 2 6 e e 9 7 6 6 p e 6 6 6 e A A B B e 6 A 0.6 ",
"0 0 0 0 0 e k n k f k 6 f q.k 0 0 e B w e n 0 B n h w 6 w h e 6 0 e e 2 2 e k e 6 0 w e e e k k e 0 e k h h w k 6 e n 6 < 0 6 6 0 0 e 6 A e e e w w e e e e e e 0 0 n * 0 $ 7 w h n n e 6 0 e e w e e e n A A B 0 h n h n B B n h h w e 0 e B A n 6 6 6 e 0 * n $ 6 n A 6 6 B 0 * 7 k n e e e t k 2 2 n m 7 6 n B A n w 6 k V B n B Z o.C B C o.n n A o.A +.r.V k k n n B n k k e e f n B B k w e A n 6 e V B k k n V V n k k n n k k n n n k e n N e m V n C k w n t e t m A n A N N V V n k n n n n n n B n n n k 7 0 V t 7 t A e A n B Z w n n B C A V n N Z Z e B C k B 0.C r.C n B C B B C r.2.V e k 2.m.A k A A V N A A N C V C 0.m.A.r.F A r.A n n n N B +.k V 0.N A m.A N k V +.Z +.r.F V 2.A A m.A t A k N F F N n B A k n w k k e e n 2.0.C B n B A Z F A A n n k C Z w e n n n B N N N V A A V n C r.B A A Z +.2.F V 0.A C A A N n n k +.m.0.R.r.J.e n n V A Z M M A N A n t N V V r.m.0.r.A n J.R.n ",
"C C B n B A q.b.@.o.@.d B R.@.f n n o.B n A n B V V B n C +.o.V A A  .A A A V n e n V A V n V A A n C +.V q.n o.e B 0.e e +.B h o.B V h r.n B V A Z A C V A r.J.B n Z - n 6 C V Z Z 0.B 0 h o.A o.q.q.Z A o.Z A w B +.Z A A B e n Z h o.n k n B e e n n A A e C e A A o.B B v.B 6 e V C N n n n J.e k 2.n e N n k k k q 0 w w w 6 0 h n e 0 h A n w n A B B B k e e e k n k e w q e w w e k e 6 6 n e * w n k k B B V V n k n V V n k k n n k e t n w k k w V V e N e n n n A t N k t n n e w k t n V A A n e 7 w n n 6 n * * N w 6 w 7 w e 6 6 6 6 6 2 * % - e e * 0 k + * n w Z k e C A k 0 w t e 7 2 6 w w 6 % * 2 6 0 7 0 0 0 0 w n B n w - w C w 7 e 6 w 6 w 6 w e 7 e n k A n B A t e t w 2 7 2 % * 6 7 e e n A A t 6 w N 7 n 2 t e w 7 t V B n w w e w 6 6 e Z V V 6 6 * 2 w k k e n n B w w e e 6 - 6 t 6 w e e k n k w n e w w e 7 6 2 * e w * t e +.6 6 e e t B e e A n 9 - 7 +.+.w 6 7 7 7 2 6 k n - ",
"0 0 0 6 2 6 0 f j f n 6 q  .h 0 C 0 n e * e 0 * * 6 0 6 6 6 0 0 w 6 0 e e 6 % O w e e h e e w w e 0 e B w A 6 n 6 6 B 0 w C e n e n V 0 C e e 6 w e k e w e B 0.w 0 B $ t * V e n e n e * e A h h B B e 0 w w w 0 B o.B k k e 6 h B * A n h h w w h B w n Z n A n C < * e k B e e k n n k e t k F n n n w k V e n n n V V k k n e e n V B k n o.+.e n q.A h e e B V V A +.A V n V V n h k V V k k A n e n V V A A V V V k w e n n k h k n n e w N Z B Z V e +.r.C A e V V e n e C n n A A k e n N A +.0.+.A B n n A A w +.2 6 2.F 2.A +.+.Z 2.V k t t n n k n B r.C A Z B B Z 0.r.Z A 0.r.0.V k Z V N A A N B C e w e C A n n V C A Z Z Z Z C N A R.A F J.F Z N A 2.+.A A N n V B k A +.n n A 0.V +.0.B t +.J.+.k B Z F B e n 0.e r.w +.F A B +.F r.r.F Z 0.0.Z N V m.Z r.n B t e n V B V A F A A A +.+.A n A 2.V A Z Z 2.m.r.+.m.F C A F A V V V A n e F V J.V e V n n F m t D A n 9 N J.r.k w V Z V n V A n n ",
"@. . . .V B B A k d C n B  .k B T.n 0.A w o.q.n n +.m.+.n k B C +.n n A o.n w w V V V  .r.m.v.r.B h B o.k r.0 A C e +.B k B w A & B G.n G.v.r.h 6 w n B n n n C w 0 C * A 7 Z e A n A V e 0.L.C e B V n e h n B e A Z e 6 0 w 0 n B O B B A A n k n n * 6 B n o.< r.C n B e e e e e e e t n V +.6 V n * 6 V n 0 e w q n n k n +.n k n A C n k n V 2 0 Z V w 0 e k k k n V V k e V B e 6 w k n e w n h w h h h V n h h k e 6 e V k k k n V B e 0 w k e n w * e B t t * k n 6 n t w 6 w n n 6 - 6 e w 7 6 0 e k n n n w * r.7 6 V e N 6 e e 6 k 2 * % * w n e 6 * t B 0 * t 6 * n B B e 6 w B n 6 w * * 0 0 - 6 n e 2 6 B N w 6 e n n e 0 6 0 n Z 6 A 6 w A e w * - n t 7 e 6 % 6 e e N V 6 * e B * 7 n w % w k O 6 6 7 w 6 * 2 e % B O n n t w n $ 2 6 * * 0 e n A t e + 7 - B B - 6 6 6 w t e 6 2 6 e k e 7 e n 6 0 7 6 w k n k N e w e t t e e n e w w A 6 n 7 w e 2 2 n 9 * 7 9 e 9 e k 6 2 e k A e 0 t 6 % 6 ",
"V 2 e w 0 e w n 6 n w B e n 2 e 6 e k k h n h w n * e e n * n A n B O e 2 6 w 0 0 0 0 e n n k e n * e Z e n Z e A f V f 2 6 2 2 0 A =.n h A x.t.n x h x B C A C C B n k h e e w A A V V V A n e n n w k k B r.k B Z n A h A h h V q.V e n * A 0 B 0 m.e B n k o.o.k q e e h n o.V e 6 6 k V B k k e A w h A k J.N t A 0.w 0.6 t V 7 r.k 2.0.V A k e e n V n n n r.A n B +.r.o.n A A V e w f n V B 0.Z C 0.0.A Z A n q.q.q.q.n B n n n n B C C C B V B n B A A C A Z F A N n V A Z n n A k 0 B T.e n V R.q.r.n @.V A h e A n k r.0.A F F V F Z t e V w E.n * V e k n V A +.+.r.r.A B k h n  .r.m.A n n A F V N A w k V A A V A o.C B n n A A A B +.+.A n k k k e A 2.A n A A n k e V B n B n n o.+.B n +.+.V n A A N N +.r.2.A V 7 n A V V A A N C F A.F e A m.k e m.r.t n +.V w n C t V A n V w k A V m.n V V J.e C n n F B e C r.Z V V A V t 0 k A 2.A V Z A n n m.F k N N k A +.F Z n e V +.n k w C +.k k N 7 ",
"r.k Z Z N Z C Z Z v.o.0.o.o.h n n B A A B n B C B n +.e n e o.n e B 6 q.A C V h n n k n B A Z A q.h e e * 0 n e q.n +.V h V B A w n n w 4 w n n e e e h n C C A n n k h e e e e n n k e e k k e n k 2 6 2 w +.k e h 0 n 0 n w e 0 e w 0 n h A e 6 6 n e h e e n A n e k e 0 6 w w 0 6 e n n n h 6 k w 6 w 6 w k t 7 t n 7 B k n A t n 6 w t n V w 6 6 w q w w w 6 6 6 e n B h 6 e k e w 0 q e w 0 n e 0 e k w e B 0 e 6 < 0 2 h 0 6 6 0 e e e e 0 w w 0 0 h n n w 7 6 6 6 6 2 - - 6 k N e * 6 n 6 6 6 e 6 e e V 6 0 w k V k 6 w w 6 w 7 2 6 7 * O * . V 2 * V e k e e e h e w 6 w 6 2 2 6 6 6 6 6 - - 6 6 6 7 e 6 6 w n k 6 < < 2 6 6 w h n n B n n k w 0 w e w N C e - 7 e w e e B n e h e e B V h e n n e w k t e w t n k k n e n n k k n n t 6 7 w 6 * w n w 0 V n 2 0 k e 7 0 A Z +.k 2 n A t k w N 0 e w V 2 e k e k e e n n k e e k n V A 6 e n n n B n e k A k 6 n k 7 e n n n e 6 k N w 0 6 t n e t n e ",
"n 6 h e w n w e k n n h o.B n n B n n B k 0 e B h n B 0 w 0 h 6 n n * e 0 w e e h n B C A B e 0 B V B h e n n w A e V n e V V o.o.A C n n n C o.B B B n x h x x k n n n h e k n V A A V n B B n +.A k k e h r.V n V k A n o.B Z h e n V Z T.o.Z h V k o.C A A V A V V A A V B n v.+.n k k n A +.e v.e V V 6 V n +.V N n n e Z n F r.N 0.A Z F A r.o.A +.q.+.+.+.n V A +.r.@.A V n B V V A +.V k n 0.r.r.F.A.C N +.C v.0.A A k A A A A o.q.r.r.q.B B B n n A o.Z F A V C A A B k N F r.F n n A m.e k A V +.A  .V A k e n n n n k A A 0.0.N A +.B V Z 6 +.k V J.F +.A V A +.q.A n A A A A A V n h V A V n n A 0.2.+.n n r.m.+.V A k n V V V V A +.n B n e e k n n 0.r.B w k B B A A r.o.B V n n Z A k e n n e e k V n n n n n C 0.A A V n k n k e t n k n A A V A V +.V n V V n N n +.A +.A n +.F C V w B e N k C e N 0.A k n F A +.+.F A A A 0.m.B n n A A V B N A F n e C A k e k k N n e N A k e B n n A V V +.",
"n 6 n n e B e e e w h 6 q.B B n +.n n C B w e B C h e B A 0 0 B q.A w e 0 e n B B B C A A V n n 0 V B e k B e 6 Z h A n w B V o.h 0 6 e e e e n n n n h w 0 w 0 w e h e 0 0 w h 2 e n k e w 6 2 k n e k w 6 k 6 e e 6 n 6 e 0 k w 6 e n w q.* 0 6 B * n w h n 0 w w 0 e h k k k A n 6 < 2 6 e h * k 6 w h 2 w w n k w 7 e + V 2 7 C 2 F n n n e e 0 6 w q w w e k k k e 0 6 0 w 0 0 0 e n V k 6 2 e e e B n w 0 6 6 B V n e * 0 0 0 0 e h k h e e n n e e e e e e e e t k k e 0 w k e 2 * 6 e e * 2 n 2 n w e % r.e w e 6 e n 6 w e n n w e n e n n O 6 * e n 6 6 6 6 w e e w 6 e e e e e q w 6 e k e 6 7 n n e V 6 % 6 h e e B n n n n n n n n e h e 6 6 e e e k C n e n B n B B Z B h k e e B n e 0 w w 0 w e t e t k e e n A m.0.A B B B n e 6 w 6 e +.n 6 e N V n B A n w n e n w n N k V e e t 6 t 6 n t B n n +.V 6 k A e n B N V B n e e A n n N n w w n n k w w k n e w w w k n e n N e w V k e n t 0 n ",
"Z k +.Z V q.C B n h k 6 Z h h e o.h w n B w 6 e A B e B A e 6 B n e n B A V B V n k e w e n o.r.m.T.+.e h B B n B 0 n e 6 h x B B e e V o.A B A B A A A A C A o.B A o.A n n B A f V A A V A A A +.q.A r.V k A k o.+.B r.n B h A V n 0.v.n m.6 n h q.6 A n A q.B m.q.V n n V A A n k k V +.+.n w h h V f n A e A A V N A m.n !.A A m.6 A e V r.r.k e e k n k k n A +.+.A B n V A n k f k A r.+.n C Z n 0 e B C 0.n e A V B V h A k n n V A A B n n A 0.Z C V B n n B A A A V V C n A F C A +.N 0 +.A A 6 n n r.B n 6 e B k n n * e k V V e k V k B A 2 e t +.A n A +.+.A V k k k n n k k k k n n V V n t V r.+.k J.n w k n n n A k e 0 e n V n e k k h w w e e q 6 k e 7 e k e n n C n e k e e n B k e h k k n n w w t k e 7 e B V n k n n n k t e e 2 w F n 6 n A n w t n w 2 t 6 n n A n w N n 7 t w n 7 n e n V k N n 6 n A w w w w t n n e 6 k k V Z n 6 6 k e w e t e t n k e e B V t n N e w N k e B e 6 e ",
"B d A B h  .B h h h e 0 B n k n A h e n n e w e h q.h 0 e n 6 w h 6 n 0 k e e n h n B B n n n n e e w 2 < 0 w < n 0 n e 0 n n A e 6 6 e n e 0 0 2 6 6 6 6 2 6 6 w e e e 0 6 0 e 0 w w 6 6 k V V B k 6 e 6 2 n e V C n +.e e 6 k e e B A n V w n 2 e 2 w w B C h A n e 2 2 q h h k w 6 0 h e 2 o h 6 n < 6 k % k e 0 w e n e V 6 k n 6 w 0 e k k e w w e k e e e 6 e B V V n n B h w 6 2 w n n e e B n e n B t n 0 6 n B B V w h h h n B C V n h 2 e n k e e e w 0 e n n t e t n n N n t n N k 6 V k e 6 k n V k f w e k n A  .k w w k k w e n w e n 2 e k Z e n V A o.V e w e k e e w 6 6 6 w e w 7 6 7 n C B e n k h n n k n n +.n e k V A n w V A V n n n n h t N t 7 e n n Z B A B n V B n V V n n n V V A A n n C A V k n C e w e k n n n B A n 0 w N N V r.J.A e e n e w A k N t V A n A n t V k V e V t k A k t n n V A n +.V n n V A N n 6 k +.m.Z k e t e w n A n n A A e e V C t e k e e n N N A N n N ",
"V h  .B h o.B k n C k B A 0.A v.0.+.o.A V V A +.n J.k e n o.0 B q.e o.0 n e h A C +.A.G.r.A n e n e V q.A o.r.n A h o.C x o.o.t.n n k n V B n h A V V V B n k e A A A A A A o.o.V V n k n V A V A k w V n n r.A o.0.A L.A A k o.B B B Z v.B +.A k n q.n Z r.+.V n n k e k A +.A J. .e 0 w h k h +.A B e k n e V A t n N e N w 0 N t A n A A N B n k k B V k e e w k V A V n n n o.A n e n A A V 7 V A Z r.Z n e e 0 V o.r.q.e e n B C Z o.A n h n A o.A V A Z Z k n n n k k k n F C k w 7 e t k V n e B n B w 0 0 q 2 % 6 k n V n k N V n N V e N A e N V A 7 +.V V B k e e k B e h n n k e e h n e e k n n n B e n A A B V A A o.B h h n k e 6 e k k h e e e 6 w n t 6 w e e n e n h e n h 0 e e e e e e h e e k k n n k e e k N k t k t e k V w * % * * 2 w w A n 7 w n e w n n t * 6 k k B 7 e k 6 w 2 n 7 6 k w 6 w k e e V 2.F N n t e 0 6 6 e k k t e e 6 6 * w n 7 7 n n w 6 e t 2 * - * w 0 e n e k B n ",
"B d V j d [ B f e B 0 h 6 n 6 n e B B e 2 0 n A e n O w n h $ Z e * o.e o.B e n n h e 6 6 0 k B n & 6 e * 6 n w e < h w 4 w w e w w 7 6 w e q 0 e w w e k k e w 6 6 6 6 0 w e e n B B n n n w * e 6 6 A A V r.B e e e 0.k h 6 n e w < 6 C * n < e w G.e C A e 0 0 e e e k V V k k e w 0 e n V A k o.* 6 w * k h C w t n 6 +.0 e n * n + w n n Z n k k B n e 6 6 +.+.A V n k k n n n e 6 w k n e B Z n e n B B Z 0.h n h B o.n A k n B V C B e 0 n C A n e k B V C n k k n n k e k n V V k 7 0 e R.q.0 n w k 6 h 6 V n e A A k B n e n n t n B 7 k n w B V C 0 J.o.V n e e e k k 6 h V A A V n k A N B N t 0 e A n r.v.n w k B B V B n B V A V V f n V B B B k e e A A N V n e t B A B B A B e h V A V V V A V n V n n B n e e n +.V n t 7 2 7 k V e N V e n V 7 n N n V r.Z k n V 2.V V k e 2.m.V N 6 e w 0.B t A A k n F t e J.N A A A n w 2 * 2.F n 0 w V A n e - e A e e V n A V +.+.k w e w N e N A t N r.A ",
" .V n k B  .@.q.B A h e r.r.B o.h 0.r.B n 0.r.A A o.o.A A A A V +.@.r.q.V k B r.m.A B n k e k V n +.r.A n n A +.V A h n n k +.A n 0 B r.n k o.A o.B B o.o.k w e v.r.V n A A k n A B C n B C e +.o.n B k n Z A m.+.o.q.G.v.C h e o.B A A v.r.k o.R.2 e Z v.n r.r.e w n q.v.A n B A A e 6 w h k C 0 r.k e A 6 w V 6 e k 6 +.e h A V e 6 6 0 e B +.n n k A r.V e k B A Z V w 6 6 w w e V n m.e w k e k n n n k k e % n +.B e k e 2 n +.+.k 0 k A +.t n k w 6 w e e 6 e A k & +.e 6 e 6 A e 0 h 2 k t N n q q k t = k q 2 2 3 q e q e e w 6 6 6 q f 6 6 w e f k n k e k w - 6 e n e w n * w 6 k n w e e e 0 2 6 k A k t w 6 - - 6 w n C w 7 A A e n 6 6 e n n k n A e 2 w n k e t e w w n +.V 7 6 e e w 6 0 7 7 e k 2 w w 6 6 w t k 7 6 e w - 6 n n 6 t n e w w e e B n k k n n e 6 N e e 9 A A 6 w n k w 2 6 e n B e e w 7 e n B n 6 6 w n n w 7 e k k e w w w e e % t k F 6 e 2 6 2 2 t e 6 k V 6 6 V F k e V n 2 ",
"f f d h n B B B 0 e < * e e 6 e < e n 0 < 0 e h k k k h h k h e * 2 6 0 6 6 6 w * * w n B e 6 6 6 q w 6 2 6 0 w w h 6 e k e V n < & w B w 0 h w B e 0 h n e h V 0 e 6 6 h h 0 e w 0 e 0 e e * e V h B k n A B 0.B n n B n e 6 0 6 B q.e w n 0 n A.0 B A A 6 n n n e w e k k n B h n 0 6 n B n V < A e V A n n A V A A e +.q.+.A n A V k e k k e k h w e B k e A B Z 0.0.C B N A B k n e A 7 w n B n n k k f k n 0 V +.A n V V n k n n e w e n V n V V n e t e w w e V n * +.k e n k +.V n A k A N D D n m A k 2 m l k k V V l k n n n n n k n k e k B A A V n h n C A A A F V n e B 6 A V Z V t +.A N n k N F m.A C C V V V A A A +.n k 2.0.N Z N V V V V N N N A n A m.+.A +.Z e e V +.V e e C 2.A V V C A +.m.n V A V V Z +.F n e n n e k B t B F 0.Z V A A A n k k n V V n e N N / n n A k Z e k t e e n A A V V n k n A Z A k k n A V t e k A 0.r.2.A B N V t C n F e n e N F k e n C +.r.A Z C n n V F 2.2.",
"f j B [ o.o.[ C o.q.V n A A V q.B A 0.A n k C r.+.A V V A A A V w k V V A q.+.V B n B A A A V A A A n k n V V k e n f V V n +.V 0 6 k Z B B C n n h n +.q.B h h n A B n A V n B n h B n V B 6 n B n A B B o.B Z 0.Z A A V n n B k A r.n k n e A +.n v.q.0.h o.Z e h n n B B n w 0 e 0 w B B k n 2 k * n 6 q 2 2 k k w 6 6 A V 2 * k V f e k e * 6 6 < 6 e 6 0 V w w w w 0 0 w w A n n w A 7 e n e w w h e 6 0 k w e n n k k n A k h h k h e e n e n V n n k e w e w n n 6 B e e e 0 k e e k w e 7 t t e t k w % q w q k k l e 7 e w w e k e w 2 6 0 w e e 0 2 * e e n V B e w w e e $ N B N k e A N e w e k n N e e e n n n l k e k w 0 k k w t e t e 6 6 e e 6 6 2 w t 6 6 7 0 w e n n e * - e e 7 6 6 6 0 e n 6 7 w 0 w e e 6 t 6 w t e e w * 7 t k e w e e e k e e k k e 6 * t p N w 7 n e k 2 w e w w e k k k t w 6 7 k n n e e k n t 6 6 0 6 e k t w w k A n t 0 k 6 6 6 n e 6 * 6 t 0 6 k A 6 % 0 k e n +.",
"* 1 0 f k j d 0 0 e w 6 6 6 0 e e e e n e 6 0 n w 2 * * 2 6 6 6 2 e k 0 w n n e k 0 * % * 2 w h e e w 0 q e w < e n w k k e n e 6 6 e n B B n k 0 0 h A A n 0 6 B A B n B n e n k e n e B B 0 n k e B e e n w e o.A C B B B B B r.0 0 n +.n < A h k q.n C e A B B 0.r.q.r.m.o.h h n n n Z B h B +.m.w m.6 V k e A n e A 0 r.o.e e A m.r.q.q.o.n V V n A r.A n +.Z V n w w e e e A C F V m.k n C n n A G.m.A V +.h e k V B k n +.+.n n A A B B A n N A A A A A A A n C +.n V n n +.A B n n V B V t n N C A A n h A V V V V A A  .A A V A +.+.V n A n n k k h k n +.V N A V k n A r.A - +.F F F +.r.+.A C C A A F n n n V A C m n V A V N V N n V t B n w k +.+.n n n A A k t N B C V Z 2.A k t n A V N N N B N A 2.0.A V A F A B A n V F A A N w N Z +.A V V A V +.+.+.r.+.A n e Z n A n V J.C w B F r.+.A A A A A A n e t N A Z A A F F A N B V n n k e e n +.J.2.N n F A n k A k +.Z A +.e 6 C F e w V Z n n Z ",
"f k B A  . .[ A e e n n e e k n +.B B q.q.V n C A n h k n n n V n +.+.k e A r.+.e e e k B A A V V o.q.+.A A V k k n q k k q n k 6 0 0 0 h n h h k e 0 w h n C o.0 e 0 6 e e e B k w e 0 n B 0 B A B o.h e V h n B B B B n B B n +.6 6 n +.n 2 o.B A +.e V h B e n B n 0 0 h n e 6 w 0 0 w < * e w n % A 2 V h w e 2 2 o.6 e e w k e k n k 6 6 e f w 2 w n w * 6 k e w 7 w w 0 6 0 0 k 7 n * 6 e 6 6 h V V e w e w 2 6 k k w w k k 6 2 w e 6 6 e e e e t t k n V e 6 e n k w k w V k 6 6 w e n k 7 7 7 e e w 0 0 e e e w w w e k B k e e n n k f k w 6 0 w 7 e k N e w e w 6 7 n N e o k e e w e e k n n t w e e w w w w e w w 7 k k n k 7 0 e w 6 e w - 6 n B w e w n k 6 6 e w 7 7 e n B k w 6 k e e k t w 7 w V N k e t n n k w 6 e k w w e 6 6 w w 6 6 6 6 6 6 w e k n n k f n - 9 6 6 V h * w k n t e e k k t e 7 * * 2 6 6 w e e e e e t e A n w 6 6 w k n e 6 e V A w 2 6 2 B t 6 e 7 * 2 e e e e e w w w ",
"0 0 q e e f h k k e n B e e B h B e w n V n e e k e w k k e e n e n n w 6 f V A w w e e k n k w w n A V k h e e n V f n n k +.A e B n e n B n B B n h e n B V A n B h e n n h B C k n e V Z h o.o.A q.n h A n n h n n n n n n n e n A e n V e A C o.+.e q.A A B n A o.A B B V B V A V A o.B n m.0 V 6 r.B o.n e n e n J.A k k +.+.k e V V e h A q.A h k V k w n w e n C Z Z C B A V A k +.e B r.V B n n n n n n V n V +.r.A V A A n n n n n B V m.2.F Z A A 2.J.V k n A r.B J.A o.A e k n B r.+./ N N F Z B n C e k B B n k h h o.V n n V A +. .A n n A V n n A F V V A A V N N V A 7 r.A C n k t N F F V n B C N V V V N N V A A A 2.+.t e V N V A C n n C V k N n V B w k V n A A +.r.r.A k w V B B V V k t k n B n k n A A A k k Z +.n n A A n B B k k n n e k n V A A A A V 2.e D N 6 n o.o.t n n n N A +.Z 0.2.A k w e t t N N n n C +.+.A F A N C A Z V n A N 2.r.I.V n t C V 7 * e A n 7 V +.F n n A +.A ",
"n B B B n B V  .q.B A A e n o.B B k e h n n n h e w e n k 0 w n e e e e f k k k n n w 6 0 k k e e n V n k k k h 6 e 6 e f w n e 0 C n w k h 0 h e e h h h e 0 < n B k h V B e e B e e w n B 0 n e e B w 0 B w 0 6 w w 0 0 e h e < e B 6 0 n 0 e w n n 6 0.n h h O < h B h 6 * 6 e w 2 0 n e w B 6 V 2 w h 6 * 2 6 w k h k < 2 k n w 6 e k e h n n n h k k 0 6 n 6 6 0 0 w e n n k 7 6 * n - 6 e e e w 2 6 k k 6 6 2 2 0 e e w 6 2 6 0 6 6 6 6 6 k w 6 6 6 2 w n w 6 2 * 0 * A w h n 6 e h 0 n e M e u C C h e n 4 0 e w 6 < 4 6 e e w w e h n n n w w e e 2 2 e k t e e n N k 7 w n 6 A t n t e 0 w e k e e t k w t n t w 6 w e e w N N 2 2 k t w e e e w w w w n k n t 7 t V t N A Z C n w 2 * N n k n n t k n w e k k t n n k 7 w N V e e B B V A A N N V N k k k k h e e e e A * p N 2 w k n 2 6 6 6 e n n e t n t 7 6 0 w w n k w 7 k C N e 6 6 w e t t e 7 B n A e N w k e F e 6 6 7 n C t k n t 7 w k n k ",
"f h k k h f k B q.h h e * 0 B e A A B k k B A A h e n A n w e A e w w n V k 0 2 w w 6 6 e V V k n V V n k n V B e n e B n e k w e r.+.n C n w n 0.Z B n n A o.o.w k h B r.q.V B A n B n A A 0 h B A G.o.+.L.+.A n C B n n A +.Z o.n n n r.r.e B n o.q.n G.n w e k n o.r.A h B v.q.B e n v.+.B o.A L.k 6 A e k +.e V o.6 V 6 q k m.r.A B A o.V h w V +.r.+.k e +.r.F n w w t F J.2.B B n T.C k e w n n e B m.+.e V V V A +.r.r.o.e A +.V B A V k V n k n n n V r.m.@.n w n w R.V A m.V +.A e V e e 9 p 0.t.B n o.C A B h w w n A n V V V V A +.r.b.A h h e 6 w n A A n k V r.+.k n +.e C e V Z A V B n B A F +.+.l V F C t 7 w e n t +.0.w e F A w e n V V n V +.B k n e w n C t e N F A n e k n V n t t k k B Z w n V N n k e 7 t t A +.N V Z C n n n k k n k e n n n n n B V A / O e 2.V A n 6 w w w e n A N e 7 e t e w k B V 2.A k e N 0.A e n B V n k e t k +.A F 6 e 7 C N n 6 k V 6 * e n A N n n A A n e ",
"q h B V B k k k 0 q k k e n B 0 6 k n e w 0 e o.k k n n e 6 e V w 2 e 6 n < e e * % o * k k k +.n n k 6 < < 2 < % w n n k h 0 * n n k 0 6 w e 6 6 0 k 6 w A n k * k +.6 e w B e 2 k 6 2 n n 6 6 w e w 2 2 w k n k k w 6 2 0 e w w A e O 2 e e k e m.q * * V w e 6 w J.6 k A n w k w w 6 % A 2 n k 2 A < w 6 * 6 w e w 6 n % n 2 e e e e h e e e n 6 % N e w - n k w k 6 6 e 2 w e e w q h k e 6 e e e 6 6 7 e e e 6 k e 2.t n e e n 6 V f e e e 2 w k 6 6 w % 6 w w A * 0 w w 0 n n e w t B n 7 n k V +.k % 6 +.A * 2 k 2 V * e n < V w * B k q n A n 0 6 k k 6 2 e 0 0 A n 6 e 6 k n e e k n t w 0 e V n w e Z e w e e 7 n B w k V V k e h k e k e q e k n A @.+.0 $ 6 k n e e n V F F n w 7 e k 6 k A k n V e k w A 2 n k w % p - e 9 0 n k k w k e w t e e B n 7 7 A +.6 $ e V e B B - 6 n n k k 6 n 0 6 r.n e w * 2 n e 6 n V 6 k +.e - k A +.e k w Z n F Z k e n Z V w e A V k k n h 2 2 w k h k V V n n A ",
"e k B n h e f k e e n n f k B q w V V V V k e B A B n n B A +.m.e e V o.m.A V n A A k k V n e n k B B k e h k e k k h e k V V k k n n k e k k e k n +.V A J.+.A e n r.h n e V h A m.A n r.m.A o.V A A V B A +.+.h n A V V A A A B +.B n r.q.B A V +.V V V +.B V k k o.k V A V k V A B n V A r. .k V n V n n V V n A V n o.6 n 6 k k n o.+.A V B F N e +.n V n m.A V r.A V A k B B k e k n n k e A A A B n V V n V k A t F n A n V +.k m.A V B n k n V e n A e B e e 0.w n n n t V A V n n V V n n V +.+.V k n A k w w k e 6 k q A A n r.w A +.n n V B e w h e 0 w B n k o.V k A w n C n n A A V n e e n e 6 w C e 7 w w 7 n F n k n n e w w w w w e e n V V B n 7 6 e V N e e n e e t n t 7 6 6 k e k n e k n k k e V 6 e n w * ) t N n e V n n e n n t n e w t k e w n A n e C B k n e * 6 k 6 t e w t e e C n e e 7 e n e 6 w 7 % w V 7 2 e n k t 7 e w w w e e w e k e 2 6 e n e k V n w 0 e k e e n B k w w ",
"f k n f 0 0 f B h q k V h f n n e n h e n k 6 w e w 6 6 e n k e * 2 6 n n n w 0 e V k w e e 6 w w h n k h k k e k w * * w n n k < w h e e w w 6 2 6 n e k A e w k e V w n 6 e 0 e k 6 < w e w e * 2 6 6 6 w e w 6 e k e w w w 0 w 6 2 e V k 6 q A e k n V e k k e e * k k h e e w n w 0 A 6 r.w * n O n 6 0 n h 6 e e e n 6 h 2 w 6 w n A B n B C V w n 0 n n +.e e A V n n 6 q w 2 2 e k k h n k n t e t n e 0 k n N 6 e w n e h V 6 +.n k e w e e e 2 e A e n e e 2.e V C V n k n n e w e k k k A o.A A +. .n e B B n B % r.w k A O r.* w k w n V V n f e e h e A V B A V n +.e N A n n A V n F.r.0.0.C n C r.n e e w w B 2.A k n n h e h k k n n n V +.+.V h k N 2.J.2.n k V V n B A F A B n A +.A B V A A m.A A +.B k q.k n / t N t 0 k w w n F Z A Z N e k n n n n V V N n n n N k w V 2.N n k n e N A k V B n B n t n n 7 0 2 e V k e k e C m.A J.n +.n V k n N N n n V A h e n A A k k n q.A A r.m.r.V n ",
"k B A B h f B  .B f B @.V n  .q.m.r.V n +.+.A A e k n n A +.n 6 k k 6 V k +.n B 6 V V e k V V  .e n n k e k k e V k e h V +. .V e n V A V n n n e e A n B +.k e r.B A n +.f B V A A n k n B n n e k n k n A +.+.q.+.A n n V V B +.A V V +. .A r.T.k A k n 6 V k e A 2 A k n V n q k e q B w V 6 0 n 6 n w w k e w e e k n e k e e 6 2 e n n n V A Z e k 0 V n n e e +.A n n w e e 6 6 k n n n A B n k e n V n e e C A w 7 t N k k V 0 +.B n e 0 h h k 6 k A k V w 2 N 2 t t k t B n n t t k n n w h k e k n k q < h n w 6 * B * k B * +.6 e w h k k k k q 6 w n w e e e e w w k 7 e e 7 6 w 6 * C B n t w w e n t 6 6 6 - w n t e f e e e k n n A n e w e n k e C k e n A V k t e w w k n t e e 6 n e 6 e e e +.w e w w % n 6 k N 9 m p 7 k w w w n n k n e 0 e w 0 e n k e e 7 0 - - 6 w e k k k w t - n Z 2 n n e k w % 0 n 6 w w k n n t e 6 * w w t 6 t 2 * 6 w w 6 6 w e w 0 6 w k h w w e k e h n A A n k ",
"< 0 f e 0 0 q f e 2 w k q 2 q f n k 6 2 h k e e * 6 e e k k w 2 k k * e 2 n w e o 6 6 % * 6 w k w e w 6 2 6 w 0 6 6 2 6 w 0 6 6 < 2 6 6 2 < 2 6 h w n q e n 0 w k < 2 * e % 0 e k e e e e w w 6 e e 6 2 6 e n B e w 2 < 6 e e 6 h V V e 2 e n k T.B +.h e 6 A w 6 r.e A w n  .n B n V n w A 6 w V e +.e n k h n V n k e w e 6 w 0 2 2 0 e h e e n B 6 e w A t w n k A B k B e n n e w h k e e n A V k t n Z A N 6 N N e 6 k n e k V 0 +.B n e 6 e k V e k V e V +.n r.e A A F +.B t w e k n k t o.A A o.A V A r.k n +.B 6 r.n e V e n n n V w A q.+.+.+.V n A m.o.V B V n V V n A F A n n C n w C A C C C Z A N C t k n k n A N A A A A A A  .+.v.+.n e n +.r.A A k e n +.r.+.A n n V A A n n V n r.A n A V n m.k n n m 6 A k r.M e ) 0.A r.A V e N n t N n n A n 0 n m.C n F m.m.N k A 0.n k A 0.C A w A m.e +.V n A n 6 t F k C A A A F Z N N n k C n +.V N w A A V k k n n e A V V V n k n V n V V A A +.+.q.",
"B V +.@.o. . . .r.A o.r. .V  .B n V k k A A n n A A A A n e e n n V n V n A k e 6 k k e n V A r.A +.+.V V o.r.r.V n n k e w e n V n k n n k k n o.n A n B +.n V A e n e A k A +.A k V +.V n n h A B h 6 0 k n n V V B n A A k 6 e o.J.o.e n +.k A n V k k e n w 2 V n k 2 e n k V k n k < +.* e n 2 r.6 n k e n n e w w * e 2 f 6 w q e k B e < 7 w * e w A e 6 n w k w w k 0 f h e e e e n V V n n e w e n N n 0 B n n 0 n e e n V 6 A n n e 6 0 h V e e n w B N 6 k * 7 7 e t n e 7 e n n k e k q e h w 2 e V w 2 e w O +.2 2 n 0 A w n V 6 V e e e w 6 6 e k h 6 6 w 6 w q 2 e t w 6 w n t 6 w n n n B A N e w * 6 e 7 w t w f w w e e w w w q w 6 < 6 n n e 6 w e e e w 7 7 w w e t e 6 0 e h n n e e w 0 f 6 0 f w % w w A * @ t t e k e w 6 w 6 - 6 7 w n k + 2 k * + e N V e 6 k A w 2 n n e w 2 7 e 2 w % - w w 2 6 7 2 6 0 2 6 e 7 2 e V e n w +.e n 0 e w 7 w e t e e k k e w 6 6 6 w w e h e w e n n ",
"0 q q e q q 0 6 f q f f q f f < w k e e k h w k A h q k w % * w 6 w n e k w 0 % * 6 w e n h e V 2 0 w 6 6 w e e k e e e 6 2 2 w k w 6 e f e w w e 2 w 6 w k 0 h w 6 k w V e V n V e V q.n k V f n n h e e k k e +.r.r.+.V n e 6 e n r.r.k n A e +.A k +.+.V h +.n n q.n n k n V A A V n k A V V k h B k k k k B h w e k 6 +.e +.n o.A h n v.+.e t n e A k C e n o.k n e k A k B k V B k n +.m.r.V C N k k B N n N +.C r.n A n V +.q.e r.A A n e n n A e n A k A r.k Z w V N V A A n n C Z C N V V  .+.A A o.r.v.A n V V k +.+.V f A n k n A w B n A A V V o.o.V V e V A n V @.B +.F N n C r.r.A C 0.0.Z 0.J.2.n +.n V +.A A +.A A V V +.r.o.A A A +.A n B +.q.V A r.J.m.F V V C N n n V C B n n A n B n k k n n n k r.k w w k r.2.A I.F.r.J.r.r.+.r.F V Z F +.J.J.n A r.t n +.n e C n e A V t V m.r.A +.V n F l e N Z 0.+.N n +.B V k N 2.n e 2.A w w k B w e n k 7 7 n A A C F +.@.@. .A A A o.n V V n V A A V ",
"V B B n B k f e n k B B V r.@.f V +.V k n n n r.k 6 6 V A e e A B A m.B q.B A h e h k V A e 2 w e k n n k n n k B n n V B e w q k 6 2 q k e w 0 k 6 k k n A n A 2 6 V h A k V k A e B q.n k V k e k n B A A V k k A A k w 0 e h n 6 n +.f e n k A k O k k 0 & q.V * A e V w 2 n k n w 6 V 0 m.n 2 n % k 2 2 w 6 0 2 6 w * B * k e n w . O n V 6 w e 7 n 2 2 % w A e h 0 e V e k w n f * % 0 e 2 k n n t e e e w t k 6 n 2 w * 7 n V 2 V k k w 6 w 0 6 % 6 n 0 k e % 0 O 0 6 6 0 6 2 6 e e 6 6 w * e k 6 0 V V e < 2 * * 0 o B < % m.% k 2 h 2 6 < e k w e V k 2 < & w h 2 6 n q t e 2 * 2 t e 6 t B B e n A n 2 k 2 6 w 6 2 6 2 2 * 2 e k k e f n B e * % 2 0 < 2 2 2 2 6 e e w t 0 6 e n n e w k 2 0 e 2 w B e k w +.6 6 % 0 V t 6 n e 2 w 2 6 w k w 2 0 6 6 e e * t N w N C O * A n * 7 t 6 * t t w B 6 + t O - e w w t - * V 7 w 2 w n * O t k 6 % n 7 w w r.e * * w t 6 * 6 2 7 w w w w w w e e e e n A n w ",
"f q 0 2 2 2 2 < B V V B k f k n f e n n e k n e e k n n e w e n k z B z h h k B 2 e 0 < k A V k k k n V V k e e k w 2 2 w n V V h e k n n k e h 6 0 w e n V n e e h k n n n V o.m.r.A k e h k k +.q n A k h n w A w e B e k V k A n k V A V k h n k V e A n o.V k A n A e n k V V V B n n V k 6 n V k 7 6 k n k k k e h k k k e B V A w n q.n n A k e m.+.n J.B V B n k k B +.r.J.A 7 7 V A A m.+.V V +.q.A V A n A +.V n n A r.A n V A A +.B - A o.o.V k e e k w n n k n r.J.r.V V A +.A B A r.A n n A +.A V B n n n n V A A n k k +.A n n e A n n +.n e f q V v.V A k k V k A k k e n r.+.n V 0.k t +.m.N k N 2.+.Z A N n V +.f V A V V o.A n A A n k k n k w o.A A r.m.+.n e e r.+.e e m.b.k B V V n k n A r.+.A V n k k A m.A n 0.V w J.6 V +.n m.e r.2 n e w w e B J.p D t / N t A.n n e r.2.N w n m.n e m.V k e n k e t V V n k n n k k n n k t k m m m l t l t n 2.6 A q 6 Z w r.n n F A k 2.C F w A N V ",
"n k f q q h k f B B B n k f h k n k B n w e n e n n k h e e n A 6 w f f q 0 0 0 * k k q k k 2 % w e k k k k k e e w 6 6 w h e e 6 6 6 e h e e k n k e e k V n q 2 w e w 6 0 0 6 n k e w w w w w e * 6 h 0 w k 0 6 2 6 w 6 w w 2 w 6 2 w e e 0 6 h e n 6 h 6 n k h n e k * 6 * 6 0 e e w w e e 6 e k k 6 2 7 6 * q e e w 6 6 w e 2 6 w * 6 e * 0 2 * % 0 0 6 e 2 0 w e w 6 w n o.V k 6 6 e e 6 e * 2 e V V e w e w w w 6 2 6 w w w 6 w e 7 e e - w k n n e 6 * * 2 % * w q 6 w B 6 6 6 w w 2 6 w e w w k V V n n e k k k e e e e w 2 e 6 2 2 * w e w k w w e 2 w A w 0 6 n  .e 0 e k e e n k w n e t w 6 e N N t 6 6 w e e 6 6 7 n h e e k h e k e w 6 6 6 6 0 w w w k V V n k k < 0 0 2 6 k k w n k e w w e e f 0 6 w w w 6 e n e 6 N 7 - V * w B e C w V * e 7 0 6 6 e F 9 N 7 N N t n e n f k N k w e n e 2 0 e 7 7 w e w e k e e e e e w 6 * 6 2 2 2 7 w q w 6 7 7 e n 2 q 2 6 e 6 k w w e e e n n n w t e k ",
"q q 0 < 2 q f e B B B B B B k k V V o.V q k V B n n k f h k n B B V A A V B k k 6 V +.A +.A e q k A A n k B V B h e e k n n k e n k k n n k k n +.+.A V V A n w n +.q.V n A A k A B V q.r.A A +.m.V V +.A +.+.V n r.v.+.r.r.+.A V k f n V n n n A A m.V A e A A v.m.A r.k V e k V A o.A V A A A k V A n k k e 2 B A  .V e e B q.V B A V A o.k @.h k B h B +.n V w k n n k k A m.m.m.Z A 2.A B A n V r.T.m.V n V q.o.V V A A A V F C A A n F m.+.q.m.J.G.r.A n n n e k A V f k A A V n V A V V V n k k V o.A A A B A A A B k k n A k V n k B h A V e n e n A e e A e k k A r.e 0 B V n k n e w B n V N n V r.2.C B n n A Z A V C +.k e V A n k V B k h n n k B +.n V +.+.V k n A e 6 w n n k k V +.B e e n V n k w w e n V n n V N e 2.e k A e n A C A V B e e e V n k k 2.p / M M A A 7 k V A w t e n N n A N 7 e k k k n N V B n V V n n n t 6 q e e e e e l n e w k V l n 6 e n e B e n n n n V N A V A k N A ",
"f k q 0 0 k B k k q q q f k f q e k V n 6 w n k e e e e e w 6 2 k k h e w w w w * w w 6 e e 0 e w n n 6 * 6 w 6 6 6 0 h n n k e w 6 2 6 2 2 2 0 e e e w e e 2 o O 6 0 % % w w * * O % 6 0 * % 6 h 6 2 6 6 w 0 2 O n k 6 e k 0 w n e w e e e e e e h +.n B 2 w w e k 6 e * w * < 0 q e 6 * * * 2 2 w e e e e w 2 w f k q 2 2 w n e 0 e 6 w 6 * n % 6 k * w B * w 2 6 e e w e k V e n e 0 w 6 6 e e e k n e 2 < 0 n e w q f e e e e 7 w 6 - w n e n n h 0 2 2 6 w * 0 w < 2 w 6 % h 0 2 2 w e w w k e e k n k e e e e e k h e w e 0 % 2 2 6 e 2 w k 6 w 0 f B 6 6 w w V h w e 2 0 k n e e k w 6 e n w t 2.r.n e n t 6 2 6 7 w e k e w e n k e e k V k k n n e n r.B V A V e 6 w n q 0 e n n e e n V h 0 w k B n h 6 6 w k n n k k t 6 A 6 n n k k N V t C 7 w * 6 n n k e B 6 A M 7 e N * t q k * 7 - e n e n V 7 e n n w w n n e e n k 6 6 n n w q e e e w q t l 7 2 t m 7 V + q N - N - n V n N B w n t A 6 k n ",
"k B k 0 q B B k A B k B A o.A B n V r.q.n n A B +.o.A A A V n n A A C C V n k e o.A k k A B h n +.v.r.V n V A V k e k A +.A A +.k e e k n V A r.+.o.A A o.+.V k V r.r.n B m.J.+.r.V V @.+.B n +.A o.A +.m.J.J.J.n L.m.V r.m.q.v.+.V B V A A A q.A V r.A +.w n n A A k A k A k n V V V n e 6 w f k m A A A +.+.A n n B n n k k n o.n n e e q 6 o.2 k r.k A r.0 B V V V A +.+.+.+.n +.Z N B k e n V n n A A n n V V n n V A V V A Z N n n t B V e  .V k w 6 w e n k n n e n  .V w A n e e n A A V k e e k k e w w 0 < * 6 e e w w n w n n V +.k n k 6 h e h n w e 0 e V e 6 e 6 e B n f k A n e k t 6 w Z +.t w k 2.V k n B N C A 0 B V e 6 e k h A n n n k w k A n k n n k e f n 6 e k e w e e w n k e e k n n n e w w e k e e h 6 * n * k e n e n V e A 6 e * w e n n w e # N N e 9 N t A 6 e w A 7 t A e 7 e 6 N A N e w k n e e n k 6 6 n B e e t k t q w t l w 6 t m 6 m % t V 2 n * n V n B n 6 k w N 2 e t ",
"f k f 0 0 k n q q 0 2 0 e h f w 6 w n k 6 6 0 < h e w 6 6 w e k 0 w t n k e 2 % h w 6 w B e < 2 e e e e e e h h 6 * 2 w w 6 6 e w 6 6 w e e k B A B e w e B V n 6 e 0 * * e e 6 h 6 2 0 6 * * 6 * w 0 6 e e w e 2 e w 2 6 e e e e w 6 w e e n A V w e 6 k < e e n V h V e n e n k k n n e 6 0 h e w 7 7 7 q e k e w w w e e w 6 B h e < 2 6 * n * e V n n n 0 e e q w e k n k e n 2.2.A V t 6 7 h w e n V e 6 0 k e e n n k f n A n n n k n n 6 k k h e e e w w k 6 2 f n e w e e e 6 6 e n B k k k k V V n n V n 0 2 e n n n n k 6 k k n n 6 w V k V n n A n A n h n q k q.n k B n e k +.A k n k N V n n Z +.A k e q t t e w w V m.q.w 2 k A n +.+.A V n n B V A B n B B k f k 0 V A e w n n w A A V B n n n n A B n n k k k V w w n e n n C n n V k +.e n w n w B A e p - D Z N t N 0.2.w e V 0.k n A n w e k N V n t e t e w k V N n n V n 7 t t k t t e t t k t n N e l 7 n A e n w n N n k n t n t n e t k ",
"k  .V f k  . .k V V V A +.r.@.@.n V +.+.V A +.V V A o.o.A A A +.n n B N C B e 7 h e e V r.V h V n e e V A n k n V n n +.o.n n V V n n n n k k n +.A n k n A A B V V V n n V B k A A A V V B n B h r.q.V V n e n A V V A V o.r.+.A n k k n n A r.@.e k h r.n V B e n e B 0 n e n h e k n k e q k m k e e e e k n A V n n B V B n n n n 6 q n 0 n 6 e n A k 0 n k n n k n V V V V Z A.r.N n n e k n k k V n w 6 w V e w n A n k k n n C A n N N e k k n V V B k e k 6 6 k k 6 w n w e e e n V n e 6 6 w k k k k n n 6 * 6 w 0 w e n w n n k n 6 e k w k w e B e n e w k 6 w V w 6 w w 2 6 k e 6 e e n n e e n V n t e e t e w w t h n k 2 2 e k w n V n w e n n q k h f k h 0 6 6 6 n n 6 2 e k w n n k e e w w e V n n k e w e n w n e n e n n k e e w k 6 6 - 6 2 e k 7 t : Z n M 9 6 B e 6 2 k 2 7 7 w k t e n 6 6 7 e e 6 2 2 w e e t k e 0 2 2 2 2 6 7 7 7 2 q e e e e * q q e k 2 e w w e 7 w t w e 6 t w w ",
"0 k k 0 q B B 0 6 6 6 0 e f h f * * 6 w 6 h B h < w V A n e 6 6 n e 6 - 6 6 7 7 e e e n A e w A B 0 0 V  .k 6 w 6 < 6 h e 2 2 6 w 6 6 w w w w e k k k k n B e 2 6 6 6 e e e 6 2 0 e e w w e e 6 % n n w e 6 * w k * 6 k w e n e V k e w 6 6 e n f * 6 e m.n e 2 2 e 0 k 2 e e n h e h n n e w e e w 6 6 7 7 w k k e w 6 6 w e e h n n 6 k A e k w w w o.q % V h w e h k k k n V +.r.n 2 6 e k A n k k n e w k +.+.e 6 k A n e w 0 w n n w e n e e h k n B n k e 6 n V w 6 e n k 2 e k k n n f 2 e e k V V V V A V e 6 0 6 < 2 e n e B n k B e V A h n e n +.B A e V J.n 0 e 0 e n V k k n k k +.V e k F A e w B V n k t w q n Z e w w k A A n e h V n w e A A e e e n A A n n V e B V k e k B B V B n n n V B n A A A V k e k A n 2.n +.n Z V n V N n n e 6 - 6 e V V k 2.m F.A k.Z 7 C e V k A * N n w V 2.A A e e n 0.r.V n N V n t B N B n V 7 7 w t n m l t m A n l V * A n t +.6 +.n N Z N n +.n A e 2.N n ",
"A k k n n V A h n +.+.n k o.r.A V k k A +.V n V A r.A n A k 0 B k e k e v.V A o.h 0 n r.V k n A w o.m.+.A m.m.A V A k 6 e n V +.m.V k n k 6 6 e V A V e e r.r.6 6 w B r.+.n k V V e e A o.k h V A n k A +.A n n V V B k e e n V +.n e n k w e n k 6 q e m.+.o.k n n n r.V k A 6 e h r.k k w V e 7 k 2 w % I.e 7 e 7 n A w * 2 7 w 2 n +.k 6 e w w n n w 6 e n n Z e 2 w e e e k t V n 6 2 t n e k B B k n A k 2 A N t e k V V k * w B A A C n e e A e q - k e V t 2 t 0 7 * C +.w 6 w B N e 6 w w 2 6 e n k e 0 V 2 6 e 6 w n e e e e e e e 6 * e e e k n k w 2 2 2 k w 6 q 6 k t - I.o w w 2 * m w 6 t m t e t w w q w 7 7 2 2 2 6 w t e 6 6 e e k B n 7 2 6 e 2 A n e w t V 6 n k e e w 6 w n & n B e k e q A B f w w e k h e 0 k B t w w k n C 7 e w n e O A e o e t 6 t 6 6 7 7 e k w 2 6 l 7 q F * m k 7 V - t 2 7 O t 6 6 w n e 0 w 7 - 2 w * w n % t - l 7 6 t Z C w 7 n 6 7 k n k w e n e 2 e n 7 e n w ",
"k w f k e h n e w n n 0 6 n A B 2 e k w e n h 2 e A B e B r.o.n 0 6 w 2 B 0 e h 2 * w n e e k k 2 e n h e n k w 6 k e 6 e k f k 6 * * w e 6 6 e w * 2 6 w n V e k e e e e 0 w e k 6 2 e e w e n k w w k n k e w e k n B V A +.+.V k k B k w e A e w V k V w h e k V n A n e V h r.V V w 6 w A B n 2.V Z 6 T.t t A e n V t e B A k e n A n e e w k V n e k A A n r.B w w e n A 2.k A A t e N V t e n n e e n V k M p 9 6 w n +.q.C A A N B n B B V 2.k n l +.N F n * e n J.F Z 0 n k n N N n k k n h h n V V n n A e w k e e h e e e e e k n k e V n k k n V B n n k +.V n V k A Z e ~.6 N n e e k e w e l k t t w e l N V V m n e e t n n t k B A +.r.+.C n V F n Z e 6 7 e C w +.Z Z F A N B A k  .+.A V n n o.V V A A +.+.+.o.m A A n e e k n N e e n N k w F n 6 l V m V l n n t k N V n n V k l +.6 F A l F e A V F k r.V n V 0.A V +.r.0.r.Z k A +.7 m 7 m n k n V k 7 7 k F A Z +.A B n n A e n A k n V e ",
"n k V A n n A n n A V w w n A n 2 k V n n A V e 6 w n n n A o.n A V A e V 6 0 e 0 0 k k e n A n n n n n n k e q % 0 0 6 f h w w e 6 6 e k e e n V 6 0 V n e k n V n e w q k n n w 6 6 w e e h e n f e n V n k e 2 2 0 e h e w 6 2 6 e k w 2 0 B k h A k B 2 e e e A k k k 6 n V q.n h B w k k k * e e n % A 6 e n 2 2 w 7 w n n k n f w k k e w k h 0 2 w n k 6 n k w 2 6 e n V 6 t e 6 - w w 6 6 e k 0 6 e k k N N p 7 6 e n V n t e w w e n N w t % 2 w A 7 7 - o 6 0 n 7 t 2 e t e w 7 e e w w 6 6 w e e e n w 6 * 2 e w < 2 2 2 2 2 2 e k e 6 2 2 6 w e h e e w n e w e 6 e n - 2.* e 2 2 w - 2 2 * - 6 7 6 w w q e q w w 7 w 6 6 6 7 w w e 6 0 7 0 6 6 6 6 n k % * 6 6 e * k e e n k w 6 6 n 0 e n e 6 w e % * 6 w 0 6 6 6 e k n e w 7 6 2 7 6 6 t w 6 t w 2 w 2 q l w w w w 2 - 7 t k t e 6 2 e + e t 6 e % 7 2 7 - e 2 - 6 e w 6 e n n V 0 * 6 q + 2 = 7 k k t e 6 6 0 e n e e t k e e e +.n B A B n B e ",
"w 0 f n e e k w e n k w 0 k n e w 6 e A A k k o.k 6 A L.B 2 h Z A V C w n < 6 e w e e w 6 n V 0 +.n e n n e 6 0 2 w 0 6 e e w h k 0 2 2 2 6 w k V 0 e V e * 2 q 6 e e 6 6 e f 6 e n B n V A V h w w w e h e w 6 n n B A A A n e k n A +.A n A v.+.n A n m.V o.V e +.e e V k B +.A n k m.n A k V 7 n N A w 2.k A 2.k k A Z F A n k @.V w n V n V r.+.V n V +.V e N +.+.V n A A N V Z C e w n V B e n A n k k k e A F / A n n k e n n C Z 0.0.r.A.m m 2 t n m.n n e 6 B e n w A V V +.Z n n C A n h e e k k n A r.k V e k v.+.h k n m n k k V A V e e k V  .+.A B B k A n n V h n F w 2.t V w e C e n n e e m A N +.F V n l k n m A n e e k N V V B N B n n B n n V A e C +.V B 6 A n n V V n e w q.w h +.n k V B f k n V B n k k t N A A A A N t B C n 2.B t m.w e +.7 l +.e l k l e q t V V V n t k n w t n k n V V k e q m m n A r.F n A F A F C n V A t m V S k V C n n B V B k e e e t e t n V e e n n k e e ",
"e 6 w f e k k 6 6 e k f k V V n n 0 w V V e k +.Z w A R.Z w n C h h n 6 B 6 k A n n n e w V V 2 r.n w k k w 6 0 w h e e n h w h 0 2 2 6 w e k n e 0 k n w w k k 6 k n e 6 w e 0 2 w w 2 2 q w * q e e k k k e w 6 6 6 e k n n k w w e e q w e k e 2 w 6 V e k e % q $ * k w w e w 2 * k % 6 w V k e e e 2 n 6 e B 6 6 t k n k 6 w A k 2 0 w 0 k k h e w e e e 0 6 k n 7 6 w w 0 w t e 0 6 w e w 6 w e e w w 6 2 * 6 9 e t k w * 6 6 w n n e e n t k % 7 q N w l 7 % 0 6 n e n * 0 e t 7 0 e w 2 2 * * * < < 0 f 6 e 6 6 B k 2 2 2 7 w 6 6 7 7 6 6 6 6 w k n k e w 2 e 7 w k 6 w k 6 k w k 2 6 k - 7 q 2 2 e k e e q w w q e t t e 0 * * 6 e e w e t e 7 w e e 6 * 0 6 k n 6 6 $ n e 7 w w 0 6 6 V < 6 n e w k e h e w w e k e w 6 w w 0 7 e t e 6 e 7 n w 6 A * % l % 2 l 2 w 6 2 2 2 6 7 w 7 7 q t e e 2 6 e w l t w 2 6 7 q 6 e N k w t t w e n t t e 6 2 r 2 6 e B N V V n e B n n n e 6 w k t w 0 t B t e n ",
"V e e n n V n w e k n k n n k w A A n k k n n k n h h n A r.Z 6 B n n 6 V w k V V n k e e A A 2 A k w h k e w w 6 e k n A k 6 w 0 w e k B B k k w k V n q n A n q n B k e k A q.r.r.V f k A +.A k B V V V V B k h h k n A A o. .B B n k e h n V B n +.B A e A @.n V q B r.+.r.A h k V r.n A +.m.A e e e e C e N A e e k n A F N @.J.m.A V n B +.n V V V A A A o.V V B t e n A +.e n V B n n n t o.A B n n V A o.p M N A F r.+.V e w e B V B C r.V A 7 k t V e V A k V w t e 0.V k N V V N N n e n k e k k e e k n A n n V V e w e k k k k k n k A n e e k V A A V h V k B +.n B A n B A +.V N A t k l l l V V m k l V V A V l k A V n t n Z Z C n C N t t B n e 6 n e n k w k 7 F N k k t e e k r.V A @.A n B V V k e h B A A V Z A B e w n +.r.e n n A N N +.n 2 k 7 q m m V n e l n l t t k k F 2.m +.t m +.m n t n t V t t 2 6 k t e B V n B B n n t l q F t * 6 e n n e 0 2 w w e e 7 2 7 k k t e n A k e A ",
"k w e e w e e 6 e e w w 0 6 2 % V n e w e f q 6 e B e 0 B r.B < V k e * h * 6 e e 2 2 6 w n n * e 0 6 0 w w 0 6 w h h n A k 0 h e e e w w w 2 * 0 w k h 6 w h 6 w 6 6 0 w e n o.n k w 6 6 e h k 0 e k e e h e w w e e e w 0 0 0 k n k 0 < 2 e V e 6 e 2 e * w w w w 2 e e e V w * * k k h e n 6 w % - 2 w e 6 t 6 - 6 w 7 t B t h w e e 6 2 6 0 e e f k k k n n B t w 7 7 w n A - 6 7 6 6 7 w w w w 0 6 < * 6 e : 7 e 7 6 0 6 2 0 2 6 e t e n Z t e % 7 6 q + 6 t w n % O O n n w w e k t w 7 w e 0 6 q e q 6 6 q w e e 6 e h 6 7 e e w 7 e k k n e 2 * 2 e n n h 6 e 6 w k 6 6 w w 6 e n n t 7 6 2 2 w t e w w 7 7 w q q w 7 6 e t e w e n n e e n n e w k k w * t w 6 2 2 e * e w 6 6 2 * 2 7 6 k k f e 6 2 e k e w e k n V V e n k 7 6 7 n V 6 6 w 7 e t 6 k - % 7 2 2 k e w 2 w q 7 6 7 w 7 n l * n 2 k V 2 e 6 k q A q q - - w 0 6 e n k n e t e q m q I.l n t n F F n e k w w e n n k N A n V n V +.e 6 F ",
"A n V V h k n k n n k n V A A V G.k w +.m.V k A n 0.A B Z h 6 n A n k 6 A n A +.V e e n +.J.m.n n B n n V A A V n n e e n k h A +.V k w w e k k k e n V k n V n +.n k B n e w h n n n A A A B n q k n k k n n e k B A A n k h h A q.+.n 6 w A J.J.n n e r.A A k o.V V +.n n m.V +.V +.w n n m.V +.k A V A C t A w e A 0.A Z +.B A w k +.B n o.V A B n V V B n n +.B n V N k n A n n e 6 6 t A +.V +.r.q.V e k V 6 p A C n k k k A B V +.A k e B +.F q V A F 7 t C e n w V B V * n e e B B e e n e 0 w k V B k e e w n n w n r.B V A A k k n A A o.V k k n A +.+.V e n e k V w w e k 0 n A Z V w e 6 6 k V l e e e q 7 7 e m F s.e n n t k V N k 6 k n w 7 t n e 7 F V n t n N - C N N N n e k V * V V f k e w V e e h e e e k n 6 k A A n n n n e 7 t 6 k n % B m 2 A k 6 A n e k n n k k N m k A n + m 7 F s.6 t 2 e 2 N w t 7 7 k w 6 w e e n n N k w n 7 s.r k 6 6 n n w w n k e w t k t e e N A B V A 6 * V ",
"V k q 0 6 < < < k B 0 0 B f 0 B h n V V V n e 0 B k e e f e w w V n w w e 6 2 h 6 w e n n k n V e 6 * 2 6 0 w e n 6 6 e 2 A 2 V * 2 o e 2 w 6 k e e 6 6 f w * 2 k e k e k e 2 V 6 w < 6 6 * 6 2 k k e w k * n n V * n O 2 w 0 2 6 n 6 % w 2 2 r.w 0 6 2 e V n w e k e w e n B k 2 * - w V A k 6 6 t 7 * 2 0 7 e e e e h n n k e 6 w e e h n B n w e w 0 w k k e e w 6 6 6 2 2 2 2 k e O O w e 2 k e e w 2 w e 6 6 6 w e k e 0 2 6 2 w V A k e t F e k e B 2 7 w e n e m 7 k e l 2 e e k e w m w A 7 w w k V q h e h w < 6 h k 6 k k e w w e e w w A V % k m.e +.n V O e 0 k n w 6 2 2 6 k m k w e w e n n e e n w w w w w w t n V 2 6 n e k A n n e e t n n k w k V m e e m V k n k k n k w e k 7 +.k 2 @.2 k k q A % 2 A n V k C k e n B n t k w 2 2 e m n t e q e t e e w w e 2 n t 6 e w - 7 V V V m F 6 V n 7 t w 6 t e 2 * m m e e V N n F l e 7 w k n l e F l e t t w q n k m k e k k e k n h n V n B A n ",
"r.V h k k k f f B V f f V k 0 n k n V V B n k e A n k V V k k B +.A k h V n k A V V A o.A n n V B k k n B B V A A q.r.A k ~.+.+.w A k k 6 A V e V m.r.A +.r.A A n h n f n k w o.q.r.n V B k V k k n V n A 6 A V n n A e k k e k V m.A n +.n w r.e e e e n A V k e n B n n A A V V V V A A A N n n A n w n B t e w w w e e e e e e h k e h k h w h n V n n n n n A n n V V B n V +.k w k h 6 w n k k n n e n A n Z B t e n N N n 7 t V V B n n n V w e e C w k n t k q n 7 k w k w k k A k k +.t k 2 w w k n 0 w e k h 6 w k n e k k h h k k k e w h n 2 e A w n e n % k w h n h 2 2 2 * 2 e e e t 6 6 t n t e k k e w e n B B n k < 6 k q e n e e w 6 6 w e t e * 6 6 * 2 k k e 2 2 2 6 6 2 2 7 e A A k k 0 +.2 < n * 6 V k k 0 N e 6 6 2 2 7 k k w 6 e l t e t w 7 7 7 w w 6 2 e B k 0 7 w 7 w e e w 6 l - n k 7 e 7 6 k k 7 6 7 7 * - q 7 6 e w 7 7 w q q 7 6 V t w e q 2 6 e e k w 6 f e 7 e w 2 w e w w h w ",
"V f 2 0 f f f q < 6 < 2 q 6 * 6 w e e 6 6 6 6 * e 6 6 e e 2 6 h k e 2 < e e 0 h 2 < 2 6 6 2 6 w e e e e 0 < * < * w e 6 * V 0 2 % e 6 2 * n f 0 * n n 6 0 f e w k 6 w 6 e f 2 B w e % 2 2 2 e w 0 e n k V < n n 6 o.e h e 0 2 0 k o.V n  .e < e 6 w w w e n k q < w h f e k n k 0 w e w 6 6 e k n C k e V V e 0 h k k e e e k n 6 w q e k B n e 2 e n k w 0 w w e w 0 e k h h k A 2 % e e * * k e w k k 0 h V n k w 2 - 6 e e e 6 n N w 6 e k w e * 0 6 n 6 e t k k w n 7 k 7 e 7 k k A m k +.k e * w w h k 2 6 e n n e e k n k A A V V B n h q B k +.A n A B A e B 0 n e k B B f k n k k n V V N w 2 e n n k n n e w e N A C B n w e n k k n e n k e e e n V A k V m e e m V n e 7 e l n n k m k k @.m 7 k A.* q V e k o.A A n Z V n e 7 0 k A V n k k k t t n V n k n V V k w A V N k w k A V n l k k F q F m k N k t A F V V V m t k F V k m e l m N n t e e F m m V m e e k k k e w k k e l n h n V k n V k ",
"r.V n B V A  . .q e q f B V B V q.r.+.n k n n k A n n A V e k A A V e e V V n V k h k B V n B A +.+.r.r.A k e k V e h V n k w n h 6 e k k n e A e A A k n B k n A n n n o.A e  .B V w k n n +.V h n A V +.w +.A w R.e B n e 6 e k V B V +.n 0 k e k n n k k h e 6 e n n n n V A t n n n k k N Z t n e e n n 0 6 n n n k e e n V 6 w q e n V B e w k n k e h k h w 6 6 e k h h k n k w 6 e n B h k k B n w h V n 6 0 w e t k k k k N B e 7 t n n n w k w V w n k k n w n 7 k 7 w * 6 6 k e w n 2 V e V B V A e k 2 w e w 6 w e e n k e e e w 6 6 e * n o.w 6 k e e e 0 w 6 0 e e % 2 e e e e 0 2 n 7 2 w t e t N w 0 6 w t n n k k e e f e h e w 7 0 6 - * 2 0 w k k k 6 2 7 w 6 2 * - 6 e w 7 w 7 w k e 2 e V 2 w w * * w k n k 6 6 6 6 * * - 6 t t e q 6 2 7 w 7 6 2 6 w 7 - + w * 6 6 + 6 n w w 7 7 q V 2 t - - 7 - % 7 q w e k k w e N l 7 q - 2 7 w 6 2 2 - 7 6 7 e w 2 - 2 2 7 2 * 6 2 - 2 w 2 w e 6 6 q 6 ",
"k f e e q 0 q k f w 0 0 w f k f V A V e w k k e k e w e e 6 6 e k k 0 2 e h w w e 0 6 0 6 2 2 6 2 2 e k k w w e n w 6 e e * 2 w k < e 6 2 2 O w 6 2 * 6 k 0 < w e 2 6 6 h e & 0 k n 6 w w 2 w < h n n n A 6 A V e T.2 k B n e k V V n n V k h B 0 w e e e w w e w e k k h h B o.B N N n k t e e k n k e n k e B k k k e w w k n n n n k n n k 0 k n k e e k k f e w w k n k h k k A n w h r.q.h e w k e 6 e n k 6 t V C n t k n B w 6 7 e e e n k w t 7 n 6 e w k n e n w k 7 w k n n +.V m @.k n w k e e f 6 e n V A V B V A A A n k k n n B A V w +.R.B k v.A o.n k w k n n B e k n m V V k w e 6 2 0 7 6 w n n B C A Z Z 0.0.A A V n V A A A A A A N n k k n m m n k k n m n k e e k k k f k m A k k A A e +.o.k h e n r.+.V e e e e e e t e l m V n t t k l k k k n n k e w A e n V e n +.V V n k k +.q V t e l q 6 t l k n V m t l F V e t V m n n N V V V q t n V V l k l A +.V n A V k m n f n n k k V k ",
"B B B B k q f n r.A V B f n V f n A A k n A +.B A V B k k n n e V +.V n V V k k k e w e h e e h w w e n n k k n k V n w e 6 n 0 k k J.6 w A k k e 6 < k o.k e A A n V V +.A w A k V e k k w k w w 0 0 0 n * k w 6 B * 6 k V n B n k e e w 6 w h 2 2 2 w w 0 w f w 0 0 w 0 6 e n e e e e t t e w k n k t n k k +.n n k e e e k n n V V n k n k e k k e w w e e 6 w 6 6 e h e w e k e e w e h e w w 0 e e w k V k e n n k 7 6 7 e B 6 * 6 e w e n w 2 w 2 t 6 e 6 e k e m 7 k 7 e 2 6 2 e 7 7 k - k 6 h w 6 0 * w 6 6 0 6 6 6 6 0 B w 6 6 6 2 2 w w < e +.6 < A e e % 2 O 2 0 0 w e e e 7 e k e 7 e w w e e 7 w B 2 6 7 w w w e e 2 q 2 % 6 w 0 e n n n k e w 6 6 e w 6 2 2 2 2 6 k e e e 7 2 7 e 6 w * - e 7   e e 2 e w w n w * w w 6 * 2 7 e e * 6 7 2 - 2 2 2 e w w e e e w 7 t 6 0 e 7 7 w 7 w 2 + o 2 o t q 2 w 2 % - 2 2 7 e w - 6 l e 2 2 l e 7 7 q t l n % 2 w e q 7 7 7 k k e 7 e w 2 7 w 2 6 w 6 0 e w ",
"q q q f q 2 < 2 k 0 f q 2 q k 2 2 e e 6 6 h h 6 e k e 2 6 n h * 6 n k e f e 6 6 e 6 6 e k k n B n f h k n k e h 6 k f 0 k < B 6 * % o.O 2 n h n w w 0 h V k e V k e k e n n 0 A 0 k w k e w V B n k k n r.e A e e q n w B  .+.@.V n V V e w e k B k h k n n n V n h h k k e e n B V A F 2.r.m.m.e e 0 w n e e N V B n k n n n n k B V k e k n n e n n k k n n n e w e k n n k k m e e n n q w k A n B V V q.m.A N B n t e e e k C n t k n V C A n t N t Z n A n 2 k e m 2 e 2 e n V k V k k +.e V k +.A V V e V A B n k n n n n L.+.V A V k k V k k k A e 6 +.n V q +.e A A V A m A A m m V A A k w w k n e w k n n B V C C C C w V n e V A V +.C V B N V N k e A m k k k e k k A A A V k k V r.n k k A n s.7 m k 6 +.A e A n e k V V k e n N V V A A m n V F V A n k n N A V n n t w e B n e N n t 7 - w % N N t m k 7 e k t n A V t l +.F l n V m n t t t m V 7 k V A V n m m k m e w k e 7 e n e k n h n A B ",
"A B B A  .B h f q 6 k B f  .m.B e A A k k V n 6 B +.V w k m.q.w w A o.V V n e f k e w e h h e k n e w k n n n B e w w V m.* B n k & +.0 n n w q.w V B k k k e k k w e w k k e v.k V k k e 6 V V k e e n v.h B 6 0 $ A 2 w k k n e w V A e 6 q e n e 6 0 0 6 6 w e 0 0 e e 6 2 6 6 7 w 7 6 0 e e e 7 * 6 n e 0 e V n h e k n k h V +.o.n 0 6 w e O < w w w q k k 2 2 2 w h e e e 6 w e w w w w w n q w q w n n 0 w 7 6 7 e e w 6 6 e e 6 6 e t w e w k 6 n w t 6 * e e n 2 7 2 e 2 6 * 2 * * e % 6 2 n n k h 6 e e 6 * * 2 2 2 2 w * * 6 w 2 6 w e k 6 e 2 * V w 2 % V < w 2 * 6 2 k m n k e e e e 6 2 e t w 6 2 6 2 * 6 w e 0 6 . 6 * & w w 2 e e w 6 w e t e 7 7 6 6 7 e e k m 7 w q 7 2 * e A 2 o e V 2 s.k 6 6 % A k * k n V % e B k 7 6 6 6 e t w 2 2 q t q t 6 * * w k e 6 0 w * 6 B n e F l k t w k % k e w l e 6 q e w t l t 2 7 m n w e w e e 7 - - 6 t 7 k V V n l k l w e 6 2 w w 2 7 0 2 6 w 6 e n e ",
"6 n 2 n w k n k 0 e w w V A n k n B V B n e 6 6 2 w e k k e e e n n e w 6 w k V 0 2 e k w w k k f e e e n V k w 2 2 k k - q V e w 6 w k V V k h 6 V V V o.k e +.6 n A n h B V k k A r.A n k k n  .+.V e n +.V 6 n m.r.e 2 e e 2 n V n k B k k V A k e e e w e k e r.B 2 e n e k 7 m.F e A Z k n 0 t e O n w e n w J.n r.n t k n A n k k k h h k q f V k k f < k e Z e e N n +.+.+.n n F A e e V +.A +.A +.n R.m.A k C B F w B A n n 0 6 k n e t V V B k h k V +.V k B 0 k 0 k h 2 q k n V A n w e N V l n A A n A w k e m.n V e V A k n +.n e +.A 6 A t * k k V n F +.N t e e w e q k k t V V q F A N e e l l l N A k Z t F n A A v.V V 2 n k A B 2 A 6 V n w w 6 V +.V k n n e k k k k k m m m e t q 2.n r.V l B n e e I.N A e C +.k 7 V V n +.e n t n F e * t t e e w w e n V n V N e e N A n l k A t t Z C 0.e F n A r.V V N +.F n 6 6 t Z 2.V e e B A N N A A w t F V k n n V V C N r.w Z n 7 k n k n F 0.A ",
"0 V w A k k k w e n w 6 e k e e n B n n e e e e k k k h e e k n e e w 0 6 0 e k e w k B h e k e e w w w e e e e 7 2 e q % 2 e 2 2 2 w n B h 6 2 % 2 2 w n h e n k n n w 6 e k e w k n e 6 6 w q w k k e e k 6 & 2 w e 2 * 2 6 6 * 0 w e n w < 2 f w 6 6 6 2 6 e 6 k w * * 6 0 7 6 6 0 w w e w 2 6 k e * k w w k * n 0 e k n n V B k e f k e e k e e k q e q * h * e 2 2 w 6 e e w 6 * - - * * % w 7 k k m 6 A w 6 * 6 * w O 2 0 w e - * 0 0 - 6 w w 6 2 * * 2 6 w 6 f 2 e 2 w 6 - % * 7 e 7 6 7 * % * 2 6 2 2 2 e * 0 6 n 6 6 * 6 6 2 2 6 * O * t 0 k w 2 0 7 e w e e 6 2 7 e e % % 7 e q k k - e e w 6 6 7 7 2 - 0 * w * e w n w k h k 6 0 w k e 0 n e n n e e 6 k n e 6 w w 6 2 2 6 6 7 7 e e 7 7 t V w q 6 % 6 w - 0 A w e w 7 t 6 2 k e 6 e 2 l e 7 t 7 * 7 7 6 2 2 6 w w w e e 7 6 6 e n N 2 * e w w t 6 w 7 n 7 e n w e e n N n 0 2 6 w 7 e w w t n n k n e 2 w V n k B B w t 6 t e 6 t t * w e w 7 k N N ",
"6 n 2 B w e w 6 e B k w k k e e e k n n k k k n n n n k h k n B n n n n f e w w n e n B k k n w h 0 6 e e 0 w k m e k m k k A V n k f k k k V q.V e h V A A A n r.A n k n B B n k V A V n n V V n B V A B k e w n e e k n k n V e B n n A V k n V B B B n k V +.+.C C V t n F F +.6 k r.V A r.k t +.V N n C n A N B V w A F V F A n n V V V B V r. .@.B  . .k q.n r.V A 0.A A N C C n e k C N e n k V A m.V I.V A k V n A e N A V A n t B n t B +.A V V V V V V n k V f A k A n m 7 6 l n e t A N e e A F n k m C n A V 2.n B k k n V A n N V e e V k n n e n B m V N l l m V V 6 2 t n k N V q l n l t k n k w e k e n 7 n k C e e B V V 6 e n 0 k 6 n k k n k n V B f e k k w e k k k k k k m w w V V l w t 6 w N 6 B A n n V e k e t A V e e 7 F A t k n k l n e 7 w k n n e e w w t n n V F k 6 n B V N w n n Z e k A n N n k n B k t k n k B k 7 * - w t k k t V A n n V n t N * V w k n V 7 n C k w k A F ",
"B A 0 A k n n n 6 k n h n n e h 2 2 0 e k k e w 6 0 e e e e e e e k n n k e w 6 e 6 0 w 6 e k 6 w 2 6 e e 2 2 e 7 * * w e w e f k q 6 2 * * e A V 2 w n e e k 2 h 6 * 6 h e 6 2 % 6 k n n n k e e 0 6 0 6 2 6 w n e w w e w w w n n 6 * 6 e k A w w e e w 0 e V k * 6 e * * t t 7 + 2 e 6 w e - * k 7 n 2 e 2 0 n 0 C % t t 6 e e w 0 e e e w q f 0 0 < 0 q % q - n 6 w k 7 6 * w 6 2 * 2 w w 7 e 6 6 6 e 2 V 6 t 6 e 6 t 2 e t - 7 6 - 6 * * 6 w 0 6 0 q e e w n e k 6 k w n n m q 7 t k q t V e 6 2 q e 7 - 2 6 6 0 6 7 6 6 0 6 6 e e 6 k V 6 * V 6 w n 6 k n m N V m n k w 2 k w q q 6 q l e t k t e e t q 6 t n n n w w w e e 6 n k V % 2 6 w V * V k n V e k k e 0 0 e w 2 w e k k e e t k 7 - n w t 2 k 6 w n * k t n e k e e e e N N k e w m N e w e k l e w 7 e k n k e 6 2 7 n N t e l V 6 e t n k 7 V t N 7 e V k n k e e w 0 7 e t k e t e 6 6 k B n e e N n 6 0 e 6 w t * k w e k k t V A t w t B V ",
"n V 6 A k k f f 6 k h w k n k n n k e n +.r.+.V n B A A A A A A e k V o.+.+.A V V n n n n +.m.A n n V +.+.B n V m k e m A k e k A A +.+.V e e n V w k A k n o.B A k e n +.A n k w k V V A A V n V k e k n n n B A +.A k n A A h V A k 6 k V A +.k n B V n k V +.A w n Z e w A F w +.A t A F n n e C N 2.e A t t n t A.e 0.0.C r.o.A V o.+.A V V  .B V k A A f  .t +.n V +.B n w n e e n e 0 e A A.F A n C w Z w A n V e A k A A e B n n n k t V n k h k B V n n e w k 6 k 6 w 6 e t t q q e t t n N n k n V n e n n k k e k n N A n A N w n A 7 6 A 6 0 k - e n t t t t t w 2 - m e e t 7 q l k q e q 7 6 7 6 2 6 7 t e e 0 7 6 n 0 n e V % 6 e n A % V n A V w h e w w w e 6 * 6 w e e 7 6 6 7 m 7 k 2 e 2 t 2 e n O e e k 6 7 n e e e e n V n k e t n q 7 t V w w t k n n B B k w e N N e w e n - w e k t 6 N 0 n 6 e V k n t k e e 7 0 6 6 0 O 6 n n V F C e w e V N w e n e e e w e N 6 n e A F A k e n n k ",
"e n 2 o.n e 6 2 V A k 6 e n n A e 2 O O 2 e e e e e w 6 2 6 w e 2 2 6 6 w 0 2 2 6 2 6 2 < e V e * < 6 w w 0 2 * 6 w 6 w n e 2 w w w e e w 6 0 h w 2 6 w < * 6 0 n h w 0 e e e w q q w 2 6 w w 6 w 6 6 e k k e 6 6 e w 2 6 n n w % w 0 6 h k 6 * w w e e e 6 w k e 7 t n w 6 e B * 2.C 6 N A e n 0 7 e n 6 e e - 6 w n 6 n n t V e 0 w e f w 6 6 k f k e k n 0 V k +.k n F B n w t 6 6 t 0 $ * k n t n k B 6 N 2 k w e 2 k w n k * w w 7 e w 6 e e e e e e e w w e h +.V r.h e 2 e N V n k n n e 7 k k 7 7 n n e w t 7 w * e w e e w q 7 - 6 w 2 n F n t e 0 e n k e w q q q t m t q n V n l m l e l n t w w e q * * e w V k N k A k n n V e n V V B 6 n n C n w n k e e k k e w e k k k k e w 7 m w e q t t N q V A 2 n A N e w n e k k w k A A A q t V k q n V e k B V N V A F V n k k e w w e e 6 N A A V e N 6 n w n C k n n t e e n n t w w e k n k t k k t n n A F n n N n B k n t r.e A t N A N e e n n e ",
"V V 6 q.V n k k V A h 0 h n k n A B f e n V A  .+. .A n n n A +.r.+.A V V B n k n V o.V k A r.V e n B n B A V e e V k e A A m +.k e w w w e B r.V V k e e 6 6 h k V V k k B V n B B n k n B n e n A A V V o.A n k k k k n V A A e V B k A +.n e V V V A A n n V 0 k n t t w w n w n n t N C n k N e V N n N A 0 B r.k n B V N N k e h n V k f e q 0 f 0 q f 0  .n +.k n Z V V t e e e k e 6 w k e w k e n 6 Z e n e t 6 n e V n 2 e w w t e 6 e k k k e e e e k e e o.B +.e e 2 w e t k e 7 7 7 t l k q 7 q k n 6 t 0 k 6 V k k w e 7 w t w 6 e t 7 n e - 6 2 6 e 7 6 6 2 2 q m 6 - q n e 7 w 7 % w k e 6 6 7 w - % 6 * n e n e e k w e 6 w w h n e n w n n k k e w 6 0 w w w e e e w q e w 2 * 2 - - q 2 e e w e t 6 w A w w 6 2 * e k 2 6 n e m 6 w t 7 q l w e e e e t t k k w e e 7 6 0 6 - 6 6 V n t k 6 e 6 n 7 e e 6 e e 0 2 2 w e e e e F V k w 6 6 e N n 7 e V t w w w e e 6 e B e B e 6 e e 6 2 7 w 0 ",
"e w . w 6 w k V 6 e 6 6 k k 6 2 6 w e e e w w e 6 w e e e e e k k e 6 6 w e k k 6 e n e 2 w e < 6 e w 2 6 n k * 6 m e % 7 e 7 k e w q e w 2 2 6 w h 2 * e 6 * h O w n h e n k w 2 0 e n V V e < k A A e 6 h n k n w w k k 0 w n A +.h < e V V V n k k n n e w e 2 N n e k e 6 n B * w A n B F e n - n w n e A * k r.% t e B N k h e k V A B k k q q f 2 0 e q r.e V 7 w n k n e 7 e t e t V V n Z N n w w * A k B e n 6 n t A n e B n n A n e k w e e e e e k B A V +.n +.n V n l q t V n 6 2 t V k t t 6 % 2 n * e 7 V k A.Z A n V k n A w * e k * A n 6 n e e m n n m t 6 7 l V t l V e w t l + w V N e q e k V e k 6 V t N e n A h n 2 n w e k 2 +.6 k e e n V n k k k n V +.m k t k n k e 2 q k t +.6 k q w w e e w +.6 t 7 6 6 A 2.e e A n F n V m q A r.q A B k n N A V n e V 2.0.0.0.N 7 e k +.n w k e B B m.V V V e V F r.V t t k k n A 6 6 e A A n n A B 0 t 2.+.A F 0.N A 6 A n Z F F e A 0.C n C +.0.",
" .A e e n k h V  .k n h V r.A o.A V B A r.r.V h h n B B V A A B n e h h e V +.B A A r.A m.k +.n k V 0 k 0 0 +.k A w B n k V e 2 n e k V n n k w n n k +.e V f w k w 0 w 0 2 < 2 k n B B n B A +.m.+.n e q k V o.n e w l V m l t n n C A t 6 w n V B n N A A n e w t n n k e w w w n t 0 t 0.+.k e e k V A V e 6 B e 2.n k C w V w k n e 2 6 e n 0 t V * w e +.n e n n w w e 6 $ 6 e 0 6 e w 6 w B t % 7 e e +.e w w w w e t n n k n t 0 6 w e e w w e t t e 6 * k w 6 n e - e 0 * 6 w w w e w 6 6 6 0 w e e e e 2 e 7 * q m l t w 6 w 2 w e 2 n 7 w k t 6 6 6 % 2 6 7 6 6 6 2 % 2 % % 2 t t 6 * 2 6 w w q 7 7 6 w 2 7 t 7 7 e e 7 2 - 0 w 6 2 6 e w * e 6 n e e k 6 * - 6 7 7 7 2 O O 7 e 2 2 e q e - % 7 - + t 7 7 7 6 6 6 2 % 2 2 6 e t e t l n O e n e k k k n 6 2 6 6 e e 2 6 w w 0 7 t t e e - % - 2 2 w V q * 2 t q 6 q t t 7 * n N 2 6 6 % * 7 k e 2 0 B e e w 6 w t k e n 2 e 6 w k * 7 e 7 2 6 7 7 6 2 ",
"h k 0 0 e w 2 e k 2 0 2 w V n A h w 2 2 w e w 0 2 0 e e e h h w w 0 e w * 2 0 * e 0 e 6 w 6 6 6 0 6 6 6 2 2 V w k 2 e 0 < 0 < * w 2 w n k n V k +.A k +.e B w 2 A n h h e w 0 w e f k k n n n V B n e w q e k n n w 7 k l q e V N k e e 0 6 e V e e w e k k e 6 w e n n n t e t C A V k n C n 6 e e k k e w 0 6 e k t n V n V n m.t 0 n Z N n A n V C 0 7 7 n e n A A n n A A n t N l k N B n A +.C w n n k 0.t 0 e n C A V n k k N C V V N n e k n V A V B n n A n k F V e V k w t n k k n n n V n n n B n k e e n e 6 l F m k t q e q m V q V e e m m k V F N n m m m V V n q m t q k m N V F N n e 7 2 2 7 q +.n V F N V F A V n n A A V n V +.A e V k F n n N t w e n n m N V N n n n k e q n F k 7 l n l F V V N N V V m l k 7 w V V e t V +.2 n A k A A A n e n A A A A k C B N F +.Z F r.F n k V V n V r.A t m r.F V F F n V e V Z N F B k V Z C n N C Z l A 2.A n m A F s.l A m V 2.l A l n V F 2.m.m.m.",
"k n n n V k w n n e n h k  .V r.V n f e h n n B V Z +.+.q.v.v.q.A A r.o.h h n w A e B e 6 V 6 n n 6 A 6 k e A k V e B e 2 w w e A n V A V o.q.A h 0 < n w A n e V k e e e w 0 w e e e k n n k h 0 w w e e e e e w 2 6 e w * 6 N n e 0 6 0 w e n n n k n V V n k e e k n n n n B V B n n B n e w 6 7 w w 0 7 t B - e * t B w V 6 A 6 O - t k w 6 0 w 6 7 * 2 6 w * 7 w 6 6 e n n 6 e w 6 w w w B e w 6 e 6 6 t 2 % 2 w k n t 7 6 6 w e e e e 6 % 6 7 e e 7 6 7 w e 7 6 n e 2 e 6 6 e e w 6 w k n n t e e k t 7 - w t 6 * w k w 2 7 - 2 2 k n 2 q 6 2 q w 2 q n e 6 6 2 2 7 q 2 % 2 - - 2 - * 7 k e 7 2 % * 2 w t t 2 - 2 - 2 7 2 7 6 6 w w w 6 7 e w $ 2 * e * + w 6 6 w w 0 7 e e k t 7 7 t t 6 - e 6 + - e e e 2 - - 2 6 6 2 2 t % * n m 2 2 m V 2 e e 6 e w k 6 6 k V k f e 2 7 * * e t 6 6 n e 7 7 t t 7 6 e 6 % 2 t q 6 7 7 0 n w e t n Z k * w e * * 7 w 6 * 7 t e 7 w q q l 6 q 7 q t 6 e 2 7 e e t t t t ",
"w k k k n w 6 h k e A n k V h V V V V V n n n n 0 w w 0 w h n n 0 6 w w * 2 6 * A e V k 2 r.2 A V * r.* k w e 6 V w n w < w w e k e k k e k V k r.A k A w V h w k e w e h e 6 6 h e e e k n k e e f n B V n k k w k m n t q e k t k n B N n k n e e e e k n k e n n N N V C A Z A n n V A n n V t t k k k B F r.V +.B 0.r.V F k n +.A w t +.A 2 n V t 2.k V k 0.7 k n t w t N A k V n t n k n +.e e k V k k A n k n n n B N V V A C n t n B k w n n n n t e e e n t e +.A t C k n V C n k V 2.m.A V B V A A n e N A n e n m t t m t l e m V w m t t n l e l V n m V V n n n k w k n V F V n n V n n n m V A A V F e q k k n V m V N N A Z A A A +.A w V n r.B n B n B V n e e n t k k t k m V N t n n l m V V V t t k m V n k t V q q A +.m n +.+.k m k e k 7 k V n V A n n n e B e t V A n n F A V A +.+.V V A m t n F m n m l n A k n B n +.C n V V n B Z Z V V n k n +.A.2.m +.V V V F A m V A F F A m k l n ",
"w f e e h 0 6 k n k A k e n e V V V V n k e e k n n n e h B Z Z V k k k k A +.n V w V k 2 +.* B B % +.% k w e 2 B 6 k w 6 k e e 2 < 6 6 2 k A n n k w k % w 6 2 k e e n V n e w h e w w e k k e 2 6 0 w w 6 2 2 2 k t * * w q * % 6 w e 7 6 - * e e e e t t t e 6 6 2 2 6 6 6 0 e 6 6 w 0 * - w e 7 6 2 2 6 6 6 e 0 B e 7 e * 6 6 n B w e A n % w e 6 V 6 6 * e 2 e t w - * - 6 7 e w 6 6 6 6 k - * e e 6 w e t e w 7 6 6 w t l N n w 6 6 w 0 - e 7 2 6 7 7 6 - 6 - - n t 6 k w - 6 7 2 - w n C e w 0 w e e 6 * 6 e 7 * - * % 2 e 7 q - 2 2 O q % % 7 w 6 q l q 7 e t w 2 2 2 - 6 2 7 t t q 7 7 7 7 w e t q 6 - t - * 6 7 e n t e e e e t k t e n n 2 k e Z t e e e e k e 6 6 w q 2 2 7 7 % % 6 - + * e e - * 2 6 2 7 l l w 2 * q 7 2 6 w q w 6 7 2 w 2 2 2 + 2 h 6 w e w w w * 0 w w 7 7 w w 7 w 7 7 q q q q e l 7 w e 6 6 e 7 6 6 * w 7 % w k e 7 w n n t e t e 7 2 2 e n t 2 e q 7 t t 6 6 2 e t e w 6 7 q t ",
"k n h e n e w n A k V e w n n q.+.A n e w e k n h n h e e n B B B q w w e A A k V e V k w A 0 B n 2 V 6 n e V w n 6 k e w n k h 6 w e e 6 k A n f k k +.e +.r.m.k e e B A V k e w w 0 w e e e e A A A A V V m n A r.V 6 6 A F t k V A N n n B N k k t k k n n n B n k k n n n n C N V F A N A m.A N t e k n n t V e m.B k A 7 V B e e A m.+.n e e e k F n n e V n A Z V e w e t B C n e n n t N N e Z N e n n V V V V A A A Z F A A V n n N k w C n e k C F V k k e w F C e A n e k k e e N Z +.F A V V V n n t l V l e t q 7 t A V A t t e 6 F t t V V l m V l l V V n t t t e q 2 2 7 t k t t k e q e l n l t n 6 7 t t l V N k n n k n n n e C V e V t A e e B B A A C B V Z F l n +.F e e V k * q 2.A 7 7 q l t l A A k 7 6 V V l e k V l 7 k k V k V A e A n e n o.A o.A e e n n e e n k w e e e t t l n m V t t k w e n k n t w A A w V m.n e e A A e w k t m N t 7 7 q q t n e V m w t w V m n k t t n m ",
"w e 6 0 k w 6 e n w k 6 6 h w n n e w 6 6 6 w e e n n n n B B k k w w e e V A h n e h 6 w w e k w 6 2 2 w 6 n 2 0 % w 6 < e e h 6 w k w 2 w k 6 e e 6 k % 6 2 2 n e w k n n e w 2 6 e k k e e q w w w e w w 6 2 6 2 * + % - 2 - 6 0 6 - - 7 w w w w w 7 7 7 7 w 0 6 6 6 0 7 6 2 * 6 e t e w e n 6 2 * * * 2 6 7 n k n t e t e t w - 6 n n 6 2 e * 2 t t n e n n 0 w w w 6 2 7 e w e 6 6 e e 6 w n 6 n 7 * 0 6 w e e e e t t t t 6 w e e w e 7 - e w 0 w k n e w w 6 2 k e - e 0 7 w 0 6 w e t e k k k e w w w e t t 6 2 q q 2 7 e w t 6 7 q 2 N e q t e 2 6 e 2 k l k t k n n t e 6 6 e k t q 7 6 - * 2 w t k t n 7 q t w w t e e k k e e k t 7 n N w n w n 0 w w w w e e w e k 6 6 q l l q q k l 2 t +.n e t q n t t V V e 7 w n w 2 2 e t w 2 2 e k 2 e k 2 m w 6 e k e h k w e e e e e w w e w q e e t k k t q 6 w q 6 e l e 6 w 7 k e 2 n V e w e e e e w e q m A n w 7 w q t n 7 n l 7 m t N n l k k t e q ",
"n B k n +.V k n A V r. .A +.k n k k k k n n k e 6 e n n n n e 6 6 6 e k e n A k +.A B w V w @.A B A 0 n f e +.w k 0 V k w n V r.w k V n e A r.V A V k r.n r.o.V A k w e n k e e * 6 k V V n e e n V V A A V n k e 7 e A A t q l n n n k N +.F B n n n n k t k k C V N A A A A V e N +.F N n t e F Z V k w w n V A 0.w B N e A e e r.R.m.k 7 n 2.n N m.C r.n Z B w w w e e t V 0.B B e e A A n n r.t Z e 6 k e B t e w w w e k n e k n t t n B n B B N V V N n k C n e A n 7 n e n n t e n B n w e k n t e e n A A n 7 7 V V e e q 6 q 7 l m w A k e l t 7 k A m q 7 2 2 t m k 7 n n V +.+.n w 2 m l k n V A m l N e k l 7 2 7 6 n V B k k n n e n V t A e n w t B k t n n k k n - w k e q e q 6 6 % w k 2 7 t - A k t V V t e k V 6 * e V n k n e k k 2 w k 2 n A B V n w h A A n 6 7 n n 7 7 n 6 w e e e t q w 2 - 7 q 7 t n e 6 N n k w 6 m k 6 t k 7 0 k n k e k l l n m k 7 q l 2 t t 2 V m e e t n N m k q ",
"n w k n w e B e w r.7 7 p 6 e 0 e 7 w 7 0 t t * 2 k 2 O e e 2 e k 0 e 6 e n w w e A A e n * A 6 O 0 w * < k k < 6 2 2 6 2 * 6 f w 6 6 e 6 % * e 0 6 6 0 e e e e 2 6 k w e e * e * * < 0 e e 0 6 0 e k h 2 & 2 n w e 7 * + 2 7 7 6 * % - w e e e 2 - - 6 w w 6 2 n w 7 e e 0 6 2 * w w e V k 2 * 6 2 - 2 q t k t 2 w n B n e 0 6 6 n r.k h n 6 h 0 k k * e B 6 h w w e n V B k e 6 7 w 0 6 6 w e w q q t . t m 2 7 e w w l k q t - 2 e V n 6 2 w k k h h f e w 6 w A e w V e 2 +.w 6 C k k 6 V n k 6 w 7 + 6 l 2 n w q n m t e n 6 2 6 k V n e e 0 m.C 6 A m.e - V t t m e % - k t m s.F w +.w V V e V e N 6 t n e l N n e w e n n n k w 7 e k e q.n k A +.B k k V n h k B V n k 2 7 n n e k A V 2 7 t m t 6 w n J.n w m +.V k l - l w t F l q t n q l l m +.e e n 0 n k N 2.e e l t k m k 6 7 l +.2 % t A l w e 7 7 7 7 7 e k V +.+.A m A m.s.+.* e r.V t n e n A N +.N n V n +.n e A n r.n V e B k A 6 6 A w w ",
"n k n n f n A V n 0.B n N B C n A n B B n C N 7 k V e e A A k A A k V f n A k k f V B k A w +.k e A +.n k A A n V V n k n o.r.+.V A A V B n k k B n n B V n k h e k A k n n 0 B k k e 0 q n A A A n e h n B k w 6 e w 6 w n C C t w 7 t N V V A B t k B V B N A t k n B V N n k B A V A 2.F n n n n l k e e e t n n t w 6 7 k A k V q.n n B q V A V A f B A w w n k n n B B n k n N V N n n B V N V t - - * 6 t n V k e n m V +.6 * * e n t 7 w k e e k k f e w B r.n k A f 0 r.e 7 V e e 6 B k A n N n q n F e F l e l l e t V N e 0 w e e t n w n 2 O 6 6 * 2 e q t N l 7 6 e 7 t t e q 7 t t 6 6 6 t e w w t r.n 6 * * 6 w w w e 7 - - 6 w 6 A e w k n n n V V h 6 6 w e k e e 7 e e - - w w 7 t V V k q t N m w 7 t l q 7 q q 7 % w +.F t - q - 2 - 6 n e l 6 * e e k V 6 w 2 2 7 e q 6 6 7 k 2 - t m q 2 7 6 7 7 6 6 7 k n e w 2 2 7 e k e * 6 A t 0 e 7 e n e n w 7 e 7 k e w e w k e e w n n n 6 6 k e w ",
"0 e w 0 e e w e 7 2 e 7 6 e e w n e e k e k t * e 6 2 e k e w e e 2 w 2 w n e n e w 0 e B 0 n e 2 w k e 6 6 w e 6 e 6 O * k n 6 2 e k 6 6 e 0 % k k k k k h w 6 n V +.n n V e A * e f 6 0 k k w 0 e e w w k e 6 t n l k n V V n 6 2 6 e e e e n V t e n t 6 0 n * w k e e n k w e e t n n k e w 2 7 w 7 2 6 w t 6 w e 7 6 6 w n e w e 6 w e 2 n A w k k k n 2 % k k k e w w w e e e e e w 7 7 7 F +.A 6 r.7 t A.w t w 6 w w e V t 0 6 t n n n N n k k n n n n k V r.B k V k q +.k w V e w 2 n t k w e e 7 e k 2 k w 6 w 6 - - 7 k t n C A n t e +.B n F +.k e k w e k n n k e w m V t k +.6 m.m e k w 0.n 2.n A J.+.n k n B n t N V n k k n N B m.A n B A A +.m.A V n n B A A A V t l V n k n n 7 l V V k k n V n N V V m n m m r.m k t e m F F A k V e k N m F n e n n N F n N e l n m m N k w k l N A F m k l k n V n k k V +.m k w q e k k k k n 2.N k A n +.+.n A n n A k N n B k n e B n A A +.n N n k A V ",
"n +.V V r.V w k n * V n 7 A n k A k n V N A V w V 0 e A A n n B V e k e k A n +.+.n f V q.V A V n n V A A V A r.n V B e e B V e e V A V n V A V k k k n n n n k k k V e h n q A * k V e w k k 2 2 k B h k V V e n n n n n k e 0 7 7 e n n t t n V e t V n 7 w C 0 N A k e n n w w w k N n k e 6 2 7 w q q t n V 6 e n n e e k V V e h e n n 6 A +.6 V +.V V e w k n n k e e e k e e e e e e w 7 - w e 6 V 7 2 w 6 t k e t w 7 l e k N n w 2 e A e e e e h e e w 6 e w 6 e w 6 k 7 - k 6 6 * e 7 l t t k k l k w k k m V n w 2 6 * 6 e N V n e 0 w % 2 k e 2 * + 7 q 7 2 2 w w 2 t w - 7 n - k w 2 6 * e w n w w 6 e k t w 6 0 e e e e w w e e e k w 6 6 6 6 0 e 6 w e k n n k e 7 % 2 n l e q 7 % 7 q w w t k e 2 e k w 6 w w 7 V 6 e 2 . * e t e 6 V 7 e w 6 q N w 6 - 6 e e e 7 q 7 2 6 q 2 O 2 q t e q q w 6 7 e e w 6 0 e k t 7 2 7 w 2 2 6 w 6 e 6 2 e w n n w t 7 w k 6 w 6 e 6 k 2 k e V 6 t - e e * t w ",
"w n w 6 k e * 6 e O k e 2 k 6 6 0 * 2 w w e w * e * 2 n k w w w k 2 6 2 2 6 * w k 2 % 0 e e 6 0 e 6 2 w e e w e 6 w e k w 2 2 6 2 2 6 w 6 * 6 n k h e e k n n n w e k 6 e n e +.e A n < % w k w h k w w V m.V * w w e n n n t t e e k n n e e n w 6 e V V t n +.e C A t e n n w k w n V t k n e l t e q e k l l w e w 6 * 6 t A n e k h V n 6 V n 2 V +.n n h k 0 e k k e e e e t e e k n n k e k n V 2.t F l + 7 l l t t w 6 t 7 t B n 6 * 6 t V B B V V V n k e n B B A V n V n e F N C e A n l n m m V n t k k m F F m e 7 q n n n n B A A A A e w w e N A k k N m t k V V t F k k m k +.7 k n e n e A N A B n B N n e t V r.C V N V V V V A e e k n k e e e k V A +.+.A V B V w t F V m n t l k k k V F A l l V V t t n n w A 2 N A V s.k * k w r.k F n V F r.A w e C F Z n m N k w e n k 6 V A V n m F A n m m V m k k m A V n n V V n k k N e n e e V n F +.n A n N F n B k A n r.N m.+.J.e V e F +.t F N ",
"+.A k q n B B A V f A  .B V k n k 0 e B V V V f A n k A +.V n n B w k k n B k +.A k e V V m.n A A n e h n k e e 6 e V +.V e e n k e e k e 2 w A k e w w w e h k w q n w h B k r.e n k 2 * w e 6 e k k e k n e * e e t n n k k n w 6 0 e w 0 6 w 6 6 w e e w 7 e 7 t k w 7 t k e n 6 e t - w V k n t 7 7 e k k t 2 6 6 6 2 6 w e w 0 e w k k * e e 2 n k w w 6 e 2 6 e e e e e e e w w e k n k e 6 6 6 l o n l o t m e 6 7 6 7 n n n k n n n n t w 0 6 0 w 0 6 2 < 6 w w w w w 6 * $ w 6 w * 7 * 7 k k l n e 6 k q k n t 7 6 7 t 6 6 6 6 7 e 0 - w k e 6 e A V e + 2 q e e l t 2 k 6 w 7 % F O 2 w 6 k * n w V k e w 0 e n n t 7 k e e e e w e t * 2 w e e 0 6 6 e k e w 6 2 2 6 e 2 2 7 6 e l e w - % 2 7 7 - * e t w 2 6 q 7 - 2 o k t t V 2 - t 2 V * t 6 t l 6 6 + 0 n n n - q 7 2 - 6 e e 6 k q 6 2 7 t e w w 7 6 0 7 w 7 7 7 e k e w w 6 2 t 2 7 6 7 k w n k w k w e n 7 e 2 7 w n e n n n 6 w 6 e k e k 0 ",
"V q 6 6 6 e n h 2 q 2 f n 6 6 0 q < 2 h f f e 2 e n w 6 n h 2 w 6 % 6 w e k w A n e e k w v.w h A V k e e k e 0 2 e V V n k k f k e q e e e e k A V n n n B B n w e k w k B k r.e k n k n n f 0 w V r.q.n e k V t t k n e 6 w n n e w t n n n n k n n e e e e 6 t t k n N V n n N 0 n A w k r.N n n k k n V F +.e e n V V N n k h n A e n V w k n n A e k V e V n n n n V V A V N k e e n V n e 6 q t t w n V n m V k q k l k A V n t k V A C n A A A A A A V V n n V V n A q.V n e A n V e V e 6 m m m V e 7 A q l m l w w k V N V A A 2.r.n 6 + n n e n n w e e m +.s.r.+.F A m V n w w A n 7 n V F B V V A V n n V F m.r.V e A N B C V n n V e n V V n n n V n V B k w 6 w e l n N n t A +.n A e e V A l t V A V m l k n m n t w +.w 7 n 6 s.+.t A.7 F e n l w k 6 n A B +.k n t q k n n n m V l e e k l l n n k e e n m k e k +.+.k k V V e A e n n A 0.N F N k A B n A n A k e n n A N V n N n B e k F n e ",
"A e k V f n B 6 < B 2 k X.0 q f k 2 0 B B k f 0 k q.k 6 A V 6 k B 0 k k k e 2 k V n n h 6 r.6 0 k n n e w e e w 6 n V k e B k 6 w e 0 2 e V n 6 h e e e k k e e 6 w k 6 e k w A w 2 % % * 6 w w 6 6 e n n e e k 7 0 w w 2 * 6 n n e 7 e n B B B 6 w 7 * 6 k k 7 0 6 6 e n e 0 6 6 % k +.e t A 0 e e e w 7 7 t N n e 6 2 6 e k n 6 h n 2 6 k 2 w e n k * e A w n e w 6 6 w e h e k w 2 2 w e w 2 % q l 2 V % * n - 7 2 2 e q 6 w 6 w w 6 2 6 w e 6 6 6 w q e w 0 < * 2 2 < e V k e 2 e 6 7 * w * * k k t l 2 * V o 2 e e 2 2 7 q k w * * 6 e 7 % O n w + 2 % % N - 2 w w 6 - 2 q 6 m 6 o 6 - F % w N k N 2 t 6 2 e t k e 7 w n A k e w t e 7 7 e e k k 0 2 2 0 e 6 e k k w 6 6 w w n F m q k q . 6 + * t t - 6 V l t q q w w t n k 2 t + q V o w 7 % F 2 F w e 6 e N 6 e e 6 F C 7 - - w q 2 2 6 l w 6 q q 7 w k k w 2 7 k n k 6 e A V 7 2 n V w t * 6 w k N w k 7 6 n e w t 0 k n w n 6 V e n w N e n * 2 A 0 2 ",
"k n n V * V B 6 w e w 6 6 w e e w < 2 O n 2 6 0 6 +.2 r.n e A e e h n V n e e e n m e 7 k k e m A k 7 7 k k e 6 2 e k e e k A  .e e e k q r.6 A n A +.6 V n V q k V r.w V e +.L.w n k 0 2 e n k N n k n n e w w n e e V B e e A e e k n V n k e 2 w e k A k e k C B n n n t n N 2.A B V N k k N l N A V l l A s.n l l n 2.t F n 6 N k A e 2.n w B n n k N +.F N n V V B V A +.o.k n e k V n f V n n F 2.n t C Z V n - 7 e e V k V k k k e n A k V k A C F r.n k w e n n k e k A n e e N V n V r.t k 6 w F N w n A A n t n k k A 6 2 t N k +.J.A k n k w t A V w n V n e e n n e n C m t n 0.F n e V A N N A V e k V V n B +.A n A V A e +.e V o.V T.e 0 V o +.e 6 e w r.V q.k n e V q.o.n k n n k w w k m k l A l n k w 7 e t q F e 7 l n q q N e e k V V k k A n l V s.t m 7 +.A e m.+.7 n A k e F n 7 n V k l n e w t n n A r.A A V m l l N A 6 k V n l V F F A r.s.+.V V n t t m n w 6 t k q n n n n t e n +.",
"e w 6 k 2 A n < w e w 2 2 6 w w n e e 6 A e k B w +.2 A e 6 k 6 e e e k e 6 2 2 6 e 7 2 7 6 2 w k w 2 2 7 w 2 * * 6 e k e e k k 6 0 6 6 2 B * n e e h 2 V w w w w 6 q 6 V 2 w V * 0 w 2 6 e e w t w 0 w w 0 6 7 2 * 6 n V t 6 6 B n e w w e k V 2 7 2 0 f 7 6 k n e w w w w k V e w w w w 6 6 7 7 7 6 6 7 w e t w 6 2 2 t % t 7 * w 6 e 2 k 0 6 V n e e t k e w 6 6 6 6 6 0 w q q e 6 6 w 2 % 2 - % 6 0 * $ * * 2 q % * * * w % e w e e w t n w e 6 e e e n 6 6 6 6 6 6 6 2 w n k e e e e e k B k e - 6 k e w e n B e 7 e 7 6 t 7 7 e 7 2 7 e 6 * w V A n 7 6 e 7 2 2 w w 6 6 7 n N k w e n n w t B n w w n n e r.A k 6 6 w w 6 6 e k e B q k A e o.e 6 B * k * k n e V w k e B f n n e 6 0 k n e 2 2 w q 2 2 w 7 w 7 2 7 q w 2 t w 6 6 w q e e 2 - 2 t t 6 2 7 m k m +.t l % e e % e 6 . 2 e 6 7 t 6 * 6 e 6 - - 7 7 - * 6 q q q q w 6 2 2 w e 2 7 q w w e t l w e q w e l l e 6 e e 2 6 e e 6 l t e w 6 6 t V ",
"e e h V h q.o.k e k e 0 6 w e k k f k w V h n V n r.w A k q B e n k n n k w 0 w n A V m A m k m V k k k k k e w k k m +.+.n k V n n k k e A e A A k k n m.n k V A w e V J.k e A h B V n V o.A k A B n n N n N A n e 0 e V Z V t V A A A B n V A n m n m +.m k A N n k n n n N A n n n n k w e k A n e e k n l t n t q w V 7 F N n k e B e n k V +.B n A Z C N A +.V B A A n n A n n k n A V k B N e n V n k n e n r.A V n l A t k k V V n N A n Z n A n N A e t k e e k n t n N n n n e e n B n V w w k k k k w k V B n V n e t k A V k k k t n A e w n n e e n n 0 w V V w w n +.+.C k n A A n e n k 7 7 e k e V k e k k e 2 % w B n V n n n J.n B n 0 V k k w k n h n 6 w w V k k e 6 * 6 h n n k k n k e e k e t t t n m l e l l t w t V V t q 6 w n N t q e q 6 w m e V 2 l s.l 2.V 7 V V l k e e w w n n 7 6 m V w 2 e l q t t t t e t l n l t t k k t l m A m t t m F F V t l k e k V V t F N k k k k m F ",
"O 2 w e 2 2 6 w e k f w w e k k w e e 6 f w w n e n 6 h e w B k 6 2 < 2 * * * 6 k k e w k k 6 6 7 7 7 7 w 7 7 6 6 * 2 k e 2 2 e 6 w 6 2 2 6 < e n w 2 6 B e w k e 2 * 0 B 6 * w e h e q h k e < e 0 6 w e e e t e 6 * * 6 n n e < 6 e e 0 2 6 w 2 q e l A k 2 7 6 6 6 e e 6 - - e t e w 2 - 2 7 V t 7 6 7 7 6 - w 6 2 2 l 2 V n w 6 2 e w 6 6 n n 7 0 n B e e B h 2 < w w * * w * 2 * 2 k e 6 w 7 * 2 7 2 6 w w 6 e 6 q 7 * 7 2 w w k k 7 e n w +.n A n n V e t w 6 w k n t w w 7 e 7 * - w e 0 e * w n e e e % * w e k V n 7 0 w V n w n k e A +.e * * 0 7 w e t w e n k 6 0 k N N k w e n N n e k n k t k e 6 k f n +.+.k 0 6 h V 6 k 6 h w r.e w h % 6 k 6 n w e k V n k h n e k n e w e k k e w e k l e e l 6 w e e e e e e t q 7 6 q t t w 7 2 7 l l e e n 7 2 2 t 7 V e +.l 7 V n e V k 7 e 6 e t 6 t V w 6 l m q w t k q e e t t k l n m k w 6 q e w q t N n t t l m m n e e 7 6 e n l q m t w q t t t l ",
"e k V V V h h n w e e w w f n n e B f e e k e n n B k k n k +.A V n h e e e n A +.V e e A A k e l k n m V A A A m e 7 k k w k +.k V k e n e k B +.+.n k V +.A q.k n w w e e w k A V k k n V n e k e k N A V n B e k B V Z 0.Z n A A n e w h A G.e k k V @.A k k V n n V C N k k A A N k e t n C A V n l k l l l m l k k +.e +.N B e n A Z e k Z m.A C 2.+.n n A V e w n n e e n V V n V q.A k n n w t n 7 w n V N t 2 n m 6 t n e w e w 2 w t 7 A n V k k n w t e 6 6 w e e 7 6 t k e 2 6 e e 6 k 0 t V t n V 0 * e e e n n e e e V t w k w 2 t 7 n A k 7 7 w e w t k w 0 7 t n n n e w e n n n e n n k k e e 0 r. .A A n w w n n V 6 k w n w V k e A 6 6 n < V 0 6 e n A n k k e k n k k k h e 7 7 e k k e k k w t n l q 7 e m n w 6 e t 7 6 q t t k n k w t V q q e n 6 l 2 l 7 2 l t e V t e t 7 l n 6 w N e w 6 6 e l l k k e e t k n n n n e 7 6 w e q e t 2 6 7 e e t k n m k w 6 q k k e e 6 6 q t t e e ",
"h 6 2 2 A e 2 2 w k k k k n B n k A e k e V e n e 0 w * 0 2 e e n e 0 6 2 < 6 h n k 2 2 n n 7 2 2 2 2 2 7 e e e e 2 2 6 7 6 e m 6 k e 6 k < e e e n 2 2 2 k w k e B 0 6 * w 2 q e 7 2 2 6 w w w 6 6 6 e k e 7 6 6 6 7 7 7 7 e t n k e w 6 w n A e q 2 2 e w 6 e k w 6 6 w e e k 7 w 6 - 2 w t k 6 6 7 6 6 7 q l e 7 6 2 e + 7 * w 2 e k N 6 w k t w w t t 7 6 e n w 6 e k e w e e w 6 w B n w e n e n n 7 6 e k n w % e t - q l V k k e 7 k n e A n A n n V e n F n w w e t n V r.0.A B N V B t A n n n k V F N n A n w k N B V n N n n N k w k n A A e 7 n n e t C A k e n Z +.A C N n k n N V B n e w 0 7 w e A V V V k w w k k n e V A  .k B e n @.B w n % k k 0 e w n e k k e e e 0 0 e w 6 e k k k e e k k l m A A l e n +.A t t V m 6 7 m V N V V n q t N 2 w n V w k % 6 r.F 2.l t V t n n n N n q w k t t 2 - q n n n V q e e k l n k t 7 e t e e l n k 7 w t n l e e t F V l t k n n l t q w t n k t t ",
"k e w 6 r.e q n w h n k k k k e e B 6 e w A e k m.A r.n o.B o.A n k h h e w e k V A n m @.+.k k e w 7 7 e k k k t k k k n n n B f  .V n r.w A V k n 0 n e k 0 A +.r.n +.B V w V V k e e k n n B N n n A A V n n A n e e w 7 n 0.A A V V n V V V +.A t e V m k A n e w t n n n n n n k e n A C n e t t t k n V F A n t w n 2 n q k e Z N +.e V V e e k n B N V V n k e e k n k e 6 6 * 6 B B k n A n A +.N l n e k m q e e 7 m l e 6 6 6 6 t k 6 w 6 e 7 7 e 6 e m t w w w w e k N t e t n t w w 7 t w 6 w e w 7 6 n e 6 w t e w e 2 0 k n k t e A e % O * w w 6 e n n k 7 6 e V t e e e e w e t N n e 7 6 6 7 w e h k n B V n e 6 6 6 6 n e w k % e e e 2 e % 6 n w k 6 n 6 n n k h w 6 6 w w 2 7 e e 7 2 2 w e 7 7 t l k q e n q q e t 7 - 2 t t 7 7 t t 6 - 2 6 w t N q A 2 q n n n - * 2 + 6 e e 7 6 q 7 2 7 q 7 2 2 7 t n n 2 2 2 6 w 7 6 - % w t 6 2 e e 6 t e e n l q 6 6 k t e t e q 7 7 k q 7 w w 7 7 e ",
"$ 2 e 2 n O 2 +.* 6 e w 6 6 2 * 0 n 2 w w +.h n e 2 h % w < 6 6 * * 2 6 6 2 2 6 * 7 w q k w 2 2 e 0 2 2 6 w w 7 O * 2 0 7 w 2 % < k e w A * n e e w * A e 6 & V n e * A n w o 6 k e w w w w w w n e e k n e e e n w w n n 0 0 k +.B w * * 6 e n n k w q k t 6 w 6 2 6 t n e - + e e e w e n e * w 7 6 6 7 e t k l e 2 - e * n t 6 6 n 7 n 2 t e e n n k e k k e k k e w e k f 0 V B e k +.A n A n w n F A N k 2 2 F N w 2 w V 7 k 7 w e n A A w 6 - e w w t 6 e t t n V B t w e e 6 6 t N k e t 6 A N k Z V 6 6 * k N n A A t 0 V 6 e A B n N 7 t e t n t 6 6 n V n N A e * - n e e t k n n N A n k k k e w 6 6 +.V e 2 e +.q.V n e k * k 6 n +.6 B w n e o.n F e w A e V 6 n V k k k h k k w * n V V k t l V +.q w e V F V n n 7 m A l w q k n e 2 2 l A m w 2 V n e t 7 F q k 2 e N q t m e A n n 7 7 F F k m A r.F t t +.J.r.l l k n n n t w - N F t q m V q V k k A +.F V V k l N V V k e e r.A m n k t l V ",
"A k h V B h n r.n e e n n k e e +.o.V n A r.B 2 e !.m.w n k < e k e e 0 w o.r.n k k k n A A V B f w n  .e A 2 n r.k m.e V B e e w 0 h n h 6 e +.A e w V +.A n n k k k n V n e 0 q n A A A B V A 0 w n e +.k n V n V +.B k e 2 n w V - w N k B 7 n A 6 w e 7 V w e w e k n n w 6 k n n n n t 7 2 e e 6 2 7 l m m k w < n w w 6 A e +.n n N e k e k e k 6 e n k r.A * k k 6 B  .n n k k V A A A A B n t w w e e e 6 2 6 7 7 6 w n l t e e e t t t - 6 q e e q t k 7 7 q q e e q q e k 2 - V * C n e k k e e k n t w C C e w N k * q e 7 q n q 2 7 N q - e A k 7 k % 2 6 q t 7 2 t 2 6 2 2 6 e n n w 6 2 6 6 - 2 7 F A k e t n w * - * 2 e n n e e - 6 2 n 0 w 6 n t * 6 0 e n 2 6 O V e % e w * k 6 - n t 6 k e e 2 % 2 - 6 t 2 7 2 q n * + w 6 7 t l t 6 2 7 6 + e 6 t w 7 e 2 7 t n B * % t 7 2 w V F 2 n - 2 7 q 2 e * A   7 l 2 2 t * 7 % t l 2 l t 2 k * N * e V % e 2 6 e 7 e n V e l t % t t n N l 7 6 e n ",
"e 6 * 6 6 2 2 w e e e e w 6 6 w w 6 7 e h w < % 0 n n w e n n k w 6 0 6 2 e f < f w 6 0 e h e e f w e n w V 6 A k w n e 6 e * w e n n e e n A A k h e e k n n e e h k n k e 0 6 6 q e e w w e k h h n e r.k n B e k V e e e 2 n w N 2 w B k B w e n - 2 6 * w % * * * * 0 e e e w e t n n n e w 7 w q w e k k e n n 6 h 2 k e n e F t e n e n k n n A n V A e A n * k n w n n V k k k k n n n n V Z Z N k n n k k t t n e w w t q w w e n V V V V V n k t t n m 7 q k m V V m n N A e w V t N n e t k k n V A V n V n 7 7 n n 7 V V l n A m t n A n e A A.F m +.2 t n m m q w V t k l k t t t e A N n n n n V A 2.Z B k n V n e n e e n A C V V B B k 2.n C n +.B e n k n N e V 2 t t q e k t q l e F m e n k e l w t w e m q t V l V k e k e V l t e e e w 7 6 n e n e e N n +.m.V B 7 w V k n k F +.e n l n n F V n k I.q F F N +.F n t A V l t l l F E.A r.w V +.q F l m V l m n V k n V 7 k l m V m t q k N ",
"+.B h h n V V n B n n n w 6 w n w w k o.A w 6 k B 6 e n e n +.k k e n B h f k 6 B k w w e k k k A k n B e +.V J.V V V r.q n 6 A w V k * 2 A +.e e V V e e V V k 2 w h k e w e e k n n k e h n A k e k w o.e e e e h n 0 e k w V 6 n 6 w n k n t t n 7 e k k V e k e 6 0 e n V V 6 6 7 e k k e w 2 w f e e e w 2 n B 6 0 * n k e 6 n 6 6 7 6 e e k k V k n n 6 f e 2 k n h w 2 n q w w 0 w w 0 6 6 t n e 6 2 2 6 2 2 6 w w 6 6 w 6 2 - 6 q t q 7 q 7 6 6 7 w q q 2 6 7 w q q w w e k e 6 w A 6 7 2 6 7 7 w k n k e e w 6 6 w 7 6 e e 6 6 t q 2 7 w 6 2 e m e 6 l O 6 q w 7 % % q * 2 7 e t w 6 2 e w 6 - 6 e e e n n e w w t t w k w 6 w e e e e n e 2 n 7 e 0 n w 6 k w 6 w 0 V 7 2 e k 7 n V 2 6 - l t 7 n k t e 2 q 2 6 e 2 w n 2 7 7 6 2 % t t 2 2 e t 2 2 q 6 2 e 7 w n t A V - * * 6 w * 6 6 t q 6 % l m w q q O * l 7 7 - + e * 2 O V w % l - O 6 V 6 6 + 6 t % e 2 7 2 * k - q 7 6 k 7 6 k n m n l l l n ",
"e 6 * * 6 k e 6 n h e 6 * % 2 e 6 w n V n e e k e 2 6 e w 6 w w e 6 h V k e f e k e 6 6 w e e e n k e q w k B q.B n n +.e q 2 n 6 n h % 2 V A 6 0 e h w w k k w w e k k h e e e h k e e w e k n V n n e r.k h e w w w * 6 e 6 n q N k e V V V V w e 0 w e n n e n e 7 7 e k n k e e t B V B k t k V A m n n k k B B 0 k w A n n 6 B 0 0 e 0 t t n k B e f k 0 B V e n B V e % k k k e e e k e w t N C n t e t t e t k n V V A F V m n N A F N k t t k m A V n t A V n t e q e e n A A V N ~.t n V A A A A Z F A V V A r.r.F N n N m t k A m e t l l t n V t w m 6 k n l n t q n w q l V F V l l t t w 6 e B N k A F A V V A A N N k e n N B n B +.n 6 B e B e B N n +.A V A V J.2 7 e q q n N e m t +.A V m.2.+.n e m t t V k V A w t e e e 2 l V n n A F V m V n k 0.0.r.J.A +.r.n A A +.0.n V l m t l % +.r.t V +.- n V +.k 7 e m e t e r.F n s.m e l A l k e F +.l F l V k k F q V V t A A m e e e t l l e q ",
"A n f e V +.o.n V k w 6 6 2 6 w 2 f k w w n n e 2 e 0 e A e * n e 2 e n e e k k B k e e k k h e k k h e e e B V f w e e n 2 w e w k k e e n B k n e e V A B k n V B n k h e 6 2 e h k h e e k k e 0 w 2 V w 6 6 n n n 6 q V f A * 6 6 * 7 e 6 e n t e 7 7 e 0 2 w 0 7 e n n n t 6 - 6 e k e 7 w k k k 7 6 w w w 0 * o e 6 e < w * t 6 6 w 6 w 7 * 2 0 * 6 e < k k 2 2 2 6 * . 2 6 0 6 2 2 w w 2 7 w w 6 6 w e w e w 0 6 7 e t t 7 6 6 w k l t w e q w e e w 2 % e q 7 2 - * % % % 6 e w 7 m.% * e k n e e e e 7 w 6 e n n e 6 6 e e 6 w m t 2 2 q t q e k 6 2 t * 6 2 2 e e 6 7 7 6 6 q w 2 - 2 6 6 6 6 7 e e 7 6 w e w 7 w 6 - 2 * * 6 w w 7 7 n w % w 6 e 2 w e 6 n k n N e V 2 A l 2 n m k +.l 7 n q 6 t 7 2 2 % 6 * * 6 * 7 e 6 e 2 2 w - 2 6 q q 7 q t e 2 w 2 t k V +.e e e w n 7 6 k 7 w q q 2 6 . l l * 7 n O e w n 7 2 k w e 6 e 2 e t O 2 k k w t 6 2 m n 7 e * e - 6 t * k t - q e e w 7 7 q t t w 6 ",
"n k e e h k h e +.V n n n k k n w V V 0 w A +.h 6 +.n k m.k % n k w e h w e n h A n k e h h e 0 e n n e n w V e e e n e A 6 A k 0 e k n k e k n A k k +.r.A V o.n h e e h k e w k k n n n n n n A V A n J.V V V n V V 6 w V k  .n N A k A r.N F n e k 6 7 k 6 6 e e e t n n e 7 k e k F 2.Z C Z +.A m k k V V n A k w m.+.+.n r.n m.Z +.r.Z 2.+.w h A V +.r.B r.+.h n k n A k V n V n k n A A B n n n k n A A V C V n k n F 2.2.n n n n m m n l V m k t t k l l t l m V V m k e 6 n N n B F 6 6 n C A V V A V n n t e t k t e k A V l N s.F k k n m l l V n l F 7 e 7 7 N A k t N k t m m k l V t e k N V n n V k n n k n n e 6 n t t N A A V V F V e F N F n V B e N V A 0.n A - +.k * n l q m.V t A l e V l e l e n e w e 6 e V m +.N n F l n k A A n m +.A t n 7 t e B 0.n N k k N 2 * e e n A A V V t F A k 7 n * m k n k V m w m q N - n +.% e A l - l 7 t A n e t 2 m 6 k N t +.V t m l V e w w e k k q 6 ",
"k e e k e 6 w n k e e k h e e k w k k w w n n e 6 h w w n e % 2 6 2 6 2 * w f < e 6 < * 2 6 2 2 2 e e 6 e * n 2 < n h e e 6 V w 6 w e e 0 w e e w 0 w e f k n V 0 0 w w e k n n 6 0 w e e e e q 0 6 e 2 n 2 2 6 * 0 e O O 6 < e w 6 w * e V 6 e e 2 7 * - k 6 w t w 6 6 6 6 2 * * + * w e 0 6 7 2 2 - * 2 7 2 % 6 6 * k 0 e 6 e 6 n 7 7 e 0 e e % * w 6 e k 2 k w % e 6 % e h 0 * 6 2 % % 6 w 2 6 w e e w e t e e e e w t V A V e e e w 7 6 6 7 w 7 2 - - 6 e l 7 q t k l k e e 2 t e w n 6 w 7 w e k e e k e w e e 7 6 6 w w 0 l e 2 2 k t 6 6 e e 2 2 q w 7 l % 2 * % 7 w 2 2 t 7 6 e t w t N 7 2 6 t e 2 6 n t e 7 6 w t e 6 n e w e t e e e e w 2 V t n w t w * w 7 e k 0 t 6 m e 2 q k k V w * e 6 2 l t q w 6 k w 6 7 % 2 7 2 l l t e - e e t t k n n l e 7 2 w 6 6 e 6 e n w t 0 6 w 6 t q e t w N t e t w t % k n w e V 2 2 q w w 6 t V t e k q + k - n n e t t 6 F w N q q k 7 q e * w k t e t k k e 7 ",
"e w e B k 6 e o.e h n V n e k V k m V V B n n B e 6 e V V q.r.k e e h e e A o.w n h w 0 e n A A k o.A k +.q m.n 6 J.V +.6 e B e 6 e e 2 2 e e w e B V e q V r.r.f k k k e e h n k h h k n n B B V V o.n r.h k n 0 n V 6 6 k k A A n V e C A.k V r.n A w e Z e n C n w 7 e n N V V k n F +.B k n k k l m +.+.n 7 e B f n 0 V k n n 2.n k n k V V n n V e n A n r.B w r.A 6 A q.k k B n q e V V k w m Z A B B N B A Z C n n A V k w e t t e e l V l n n l e e t l +.A n e e e l n e A k e 0.6 0.+.n N V N n B n e B A A V A A V e A l 2 2 l k w t 2.+.n t N N m F 2 e q 6 e t w w 2.N n V n q q m C e k F V w t m.+.C k e n A A n +.n e e e w w w w e w +.N V e n N e n k n V n F k q k t w m +.t V e N k e V n e e q V n k l 7 t e * l F V w * m t 7 q N A l t n n B m.F n n w n n - e N V e % w 2 6 e 6 2.w w l m l - l N 2 7 m - t w t % e 6 7 e - w A l r.6 N e 6 e l q r.e V k l k 7 n n % 7 l k t t t t e w ",
"h 6 * * 2 6 e V n e w k f 6 2 e w e e 2 & 6 h 2 2 m.* k w * e n 2 r.w k % 6 e < 2 e k 6 2 6 2 % 6 V < w 6 e 6 6 e k n A V k k n 6 w 6 B 6 0 % 6 n 6 * 0 e e k V n e 6 w w 2 < 6 n f w 0 6 6 6 e e e e e 6 < 6 e 7 * 7 e % % 7 7 A % 0 w k 6 B w k 6 e $ A * k B k n e 6 * 6 7 e t l t t t 7 6 n t q 2 n 6 + n 6 % e O l 6 7 w 2 6 6 2 2 7 l k 7 % % w k w 6 w 0 6 6 h h 2 6 0 2 w V A k w 2 2 n F t w q 7 q t 6 n n k w 7 e t q 7 e w w n t 6 7 t 7 7 e e 7 7 t q n n m V t 6 w e w w e k k e 6 e k n k e e e e e 2 w h 6 e B 6 2 t l e e k n k t k q q e * % q * 7 k - V e e 2 n 7 - 2 e t e q o 2 k t k n k 6 k k l k 7 k V k e * n q q 2 V q w e w 6 7 e e 2 w n B e w k k e t 0.N e V A e t 7 - % * 6 e t e V l k V V n e 7 e e w t A V k n k t l V V t k V 7 n B e 6 7 k N t 7 t n e e w * w w w e k k e 6 6 w e t e t t t k w q l t 2 2 k k - e e V t V e q 7 t V N e q k w 7 2 2 6 r t 9 7 m.F e V +.V V ",
"A B h w 0 w f k V n V o.A n k k A V V n e V A h n T.k m.A k A B o.R.n A 0 k V k e V A B n V V k n +.6 k e k k V n k e k A A n e k e k n n h n A h k k k k B A A V k f n V k k n e e h n n k e k V B V B k e k V +.m A A k w k k V 6 w k n e k f k F F 6 N V A k V N 2.e n w V n n m l k n e w m k t 7 q 2 2 m l e N t F V m n t k m A A A V e - n n k e e q n +.h e k k 0 w k e e V V k e 6 6 k F k t t q e k 7 k m V m m V n k n V l k V N t l q t n V l w w t 7 t k t n e w k e t k n k k t e V A A B n n V A k k +.r.h e n w + 2 7 2 2 7 7 2 w t e e n q 2 e * q t 2 l t e 6 m t w t m m l l n V n w 7 k k w 0 w 7 7 w 7 6 7 k 2 l t 7 6 k 6 e k e e e k k w e k k f e k n n w k e e k t 0 6 n l e e e e t t 7 2 7 e k q 2 * 2 6 2 6 q 2 * 7 q 7 q t t q w e * k Z V e w t n n e t n e e e 2 t e e e k l l k 6 6 7 w w w 7 7 e 7 7 t e 6 6 e t 6 l w t 7 V t q 7 6 q e q 7 7 k l k q e t t r e D A t t n n k ",
"e k e < * 2 2 * h e e h h e e e k 2 2 6 6 w w * 6 k % k * % w % n A 0 k 6 6 0 6 & 2 0 6 6 e e 6 k B % h w 0 6 h V V n e e n e 2 w < w * h 2 n V < k n w 0 k n e w 2 2 e e 6 6 w k k n V V k e e e e e e w 2 6 q w e 7 w k w 7 k k k w k k k w V * B k 7 e A n e 7 0 0.2 N * n w k l w w t w 2 q 6 q e * 2 t e n 6 2 n e n k w w 7 w w 6 2 6 2 2 6 k w 6 f 6 2 n e 6 0 0 < 6 e e h n h w e w 6 w e 7 q e 6 7 t 7 6 e t t k l k q q t 7 2 w w 2 q % 6 l N t 6 2 7 2 t t q e q e N e n B n k e k n k k h e e e k n n e n n w 6 6 * 7 k V B k V n e w n n n A V t t 7 N k t t m e e l t k V A V n n k n n k n m k 6 n m e k A k 6 m A m n F t N N k k l k l k V n k n k k n n n V +.n e n A V n k w k l l t e w q e w 7 e m V l w 6 w k t e t 7 7 n k n n k l n l e 0 V m.+.n w e t B e k n e e e 6 t t e e e t n V n k t k l l t q n n l n m m m m n n s.l k e 2.A V n e q t N m t k n n l t p n p t n N l 6 7 k e ",
"k A A k k V V e o.A n e e n A o.+.k n A V V V n r.A 0 A 6 f +.k k k f  .A k w w h n B n n A A V n A 2 A B w 2 e 0 V A w * 6 e e k e k w k w n n e B V n k n n k e 6 0 k k w 6 0 k e e k h w w e k h k k h w w f 2 w 2 2 n k w m 6 n 2 e w k 2 A t k k n Z n t A w e r.e V 6 N k V V e e n l w e 6 n +.q V A.t V w % A 7 m l q k w w 7 2 2 7 e k 2 n e e A e * n A h k k e k V n V A k k A V k k q 7 k n e l V m n n n t k N V V t k 7 2 q e q n 2 q n N n t t k 2 k t w q q q n e k n k e e t n B n k k n k n V r.k w q k n k e 2 w e 7 6 q w 2 6 l k q n m q 2 7 V q e 2 k 2 7 6 7 w t t q q t * 2 7 e k k 7 + q e % % e < o k 7 7 % e - t 6 6 7 7 7 7 w e e e 6 * * 6 6 2 6 k e % 6 n 7 6 0 * - - 2 6 6 7 7 7 - * 2 w e 6 - * * 2 - - 6 - - t - w e 6 2 6 6 * 7 t n e 6 2 7 t t 7 e e 6 6 w 6 7 7 7 6 - 2 w k w 2 - 2 6 6 - % 2 6 2 2 6 e q 6 * 2 m - - - n 7 q q 2 % - w w - * 6 e w 7 9 r e m 7 e e * 2 w * ",
"2 e k w w n n w e 6 * % * 6 q e w 2 6 e 6 2 6 6 B e * k % e n w 6 * w k B 0 * < w w 0 2 2 0 w 0 n V < V n e 6 n * k B w < e B V k B k V k V e e A k e n n e e h k e e B V k e e e w e k k e e k k k k n n h e k e k 6 7 V k 7 k 2 k * 6 2 e 2 o.A n F e 2.2 e n e n A k t e n N n n w 7 k k w 7 2 k F 7 n s.7 t k 2 F 6 k t e n 7 e l B k e w 7 e V w 6 B e 6 +.+.k n A B n V k e e 6 6 n n e e 6 2 t l w q n k n m n t t n N m t l q 7 e k l F t e e q e t t t 6 m n e e q 7 e k k e e e t k k B k n V V k e k +.n w q n n k B e n n f e k k e l F V t V F m t m J.V V e V e l V m N V V m V +.A m k k k n k 2 l m 7 e @.k 2 A n V e V k +.k m m k k f f k V F A n k V V n V +.+.e n +.n n A n V n n V F +.F V m n l m N l t k t k q e n t e V e A +.m t l n t n k e t n V +.r.Z B C A n n A B l m V m t e k N A m k l n m l e l l l k n A V n 7 e +.t n m s.k k V N t e n m t w k m n l n N N I.N N A l V A e ",
"k V V n n A V n n e e n V n k n e w h k 6 w k e k k w V q V k e +.n r.V +.n e n n n k f h h e e k B O w 6 w e A V B k w e B n e 6 f 6 B 6 B 6 2 B 0 2 e h 6 2 0 w 2 6 k n h e h n n V A A k w 0 6 6 w e e w w w w w 2 w k k e k 6 e 2 2 2 0 w B 6 k r.$ V 7 C e 6 e w w - 7 w e t k 7 2 e t 7 6 6 w q - 7 k 7 w e 7 k 2 6 2 2 q 6 2 6 q e w w q 0 k w w V k 6 n V w e V n h e 6 6 w 6 2 h k w e 7 6 q e 2 2 w 6 7 e t e e e q 6 6 w 2 - 7 7 w n n k w 2 6 e q 7 6 m n e t t 6 2 n k e e e t k n k e e n n e 0 w w k k n n 6 6 V e k k 7 2 w w 6 - 7 2 * 6 w 6 7 6 N t 7 2 7 - 2 t w 6 6 6 6 w k 2 2 2 2 6 2 % o 2 e 7 k +.k * 2 t m w e e t 2 q w 2 2 2 2 2 7 k n e w e k e h k n 7 w e w q t e l q 7 7 e e 7 - q 6 2 7 6 2 2 6 w q 6 6 e 7 - w 2 q t w 6 6 6 6 e 6 2 0 e e e w 0 - 0 w - 6 e 6 - 2 7 6 - % % - t q 7 7 w e w 7 w 7 7 w q e e e 2 - l w n k A 7 2 w w 6 2 6 7 6 2 6 7 2 - - : - p 7 6 6 6 e e * ",
"e e w 0 6 0 0 w h < 2 n V w 6 e n k k e 0 n V e w k e n e V 6 e k 6 +.w k 6 < 6 e e f n n k e 6 B r.6 k e n n A r.A k e k k e 6 k n k k k B k e k k k n n n k f k w e n V n k n V B V A V e 6 6 w w e n V n k n k e k m n n m k k e k w w w k e 2 B r.7 A N +.N e e k 6 e w k w l V l e n V l l n l e n n n F l e V e n w 7 t k m e 2 6 e e k m e k n A o.B h h A w e A V n k e k A V B A V B +.m t n m e t m t t l m l l n k e w k e q t e q n m V m l k m n t 2 k t 7 t l w 2 t k t e 7 w t n A k k A A n k n e n k B +.k w A V +.+.m n V V k m V m n A m n +.l +.r.n F V V V +.V m N N N V F e k V +.@.A k k V A A +.@.A k w n A V e A t q n A V m V m k m +.k n k k n B n k n V n t N V n n V N n n m m n l t e e k t e e t l V m m V t q m k e e k l t q w r.A A +.2.A V N B n C Z B V +.A l n m n k e t k k t t t t k l n n t k N m t k V t 6 N l A n +.n n t e k l t t n A A V n n N N n p D A t V @.A m ",
"A n n n n h k B A 6 2 V A e w V V B n e e A +.e k A h h e V 2 V w 6 G.k V h 6 6 2 6 e B V n w 2 w A 6 k w e 2 < n k h k e w e n A n B 2 k w n w * e n h e k k w k 0 0 h k w 6 e e 0 0 e e e f n 0 6 e n V n k n A e k V 7 2 w 2 A e +.n n w V 6 0 t t B n 6 * w e 6 n % N 2 k 2 - q 6 * 6 w 6 6 w 6 2 A n 7 A 6 - m - V 7 7 k t n e 7 e e 2 % O n 6 2 2 * 2 w w k * * e e w w 2 6 k k e e w w n 7 2 6 w 6 q t q q e q 2 2 w e e 7 t e q e w 6 e + 2 q w 7 q w 2 - e 7 2 t m e 6 7 e t w - - w n n 6 6 e k q w k k 6 o % V n 6 h 7 k l w 6 w 6 * 7 w 6 7 q * % q + 6 k % t 2 q w k w 6 6 7 6 7 w k t w 7 6 6 e n A k k e 7 e e * 2 q e % l * 2 q 2 2 2 7 2 * * 6 2 w w 6 0 k f 6 6 N e 6 n N w w % * - 2 2 6 w e 6 6 7 e e w 7 q - q t t e 2 2 n t - % 7 t q 2 * 0 - * 6 7 0 w k 0 6 e n e e n k 2 6 2 2 - - 2 2 2 2 2 2 2 6 w e e 6 7 l t 2 6 l 7 % q 7 e - t q n 7 - q k t e t k k w 7 w t t q O n p - w k e k ",
"e w k V V A A k w 6 k w w k w k 6 6 A f 6 n n V A V k w k A V k k 2 * w k e 0 w e V t k m m m * - - l q q l e l 7 k t e m n e n n e w w 0 t n 6 n V n e e n V B n w e h 2 6 f 6 k V V q.2 A n 2 k n V V k e n A n n n e k B k 6 e w k t 2 6 V 0.k w w n n e 6 2 e n n e 7 t A 2.q t t e e k N V k k k t k m n t w e e e w e V 2.n A V k k N n e n w n e +.e e 6 A * e +.k n A k k N C N n n k e n V A A V n N V w e N +.2.A N n N n k e k n V A l e t V m t e n V e n 7 V e n w e +.2 B e N A t Z A A C n h n A V 6 n e r.+.n e n k V f e n k A t t C t e V e w V e w V +.V k n A t k n k k V N B n 6 k n e A A V k m.A e t e k l m V V V V n l e 7 6 7 e k F J.C 0 C k n e r.N w V - A e w e 7 m q t N k t n l n e w e k k n A +.k e n n e e C e n w N w A t k 6 2 m.t V m t l n N V V V V m k - q e l 6 - k 6 7 n l 7 q q w t k C w 6 N 6 % N V A k +.e n 6 e A 9 D N N N - t p 7 N n n V 6 k e t l n l e t n ",
"e 0 w e 6 w h 6 e 6 k 6 6 e w n k e V e 6 n n k w e h e n V k 6 B w 2 e k e 0 w e m q e l k V 7 7 2 t 7 7 l e l % 0 7 6 7 6 2 e e 6 6 6 2 w w * 6 e e 0 6 w w 0 e 0 w w 6 6 q 6 0 h n A < n f * e e q 6 2 2 0 f e w 0 0 e e w 6 e * 2 e w w w 6 - * * 6 6 - * 6 2 * 2 6 - % 6 n * 6 7 6 - - q l q q w 6 7 e t q * * % * * 2 6 6 e k k e w 6 2 % t 7 e e n w 0 - N * 6 t 0 6 e 6 7 e e w w e e w 2 6 - * % * 6 e 6 * * * 7 w 7 6 k w 2 - 6 w 7 6 % % * 2 2 2 2 7 l w k 6 n w e 2 w V * e * 6 7 # - - 6 0 6 6 e B 0 % e * e w 6 6 6 * 6 * * 6 2 e w w n w w n 7 w e 2 - w e 7 6 0 w * - w w e t 7 7 k 6 6 6 7 n w A e A n 7 t e e 6 7 q e e e e e 6 6 6 6 6 w w w 6 O 2 6 2 - n e 6 e 2 t 7 7 w 7 n 7 7 q 6 7 l n - * 2 e t e 7 7 k w w k n t t B n B e k 7 e w e 6 6 N e n m l t 7 w q q e e w 6 - 6 - 6 * * t - % 6 2 + - 7 7 e 6 n 6 * e e 2 k e f 6 k 6 e 6 e 7 - t t t m 7 p 9 * e 6 7 k 6 k l e q q 7 6 7 e ",
"V k V V h h n e V k A B n A n A +.n A k e o.V k 6 e n n n n k w n e w k V B n n e n 7 w t k A f n e n q e V l N 6 n N n n e e C B k n B k N N 7 k V A A V V n k e n k h n k e k e n V o.e V n w +.A n e e k n V V k h n V B n n F e k F A n n e e e t t e w k A n w t A B 0 w A 7 t n t 7 6 t A m n k e t n V m N k e k V A n e n n A F V e 7 w A N t V n N t k n 7 6 e e e k n n n e e k N V n N V N n k n C +.0.n w e V +.Z N r.C k k N A V n k l n k n V A V N l N k V l k w e V e n e t M p N N A A V B A r.A n v.k V B A r.h 6 h w e n e k k e N e e V k B V t e n n t t n n 6 w N A Z A k 6 N w 6 6 e V 6 F e k e 6 k e t 6 7 7 q q e t t B C V n n V n w e 2 6 V e e n A k q V t m n l n N q e k e e n n w 7 k A F C n k 7 w e e k k t t N n B e w 6 e e 2 q - w 7 t k w e e t l m m l t l t 6 e e k F e 6 e w 7 k n k n w F k 6 B +.B V w e 0 n e k e k n n ) N p N t m t 6 r e t k e n V n t k k t t k ",
"2 2 e B e w w 2 6 2 k e e e < 2 w < q 2 * h w < w e e w 0 w e f w 6 6 q k f h k 6 k 6 0 w e V e 0 * 6 * - t 6 w * w w w e 7 6 k 6 2 7 w 6 e e * w h n n k h e e 2 e 6 2 e 6 & 2 < 2 6 0 2 6 6 2 V n e 6 6 e h e w 2 * 6 0 6 6 w k 6 e n 6 % 6 k w w w w 6 6 w k 7 6 e n t 6 - 0 6 6 w 7 2 * 2 e 6 7 6 2 2 w q 7 w 6 - 6 w e 6 * 7 7 k V n 7 7 k e w % e 2 e 2 w 7 6 * - e w 6 e e 7 - * - 7 7 2 6 7 e e 0 6 6 w e 6 * * w k w - e 6 * * 6 6 6 2 6 w 7 * - w q 6 t e t t l e w 2 2 w 0 e 7 e p n t e e e 0 2 2 6 0 2 n * 6 6 w k n w k e e B w e e 6 t 0 w n e n N e 6 w t t e t n 7 e V V C V k e C t e t n A e A w n e 0 n k n t t t e t k n n N A n w e A V w n e 6 +.e e 7 V q * V * e t w e w 6 e l e w w 2 w w e k n n k e e n n e e t e w n t A e n 6 n n k r.6 A e n F N q w w t n n t t t e 2 w q t A w 6 e e t V n 7 7 6 k w 6 n C t e e e n +.A V k k n D ) n q r 9 7 7 6 9 t t e 2 6 t q q k n k e e ",
"n e V r.+.A A B n f V n n V e k B k +.V k +.B f A V V n k k B o.B n k n n n n n m +.V +.+.A r.o.C n A n C m.A Z w k t t C V n V e e n B n V V e B V V A V V V A V r.A B +.B w k n n n k n k B o. .A V k n A A n n e e e k e h k N e n A t 6 e V n n N B N V V N e V A B n n e 6 V n l n n t k N t n m n m V V n V n k k n N B n n n V +.A n C m.n n 6 V e A n A r.r.A A 2.A n n Z V k w t N N k e k n k e w w e n n t w e n n e V V B n t t k n n N l w e m V k k l k n l l q 7 6 6 e 7 7 6 6 e p p p N n k k B k e +.w n n n n n w k w e n 6 w n w k e e n e V n 7 * 2 w t e w n e n C k t n t e t 6 t n w n t n 7 N k 7 k e k w w w w e k n m t n e 6 w N n 6 n n 7 A e e * k q - V % q e 7 w t e n m t e q - 0 7 7 w w e w 6 t n n e w e e e e w V k A 6 n n e 2.7 V 6 q N n t 7 6 t n n t k w e 7 t q e A e e k e t m k 6 6 e w 7 k C n 7 w k h n n V h e e 9 N N t 9 r n t t r 7 t k e e e l e q k n n l l ",
"k 2 2 e 0 6 e w n 6 w * 2 e 0 k h w B e 6 k 6 * 6 6 0 w 6 2 2 0 * * 2 2 6 6 6 w 2 e w k h 0 h w e w n w e C e n * 2 * - e e 6 7 6 6 w e 6 e k 7 w w 0 w 0 6 w k e n f e e w < 2 h e w 2 n 6 e A w e q 6 w k e 6 6 0 0 2 6 w w 6 e * 2 e e e 6 + - 6 7 w e t e w 6 n n w 0 t w O w - * 2 6 - * 2 - 7 q q w e q 7 e w w 6 6 7 e t 6 6 6 6 2 - 6 e 6 6 * w w e w e n e e e e e w 2 e w 6 6 0 e e 7 e e w 6 - 2 7 e t n e 2 * w e e n n n t w 6 7 e e e 7 6 q n m l k m k V k m t t k 6 V e B p t N e 9 e p k e e f w 6 V 6 n n k e V k B h e n w k n q n e e n e N C t 6 7 e n n e V n A 0.B n N N t e - e k 6 t t e 6 n k 7 t w e 6 6 6 7 e k n N t n B n B V k 6 t V k B n k 0 n t t V 7 t n l t V n m l 7 e k 7 7 e t k n n e 6 e e t e e e e n e w n n B 6 w e 2 l 7 w * - w q l w 7 l V n l n q l k m e e F k k l q q l t q n C e t A F n t n A k h 6 e 6 e k t N n m n t N p n p : e k e V m V k q q e e k N ",
"A 6 2 e e e k h A h k 0 e V k A A k V e w A k 6 n n B A o.V V A h n V V B V A +.x o.A q.o.n *.o.C n A e e B x B e k e e V B t n N n B n e n A n V n n n n e k n k e k n h k k e n n n e r.e k q.n A A k k V B e w B V h k A A k V k n n B A N 2 w n N n n N V n A +.A B N A n 7 l w q l k 7 w k 7 t l k k n n l e e w 7 7 w e e k n k w w t n n n e k n F B n k B w t n e N F t n B B n n n n k n n k e w w n V n C B w 7 t k e k k k e e e e t l w 6 q t l l n 7 e 6 k 2 t 6 w e * n 6 B p e n n p p M n e w w e w +.w V A V n k w k w 6 e 0 k e * 0 2 2 6 % 6 k t w 6 6 7 w 7 w 6 k A n k n t n V w e e w n e k 6 n t w n e w e e e t k l n n w e e k k e w 0 2 n k 6 n e 6 w 6 n 7 q 6 t n q e w q 2 % 2 7 * 6 w w w e t e 6 w w e n n e t C n t e V k e 6 e k t V e t l n n t 2 - q k e w e 7 e 7 q 2 2 m q 6 7 6 7 e 6 2 t t 7 w t e e n n A k n 6 k 0 n V r n 7 p t - e 6 9 9 # 7 t 6 n e 6 2 2 6 6 2 6 e ",
"f % % w e w w 2 e 2 e w e n w e A w w < 6 A n 6 6 * * 6 w 0 w k e k k w 2 * * * 6 e 0 n h 6 n n B x B 0 * w 0 e 6 e e w e w 6 e e 7 w 6 * 6 e 7 n e e k e 2 2 w w < w k w h V h w w e 6 +.2 2 n h B n w 6 e e 6 & e h 2 6 n n 6 t n n w * w k 0 2 t B e 6 6 w e n e 7 w w 6 2 - t q t n t 6 7 n 2 w q 7 7 q t t N n k t k k k t k B n e e V C n k 7 n t 0.e k 7 0.e n V w n 2.e t n N n e e w 6 6 w t k t e t n e N A n n B k 6 e w w e k n n n k 6 - 7 e 7 6 w n A k +.k F n A +.w +.w A t 6 9 e 9 e t k q 0 0 0 w +.0 k V V B n f V h e n k Z V e n t e e 6 e n C V k 7 6 w e w 2 t F F A A n V r.n w w t C 0 C 7 k e e C t w n n n l k t e e n t t n n k n A 7 A +.6 Z t t e q r.w V t V r.m k l V m t n m 7 n n e 7 w N Z A e w k F A t t A V n 6 A e n 7 n e - V - k n t t F t q V F V n V V V t l e t +.n w n V +.r.n w l k n n e w A A.0.n w B e A e V B m N 9 D D r N n N F p A.I.A +.e 2 w m +.+.V m V ",
"q e e h V A n 0 w e N V n A F n n h e e e 0 7 w V k k A A n n A +.V A V w k V 0 k m k e m n k k V +.m m e w V 7 k @.A e l k w k e k e n % n n 6 B n k k e e e n V A e V k w A w k n e B V 6 w A k 2 +.w e k n * 2 e 6 V m 2 k k n n t e n F +.A C t 6 6 e n n e n w * % 2 e n e t n k q m 7 m 6 6 % w 0.* n A 6 7 7 w e t e w 6 7 e k n n n N C t 6 2 t A V t w 7 e B A V t 6 * k e w e e e w e e e w 6 7 t t e t k e 2 - 7 t n e 6 2 e e 6 6 e w n t w k n w 0 + w - o 2 q 2 7 t 7 w e e n n - - w e w n Z n * 2 2 0 e e 0 6 w * e e 6 e o.A e - e n 0 * * 6 6 e 2 2 2 * 6 t e 0 n 6 e e Z e e w 7 e - * w 2 6 2 w t e 7 7 7 2 7 w 0 2 6 e k k * w n n k e 6 * 7 w q 7 6 6 e n t 2 l * e e 6 * 2 7 6 - 2 e l k 0 6 * * 6 e 0 % w 2 6 7 * : e p N n p t w 6 6 e l 6 6 e 6 2 7 6 t o k 6 * l 2 n t + n - e - * k t w e e q k k 2 t 7 2 2 7 w w 7 7 2 7 7 * - w 7 V 6 2 e e - - t 7 e n 6 l m % e 6 * w % 7 O - # ",
"e 6 % $ 2 e k e n t e 6 * 7 k e e w 0 w w 6 6 w V w 2 w e w w k e e k h w h n e k k w 2 e 7 2 2 7 k e k 7 7 m 6 w k e 2 6 7 2 2 2 w e k 2 e e 0 k t e e e e e k e e < e 0 6 n 6 e k w k B w e V e 6 N * 2 7 e 7 * w 2 n k 7 m k 2 t A V e 7 6 6 w w e n A A n e n k w 6 w e e 6 w k l w l 2 V q 6 6 e A - n n 0 F C n e e e w 6 t e e 0 6 0 e k w 6 0 k N n n n N A F +.A V n n n n n B n n k k t t t t l m n t k n n e q k n m B e 6 w t t e k N Z n e n B n n t F l 6 l m k n Z B V A n V A n t n t e B 0.+.N +.A n k n n n h 6 h k e e V V n 2 k B k e n C C t w k B n N Z V F A.N C n F q e w 7 n w e C n N e t t e q t n m B C C N N V V n N N n e w t N A F t w l A V k e l q F w A F A m V V n e e n V N V A A V V F +.A A n A 0.N m Z Z N N Z 0.Z B n B t 6 w l t k V N n * +.F A J.m F n 2 A t V e q V e e m A m V n 2 k t t t k t e w e t V +.V N V k m e 7 k t 7 7 n p D z.N F +.w V r.A +.q n 7 t r ",
"e e w w h B n h n n V V n V A n n h e k f e e k V e 6 f B n k n k A A n n k e h e k e 7 k k e k 2 e e k e e +.k k k k k w e k 6 e B +.A A w e n N B n n n B V V n e 2 e e e A e k n k k A A B A n n A - w t t V 6 k w k k q l 7 6 t B t 7 w e n n t e e e t t t - 6 6 6 w e 7 2 e m m w e % k 7 6 t e B 6 n e e V n k e e e e e k e w 6 2 6 7 e w w t n k e k V t k k e e e t n * 6 w w 0 6 6 6 q q w 7 q e 6 % 2 7 q 7 7 w w 7 0 6 - * 7 e 7 * w e 6 * 6 0 6 6 w n e - 6 w 7 e n 0 w k 0 6 e t 7 6 2 2 7 e t k B k 6 * w n e % 6 w e e 0 0 e k 6 e k w 7 e t e * * w k e e t 0 n A e k e V 6 w 7 6 e 6 6 e 2 6 * 2 2 - - 6 q q 6 w t t t e 7 2 e w 7 7 6 0 e n q 7 e V n 6 - 6 * O w + w q e e 7 w 6 - * - - * - w e w 6 7 e t w 2 w e 0 6 e 9 9 9 t n n e w e q 2 6 w 2 2 7 6 2 . q q w n * - 2 + e 7 e 2 2 e - 2 e k q e w % 6 w t l t w 2 2 - - t m k t e 6 7 2 2 7 7 6 6 7 6 N k.n t m w k w 7 k 7 e * * X ",
"w e h h k k w 2 w 7 k V n n n 7 h w w w w 6 6 w w 2 2 f V V f w 6 V k 0 e 2 O 2 7 e 6 2 e e w k 2 2 2 e 6 6 V k k 2 e k 2 w k * 6 e A k +.* 2 V e e e e e n n k n w 2 0 0 e n w 0 e e 6 k A e e 6 k n 2 k k * e e m n k k V V k 6 2 * % 6 e k e A V n e e t B A n V Z +.+.+.A B t V V k m 6 N e e F n N k A e C w e t n n n t e e e t k t e e e V A A V n e k N V A A C V C Z 2.e n V n k k n N V N n n V A n q k m N n n m n k w n B n V 0.V 7 e B n k V n w e t N n e e k n N N 7 e V k 7 k V n k k n n k k n w h e e A m.A 2 A V V o.A n n o.A +.A n n N n e e w n A n n n e n Z k A C r.N F V n A n t n 6 w w t m m m N n t 2 w n n N V n e n k B A A n n V t t A m.F w w V t 6 V 7 n l n N t n V V V n k e t B A V n n N A A n n A M m / / N M n n n k n V A n m m q 7 q 6 +.e A m t n w t 7 6 e e e 6 7 t t t n m t l m e e m F +.V n k k k q k l e t n e k n V V N N N m 6 A k.n q l n n n n V m N p t t ",
"n n k w w e k e A e w 7 2 6 w 6 k e e k k e f k e 6 2 e V V e 6 * e w 6 f 6 * w k n e 0 w 2 2 6 e e 6 e 6 2 V k k 2 e k 7 q t 2 2 6 f 0 A * w r.w e e e t N B k +.k k e w k k w e h n 6 n +.w w w k t w n V * 6 o * 2 * 2 e e 7 6 7 w e n n w * % - w e k t t k n N N n t e 6 * % 2 7 2 k 2 k - * n 2 6 7 k * e e k n N N n k k e e e k k n k k t t e 7 6 2 2 2 7 w e k n k k t 6 e e 6 * 6 e t 2 2 - - w l n e w q 7 2 2 2 2 - * e t 6 6 k k 6 6 e w w n e 2 6 6 6 6 2 * 2 7 6 6 O % w 7 2 6 0 w 6 6 w 7 2 2 6 & 2 w 0 k V e $ e 6 2 e k 6 2 0 2 0 6 - 2 w w - 0 2 w w 2 6 e 7 0 k 6 e w k 2 e 6 * e 0 7 e 2 w - 7 q e t t w 2 + - 6 7 w e e 7 e w w w 0 6 7 e 7 % % q l q 6 7 2 + e % 6 - - 6 - 2 6 7 7 6 2 2 w w e e e w 7 w e 6 w t 9 9 e 9 e 7 6 7 7 6 6 e 6 * 2 2 * 2 6 % n 6 t q - 2 6 e t l e k w 7 e l - 2 w w - 6 q 2 O - w q 7 - - 2 e 2 2 2 % * 2 * 6 w e q 7 6 6 6 6 n A t 7 e A V e w 2 * % 6 9 t ",
"e n V n n B n k Z k t n t t k w n k k n V B V o.o.n w w e k k e n n k k B h w h k V k e k e 6 e V n e k q 2 m k m e k V k k e 7 n k k k B 6 f @.w e e w t V V t +.k V k w k e w n k o.e B r.6 w n e w w e A - 6 k k A k k m k m 0 n C n e w e k n N A A Z +.0.r.A A A B n n k w V F A V s.l F q n 2.t n A m.k A w e e e t n V A k e 7 6 7 e e k Z F A V C A A V k k n A +.F N k n V B w 7 k V C V N l e k V A A V V n t t k l t n A A e w N 0.+.V V k n A N n A N t k n e t l 7 k 6 w N n n n k N n e e e k n n B V V k n V n q A k h B A n n n k B B k k V V k n e n n w k A A n A k A V Z t A V k A C A F B +.t k k t n V V m k n N n n V V N k V +.F A C N k k t k m m m V +.m 7 A e V l t n k q 7 7 7 7 e l V n n B V n t e e 6 k V n e 9 - t e p C A V n n l q e k k V V q e 6 t m t k V V w l 2 w % * 6 q 7 e F +.m m N t 7 t V V m l n m N t n m t k k 7 k k n m n 9 e p 6 e e t 7 w F n k k k V t n t t ",
"% 0 k n k e w 2 e 2 w N n k e 6 e 0 0 e e w e h n e 2 % * 6 w w A e e h w 6 6 * 2 e q 7 e 7 2 w f w 6 k 6 % q 2 e k k k k 7 2 7 V e 6 k 6 w w e 2 6 6 - 6 k e 6 k 2 n e 2 w 2 6 w 2 n 6 e V O 2 e - 2 w * n 2 6 7 2 k 7 * * o 7 - 7 e 2 * 2 e B n e 6 * * 6 w e w w 0 0 e k e 2 e l k 6 e % q % 6 e % 6 6 n * * 6 w e e e k N A n e 0 6 7 e e t 6 w w 7 w e t e e 6 6 7 k k w * e t e - - w t e l n t 7 2 7 e t t t q 7 7 e q 7 e e w 6 6 e n B w w 6 6 t e 7 k t - 6 e 7 w w + 6 2 7 e 6 6 e 7 w w 6 - 6 e w * n e 6 6 6 w w w k e w w w e k k t B n e w e e 6 6 - 7 w - 6 e e 6 e 6 n t n w V B w k e w e 2 e 7 7 7 7 q k t q 7 e w 0 6 w e 7 * t A N n N e * - t V t 2 2 k A V w A k +.m t t k q 7 w q w e n n t t n N k e e e 2 w n t e 9 : 6 : 6 e k e w 0 e 2 2 6 7 l t % q 2 2 k l l m e w V 2 n 2 7 t t % 2 l m w w e 6 2 7 k n l t q q 6 * 6 q 7 q e 2 w 2 7 t e - - t n e 7 F N k s.n 7 k k +.m A 7 7 ",
"n V V h w e n n r.k e n e e k e A B n n n e e k n h w 6 w h n k o.w w n e k n w k V V m m k 7 e m n n @.A e V k k +.A A @.k 6 n V w 6 A w r.q.A k n n e n +.Z k A e m.+.k A n A n w +.k V q.* k V e V J.k J.A A e 6 +.V k k e A.t n n n A F N e n n n V A A N n V B k t B V k 6 t V V t m 7 +.V n n 6 t e Z w - k n C C B k e e e e e t n n n t e N A N N A Z A A k 7 w n V n 7 C +.A k l A A n e l l e q k V F l n k t l m n t e e e e n B n k w e e B +.N e n n 2 q V n V V 2 t n C n 6 e B n e N N n N A t + B e 6 e n B V V k k e 6 2 w n A n A A n t n N n w w n B w w t e e n w V k n 0 V n 6 e 7 0 7 * e n V A A F F m e w e e w e e t e 7 V V 0 6 N A t k V n w q m m e k * k 7 m 7 * % 6 2 w n n k e l k e k N N t e n n 6 6 e e p Z Z N t e e k f h k e 2 - 6 t A N - F q - q k k l 2 2 m - n 2 7 t q 2 6 l k 2 7 k e 2 w k m n t 7 2 7 - 6 e e l V n k 7 q V n 6 9 D q * + N l 6 V 2 k k 2 e * t r N ",
"* 6 w 7 7 e w 6 e 6 2 6 e k h w * 6 O < < e < w k 2 w 6 w w 2 e e 6 6 q e e w e V 6 h 6 6 w % w 6 6 6 V O w k V 2 2 2 6 e e q w h < 0 2 k < w w 6 6 e t e k N e w n e 6 e e 6 - t 6 * w n n 0 * % 6 w n C e * 2 w 6 6 k A e 2 e e e 6 * 6 e e 6 w 0 6 0 w e 7 6 w * e 0 V 6 0 * * F w 2 l A 2.6 6 q V 2 e 7 t 2 n q q 6 k 2 F e A * 6 e w e 6 e w k k V r.2 A t 6 e % 7 7 n 2 q 6 t m A m q q e F m - 7 t e N t 7 n t t A . 6 2 e e - n 6 n e Z e n V n e e e e k m V n n p t 9 t A p 7 k V k q q q e e t t q 7 k n l e w q e q k k e 7 e n n t r 6 e e 2 k V 2 t 6 7 l +.l A.% 6 w 6 - 2 t n t q w w q e t t e n k t t l n V V e t w - 2 q e 6 * 6 n A n k n t w e k e 6 * e Z k k m A V t q t w t t w 7 e q 6 m n e w e k e 2 7 6 w n n t e e e V l k F n 2 6 t q t q n V e V 2 l t 6 7 q q l n N V N n t e q 2 6 e l w - 6 l n 7 6 l A n 9 9 t m A A l e k m V k V k A.F F q 6 +.n e t n N p t n n n q k A e ",
"e n N n l n n e e e h k n n k e 0 n w n n  .k V k 0 n k k k 0 k n e w e h e e k n e n k k k w n e k n r.e n e f 6 6 w k n k e e n e w n k k k A n n V N k n V t t V n k V V k n A n e e B A A B n N n n C n e n k k e n F n w n V V n e n A A V B n n n n n k e V k A n +.e k t m m - t A q n V A 7 w k n * 7 V l t t n m q V 6 n 2 n C V Z n N n n n A r.n V n s.A.V n l m t V k t q e t t k l m m 7 k n t n q t V l e A * k t N N e V e V n Z n C A B t t n n w q q w e p e 6 7 p 7 * 6 e 0 6 t e e t t t e q * 6 7 7 7 e t e A V k w 7 e q : n t t l k V V e e e 7 7 l 2 n O q k n n n m m k t t e q q w 7 6 7 w e k l k e q n l q 2 6 q t e 6 0 n V e e n k t e e e 0 6 7 k w 7 e k t 7 7 w q t t e e t q 6 n n k t l n e 2 % 6 7 6 6 7 7 - t t 6 - 2 2 2 w e e t 6 e n 6 t 7 n k 7 w w q t e e t e 7 6 6 7 6 e t e 7 7 w 7 e w 7 7 w e 9 6 6 e t k q 7 e k t w l q +.V V q k A e - 6 7 9 9 6 6 7 q 6 w k 2 ",
"w e e w 7 w 6 2 6 w e e w w w w w n w n e n w n e w V n k n w n V k h k k k k n 2 w 6 h e 6 e e w B n A n n 2 6 w w e k k e e h 2 2 O e * e 6 B t e e e 6 w e 6 w e e e n e w n w e w 2 6 e n t e e 6 6 w 6 6 e 6 e w w n e 7 w e e e w w k n n t k t e e w w w w 7 n e t - 7 w e V 7 6 q 6 q w 7 e 7 7 - q e l t n e A k t k 2 6 * e t e B k k e 0 w k t n 6 7 l m n w k w t m n e 6 6 t n n t n V t n n t n e l A t 2 k 6 l t k k w n w e 7 e e k k e 6 2 w k n k k k N Z N t N Z p 0 k V n k m n k k l n l k l V A A V A V m m m k q e t t 7 t e 7 e n k e k q n e 6 n q V k k n V F V l l n V V A V V n l t n m V A V n k e A k w 7 7 w e n t e n V t k A V +.V n B n k e e k k l m n k l m q e e q t t q 2 t l l l n n e 2 e A +.l t V A k +.m k e 6 e V V l n V w l F t l q m l q q q w t l n m l e e k m t V A l l A V e k V V q w n n e 7 t m N n n V A V n V V s.F F m V A k q t t e n r e n m k m m w ",
"A C N n n n n t V V B n n n V A n +.h k 6 e 6 n w 6 n f w e 6 k n k n n n n n n w V e V n 6 V k 2 k w 6 e e 2 e e q e f e 6 q n e 6 % e w k e V k e k e w k N t k n k k n 7 6 n 7 B C e w k n e 7 e 7 w n e w n e V k e N V n n e t t e e e k n e k l t e 7 w e 0 7 t k k e e t q +.A t t e w 2 6 V k k 6 +.A V e l 2 V 2 q t 7 n w n w 6 n n n n e n V w +.2 k 6 w n q +.k n l e q w e N V k 6 l V q w 7 6 n t k V e * w e t e V m n V n l t l m m V n e w t m 0 w 0 6 7 e 9 : e p 6 * w h w w k e w 7 7 q w w k m m k q q w 6 6 7 2 2 7 t r 7 - - O % q 2 o 6 - t 6 * l l n A e w e t 7 * - e 6 7 e e e w 7 7 t t e w 6 2 2 2 t 2 - 6 6 - 6 t 6 6 e n e t n k e 7 6 7 6 * % % 2 2 7 w w 7 7 w 7 2 2 2 6 7 2 - 2 7 w 7 w q 7 - 2 t l 7 6 t k e e - 7 e 2 7 k 6 * 2 6 O - t 2 7 6 t q 6 w 7 6 e - 6 q w 2 2 6 q % 2 6 6 6 w w 6 7 q 7 - - 6 6 * * 6 7 7 7 e t k t q e e l e w 7 2 * 2 2 t r * 7 7 6 n t 6 q w w ",
"n e w 7 w w w w 6 2 2 6 0 w 0 6 h A e k 6 e * q w 6 n w 6 e 0 n w f n B B n n k k +.f n h 2 V k w B e 2 k k e n h q k V n w w n A 0 6 6 V k n n k e k k w n A n t n k e e 6 2 e w V A t w k n t e t e e B k e N n C n e N C n B n n n n k e t k w e e w 0 6 w e e e e n B V k e t 7 w m m - O k n e - V q t q 2.t n 2 V - 7 q 6 n w n w - t e t k k A C 6 A 2 n k k V q s.l t w q t k k n V t 2 q l 6 2 - - k q k V k 7 k F n n m l m m V l l l l l l m t q q l k V V n n M N N Z / m n +.2.B n V m k t t k k k m V V n l m V V V V m k n N p 9 n m 9 t F n w V l A k q V F t N A V V F m q e V t l V V V V V V V V V m l l n m m t t V N k l A k e V 0.A A A n n n V C n e w e t n V A A V N n V m k k n n n n k n m n n V V N t t k l l k n A l 6 k A m V A 7 k n N 7 l +.l V * 6 2 2 7 6 2 q q k V V m l l n k e k A V t k F +.n k N D m t e p N N n m A F A F V n A V V n m n e m l A F 7 m N p z.F e k k +.",
"+.N k k n n n V e k B A +.A n e * k w n e h % 2 h e V e w n f V 2 e k n n n k e h B e w 6 2 e w q B A e V k n k 6 6 e  . .e 6 w V 2 6 < V 6 e 0 k e k t w e n w e N k w t t e k 6 w w - * w t t e e 6 6 e 6 6 e t n w 0 k k e n V n n B B k t k e e e e w w e k e t 7 k w n 7 2 7 6 6 * 2 6 - m V l 6 7 * 2 7 n t m k F e 7 e * w * e w 6 e 7 7 0 e B t - w 6 t n k q 2 n t e w k n k w w k t 7 7 n e e q q N e 7 t t t n m.k A t 7 t q l 7 q q q 2 2 q q - - 2 % 6 w 6 6 7 t p M M e t A C e w 7 6 - * * - - * w q w 2 2 7 e t w w 7 6 7 7 - + 7 7 - - q 7 2 6 6 w 6 2 2 l * 6 7 w t l e 2 - 2 2 w t t q w w q * 2 w q w 7 7 q 2 2 6 w 7 2 2 6 6 2 7 k e e w * 0 w k n w 2 6 e - w t t e e 7 2 7 2 2 2 2 - 2 7 - 6 7 6 2 6 w w 7 2 2 q e w e n 7 - 2 7 w e e 2 n t t 6 e l 6 k 6 w 7 w k e w l * 2 7 w 7 6 - * k 6 w V n - - l V w 6 k N r : : q r 9 6 7 t t 7 e 7 * t q t 7 t n w k % 2 r O 9 9 * N q + 2 - n ",
"V e 2 6 0 0 w e w e n B n e w 6 e V k A V A w e f e V e h A k n 6 e k e e k k e n n V f e V n n w h r.k n e V w 0 2 7 V A e 6 w V k k n V e e k C N A C n B C t k +.A e N 0.Z V t e w w e k n n n N k n N t 7 t C B e t V n k F +.V V A +.A N N F A V N N V V V n C e n 6 B e e t F +.% 2 s.V V m +.+.7 7 n A e k n m V n 7 N 7 N 6 k n n V t n e V V t k 7 N k k n w e l V l V l l q - 2 t k w q N q w q t F k 6 7 w k t +.2 V l r l q m 7 t r V q 7 t l r 7 q 2 w e e e p N N Z A p n +.+.n k A V m n n n l l m V N t e t k t V V V V A F N p N n m N n A A k V n F +.t J.F m.m A F A A V N l e l m l t e t l 7 e k k e q e k V F F V n n n n Z n n A C +.+.N t k N V n w e n q n m n k t e 7 k k n V n e t N l V F V n n n n n n l n V F F V t n k e k k l A F l l t n n 7 A q e w e m t q n t t t k l t w 6 A n n F A t e m V n k m N m t r t n t q q n k w N e - N l A k m V k +.2 6 A 6 N m - D n 7 n w +.",
"r.N e e k t k B k n n h 6 2 6 e k B 2 w 6 k 2 w w w n e h A e e w k k w 0 e k h w 2 n 0 w A e k w w r.k e w +.e B w 6 n V h e B h n e +.e k 6 n e w k k w e k 6 * t 7 O 2 k e - t 7 7 t n k 7 6 6 t n A 2.n 6 7 n w - 0 k 0 6 V t 6 6 e n e w 7 k e 6 6 6 0 6 6 w n 7 e + e w k n t m 6 w l * e 7 * t t A - 6 7 k e l q l 6 s.V Z * 6 7 0 e 7 n 0 n w 2 t % V 6 2 k 6 l w l 2 e e e 6 * 6 l k 2 w t % O % 6 V t q 7 q n q V + n r 2 q - r + 3 - V 7 - 7 t 7 3 7 2 6 6 2 0 e e 9 e 7 # * e w 2 2 w 7 2 2 2 2 2 - 7 e e 7 6 7 7 7 7 w 7 7 7 q : # r 6 9 9 2 t n * 6 * t k . l e V 7 q 6 % * 7 w 2 2 6 w 7 2 2 7 e t t q 2 % % 2 w t N n 7 2 6 6 2 w % $ * * e n k 6 6 7 w 6 - - 6 7 e t 7 2 6 2 * + % 7 e 7 % % 2 2 e l e 6 2 - - 2 w 7 * 6 n k * % t q 2 6 - - N t * * 2 q 6 % l 6 6 2 7 t 7 - w n t q e t e 7 2 e q 7 q t t q 2 w k t 6 6 e e 6 7 e 7 - 2 e e 2 N q + l q m 7 e * 2 A * 6 F 7 N m O N t t +.q A ",
"w n k 7 e A n 2 V 0 * e V B h e h +.A k k h h n e n 2 k n h r.V h k n V B k 0 < n n o.+.n n n k e A n 6 e V V V 0 A e 0 V k 6 n N t e t k e e e k n e 7 k F A e 6 N k e C V w w 2 n N 7 w V n 2 e t r.J.A V A e A 2 n e V 6 e m.n 6 M n k A e 6 N +.F V A 0.N 6 V +.k n m 7 e k n A A l n F +.A n e w e k n B n k 6 7 B A B n N B m.A w n r.A e * B n Z Z n +.e q f h w e n V n k m m k k m A V C V n n n V B k B k n C A n k n n n e w q l l t F F l t V N q q k n n t A q +.V n n e F t n t F +.t k A m k k e n m l e k m n q k m A +.+.A m t l l n A V t q t F n t n V V n l t n A +.+.A n t n k n t 7 t V l e w 6 t Z V B r.Z A F A n e w e A n e t k n F J.A 6 * q n e q n q F F n n t e t l t q e q q l A m N F l l l q +.V 7 7 - k w m V 2.l t A e e +.w m s.N l q % w V 7 w w w t n l e e t n n k t e e 2 e k e t m t 2 t q w e t e t k e t l m t 7 7 r r l 7 r m k V A 7 t n t 7 7 e t l l t t n m t 6 ",
"V w 2 k k 7 2 2 f 0 6 w e e w w 6 n k w e e 6 6 w e w e h w k w 0 w e e e w 0 6 w 6 e k e e e 2 w V t - 6 e w 7 2 e 0 6 k e 6 n e e 7 6 2 2 6 w e t e 6 0 t e 6 2 7 * O * w e n e 6 6 e e 6 - 6 6 $ 6 Z n * * w w O 6 2 0 * * k n 6 M B e n w 6 e e 6 % 2 n n 7 o 2 * q l - * % 2 e k q e n k 7 * 0 t t 7 0 e n 2 k k * * w 0 O * e w * w B k w 6 k - 2 - * n e k k w * < w k k 6 k k w 2 2 2 2 % % % * 6 e e e n e w t n e w 0 - 2 2 - 2 w t t q q 2 2 t t 7 7 O % % + 6 O e 6 6 7 - e - w 2 t V w 7 e 7 e k e q k l t e l k e q q q w w q q q q 7 7 q q 7 7 e e 2 2 w k k t e w w w w w 7 7 7 t q k e 6 q k w e w 6 w n e 0 n 2 6 7 e w 6 0 e e 7 6 w q w e n k 7 7 e t 7 w k * t t 2 2 - * 2 t q 7 w w q k V 7 7 t w l m 7 m N l l * q 7 k 7 % w * 2 t k m e w N q t t % 2 6 q q 6 - 2 7 q w q t l l k e e e 6 q q 6 w n m e V l t l n k k n +.F F F m r r t r l 7 t N t n V l V A V n n n l N F F F +.F V k ",
"k m n k m +.A n e n V B k k n n e V n n A V e w n k A V B V e k n V V B n k n V n e k n n V V e N 2.V e t e 0 6 n n n n V A A A N A A e w t B B k C A n e n n t n n n n e n A V A t e V N w 0 n n e n r.m.k e +.n k V A n A h A F t / 0.B n k V n A A n B +.A e n V w l A t t t k V V n m A A n w n +.+.A n N A r.N e n +.+.V t e N N n F 0.F +.A m.A F A V r.A n V V B n n k e k A r.+.m n m V k t t n B V A A Z n e k N n e w w l N m n V +.+.A A t e N m t k k n l e m 2 m t 7 l e m e A V F F l e 7 6 k V l e m V m l k n n n k e w w e k l e w 7 q e e k n t 7 6 t m N n l l k t t e t t k e q k t 6 w t 6 0 7 6 7 k e e A k t n N n t e k e e t m m k e t 7 e l t w 7 q t e V m e e w 7 t m e w e l n V A q w t e A +.t n w l A 2 q e m 7 % A 6 2 F V l l w n 7 k V q q w t t q 7 w t l t e t k k t e e e 6 e q 7 q n n t e 6 - 2 6 6 7 w t e q q 3 - 3 r r t 3 t N 6 q n q e t t t k w 2 * 7 t t t q 2 * ",
"% w 7 * 2 k k 2 O 6 e 6 < 6 w 0 6 e w w k e 2 2 6 * n w 6 e % 0 e k k e 6 2 6 q e 2 6 6 2 0 e 6 w k e 6 0 - O + e 6 0 w 6 w e 6 q n t 2 * w e 6 * w t w 2 6 w e e 6 e t 2 6 t 6 w e e 0 6 6 6 6 $ e w 2 e e 2 w 6 6 6 e * n < 0 M - t n e w 6 k + w t 0 6 0 2 O t t + % 6 - 6 7 t k e 6 6 e n n w 0 0 e k t 7 * e * % w t 6 6 t - 6 2 2 w 6 2 t 7 e e k t w w 6 < 6 w e w 6 * O 2 6 e e 7 7 w e w 6 6 7 0 6 6 w t 7 6 6 7 w 6 2 2 q t e e t k t V V t w l k w q 6 7 6 * 6 . 6 % q m t n w F n n m t e 6 - e l 6 q e e q 7 6 7 7 t e e e e t t t w w w q e q q w q 2 2 7 t e 6 2 t t k k k t t e e q k e 2 7 e 6 6 e w e n t k +.C n t t e w 7 w 7 q t n N l q 7 7 n V k e l m m k V l q q 7 7 l t 2 * 2 q t t t w w q 6 l V 6 w e V s.k V l F l 7 m 2 w m w 7 7 6 e * 7 l 7 e t * 6 7 q e k t w m m V m n n n N e n N m V A n q V t e t m V A +.n k l l t r t m l l 7 S +.w t A V N n n V V l 7 6 e l l k t w 2 ",
"A e e V m 7 6 m e V A n k B B k k A V B A n h B V e  .k k A e V A +.q.+.V n n V A k k k 0 e V A n A N N A n w e n e f k e k n h n A N e k A V w 6 n A V k t n A N 0 w e - e +.Z n V V n n n B N w F V e V A n C V V B V w r.k V m.t A F A q.A o.w V A e 0 n Z F t n 6 k +.N V m A V m t k m A F n k e n C A n e 0 +.m.n 6 e n n V V k t n t k +.A n n t k n n A A n e w 0 w f n A m k k m m k k t e t N V N A 0.A A A A V A A Z k l l l m V m t 7 q 6 2 e t q t q t t q n 6 A n l A k k 2 t 2 * l k l k e N m 6 k q 7 7 w e e t k t t t t t t k t k n m m l w 2 e 7 6 e t e 6 - e t t t t e e e k e t w - 6 e 7 w n t e k w 6 k n w 6 6 w e e n e t l m V V n t e n n q e V F V t l e 6 6 2 2 t k 6 - 6 t l k k t l N w k V w k q w m q t + - - n 2 * V k 6 n e q N q k m 7 t n 2 q t t l n n k e q w 7 6 6 w q * 2 6 7 w 7 2 % k 7 2 7 e l n N q q q q 3 = = 3 7 7 = t N - 6 k w 7 2 2 6 7 2 % 2 2 2 - 6 7 2 % ",
"w 7 w e e 2 6 k n n e w w e 0 < 6 w 6 6 6 2 * w k 0 w 2 6 e 6 w 0 e k k f e e e e 6 w 6 * 2 k k 7 w 7 e n 7 * w 6 6 2 2 w e e e w w 6 2 w n e * * 0 e e 6 - 2 6 e 6 6 e w w e 7 w * 2 e w * * e e w 6 t n 7 6 n n k k w 2 k w k p # 7 7 0 n w 6 6 n V e 0 t n t 7 t * 7 k 7 e t 7 7 w w q q w 7 2 7 e e w w e n e e w 6 w e 7 - k k 0 6 w w e C t 7 k k n N w k e 6 2 < * * 2 0 k 6 2 7 k k e 7 6 - 6 e e w e V 6 e t e 7 w e t A A V A +.m.2.A e k e q n l e l w e e 7 l 2 m t k m e n 7 l 7 6 t q n V N F A e l w 6 q l m V V k e w 7 7 w e k l n N m V n 7 % l e e n A m t q t e 7 6 6 q k n N n n t 6 e n t 7 k t t n t 7 e A k 7 w t n N C k l t t n N m t 6 6 2 - 6 n V n l n e 7 w 6 2 k V e 7 e n N m n q n F e k A t V V n +.A +.w l m +.2 6 2.l w F t q F V F F 7 e t l m k q w t n n +.+.F V m V F +.l l l l m V V N +.m t l V V V V l l m m l r r l l S r S +.t n F m V V l k n n k n k w 7 e n l q ",
"2 k V k k A +.m r.V k n n n k e e e 0 w k w 6 f n n w h n B A n k n n B B n n n k e k n e n o.A n k e n A e 6 n k V e w A A n A n k e k B V B k n n N C n t w w n N A r.I.Z 7 2 t e k N k 0 7 k k 2 6 k e 0 w e k w n 6 w 0 6 k n e N e 7 V k 6 e N V n n V e % k m 2 7 e 2 q t l l n m m n l k k n V V N N C Z V * O e A n 0 7 t k 6 * 7 e e n e 6 A F 0.+.w e n k n V V f e e 6 * * 7 k k e e e 6 7 e e 6 0 k w k n k e n k e - 2 2 2 6 w w 6 w k e w k q 2 7 n V m t m 2 N t 6 6 * t 7 l 7 e w * 2 e q e t w 2 - 2 w e w q t 6 2 2 2 2 2 6 6 q q 7 2 7 w 2 + w 6 6 t n k 7 2 2 2 * % * 2 w e N n V n q l V l 6 e t n A V e e F k 7 w e e e e q q 7 2 7 t q 2 6 2 2 6 w k n l q e 2 2 6 * % w t 7 2 7 e e q q % 7 k 2 7 l 6 q - - e * w - w 7 k l 7 t e 7 t * % e 7 t t * - 7 w w 6 % + - 7 w k t q 6 2 7 q l 7 6 6 7 w q q q n w 2 7 e e q w 6 6 7 q 7 3 7 t - r + - 7 % - 6 7 l V l q w e t w 7 2 * 2 7 w 6 ",
"* + 2 k e % * k B w 2 w e w w h e 6 * 2 h w < 6 w e & e V n r.k k h e e e e w w < % 2 w e k n e t e 7 t n 6 * w w n 2 % n h 2 k w 6 6 7 w w e k n n n V V n e 7 6 w 2 w F n * 2 - N A w 2 e e * w w n e * t N * n 6 A w k 2 w k t p / t 6 V k 2 N n 7 2 e Z N 6 * t e A r.k t e t q w w w w q t n e 7 w n n w * * n +.n 7 w k n e k 6 * 7 e w 0 A w B k n A w V +.n k k e w e n e 7 w k k e 2 6 e 7 w n k w e V e t k e t n t 6 e l n k e t l l 7 k t k V V k n t l l e N 7 A n N l w A l m w k +.e e n l l V V t k N A V k t m l V F +.+.F V n A V k q t N V k k e e m A m e 7 w q t l n n n n q q k t 7 q k w w n n n A n 6 - +.n e n C V n k +.+.A m V F F n k k n V A A F +.n n q q t 6 2 k A n k n V N m V 7 l F t m +.t t n A +.7 k t V q 2 A.n w F F m 7 7 l 6 e n q m F q t t q 7 e k l F A m k t l V F V V F r.r.F V n V k e l V V m n A V n l r r r m l F t t m e l l 7 V r.F l t l V N A V n l N A V ",
"A n k k e e k V e w n e n 6 k n B n 0 n w n e n V V n k k k n V n n n n k e n r.w n k k n e e B t 6 6 e n t e e e 6 * w k 6 6 N n k h k k e e h 6 h n k k k w 2 6 n t w V 6 Z 7 6 k 2 w e 7 N 7 e e e t k k N +.F A e V 7 w 6 l V e 2 7 n N n k l t e k e 7 6 6 7 t n 0 e N 0 e k 7 - 2 w k t e 6 w n e N V 2 w 6 0 V k k V e k n n 6 k 6 n e n V 6 e w A 6 w w 7 w k k n k 7 * e q 6 2 7 t k e 2 2 6 7 w 7 6 2 q t k e 6 - - 2 2 7 e w w q q 7 l 6 n q 2 e e n k k e 2 6 k k w 2 6 k B f 2 7 V e k n k k k e 2 2 e 7 - 2 k e * 7 7 q 7 6 l m w 6 e 2 k - e 2 w e % m 6 N t 6 7 k e 2 2 7 - - e 7 2 n - 7 6 2 2 w e e e q e e w 7 - 2 e w * - q : 9 e 6 7 p t 7 * % 2 w e w 2 2 e e w 6 - * 2 w t 6 7 e t N l * - 6 6 2 7 e q 2 6 - % * 2 6 7 q 7 e t w 2 7 q t 2 2 w t t e t p 6 6 7 t t 7 2 2 q r.e - 7 - 2 7 t e k k w - 6 l k * 2 q - 7 n e w 7 n q 7 r = 3 3 3 + q 6 2 + t - t 2 % n 2 m 2 t 2 n - - % l * ",
"e q w w 6 2 6 e 6 6 h 6 h 2 e 6 w f 0 k 2 f q n n k k e w e k n k e e e w 0 k A 6 e e e n h e n n e w e n t e e A n w n +.n w N h q e h k e h n k e h n B k k n e n k w A w A 6 6 k 6 e k w n 6 w 0 7 e e e e n w e 6 e * e 6 q n w 2 q m A V V n k t l n k n V B A 0.k n A k N A n e e n C V n N n B e B A e A k e N w 6 e 0 e N n w e 0 t e n A k n V +.k k k A A m m m m k k n m m l l V A A e w 6 w t k e 7 A A V n t e l V V V N n m V m e n q V t 2 q t m 7 k k e e k e 2 V n n m k k k A V A m k k n k e k m k q e l k w n t n N n F r.V +.r.m A q m k V A q +.l 2.A n V V F A V m t l m.+.V A.t m l n n m V V V V V V V A N V A V k t m e m A N A m.m.) n n n A +.A A A C C A F V n n n n t k l k n k - V V m n V F F V F V n k l l l l e t t q q n F +.k n m n t q 7 e m n N F F m k k n m.k t V n +.A.A m n V N n N F A e n A k n V k e 7 n l t r 3 l r l 3 m l V t +.t F V l +.N F V 7 7 l e k n V t ",
"e e k n k w e n h k A e A n V w * e w e * f e n A V n h h k n V k e e e w 0 e n 6 e e e n k e n k w 6 0 7 6 6 6 k 7 * w V e - 7 2 * < 6 6 6 6 w e < * e e 2 6 n k n t e A k V 6 6 t w k n t n 6 n t t n n n t n w l q n q V k k 7 - % 2 w e k n w 6 - 2 6 6 e n e e n 6 - e 0 e k w 6 6 w e e w e 6 6 % 6 e 2 t n k V w 6 e 6 7 k e w 2 w w n k h w 2 e 0 6 2 w k k e e e e e e 2 q e w 6 w t k e 6 - 6 e t q 2 t t t q 7 7 e n l t 7 6 7 q 6 % w * e 2 % 2 6 q 2 7 w 6 6 w 2 % 7 7 2 2 2 w 6 2 n k q 2 2 7 q 7 2 2 6 6 6 w e k w - 6 e q q t q 7 e 7 e 2 q 7 e 7 % 7 - w 6 - 6 2 7 2 2 7 2 2 l k 7 m % 2 - 2 6 2 2 6 7 7 6 6 6 q q e t k k k k O 6 9 6 6 7 q 6 2 * * 2 6 w w e k t k n n e w e q w t t 7 q e - t 6 * - 6 7 w q w 7 2 2 6 7 7 7 w e q 7 7 e t t w w w 7 6 6 6 6 : - 6 7 7 2 * * 7 t % * 6 - e m t 6 - 2 q e e e t 6 e n q 7 7 - 6 % q e 3 - = l = 3 = q 7 l 7 l 6 t k e e m 6 k w k 6 7 w t 6 6 ",
"* 2 e k f w e n e k V 6 n n B 2 * k e e * n k k n k w 6 0 e h k A V V n n n B V n A V B A A n n F C B B B n n k C n e n 0.A n A n k k V V n n V o.n n A V k k A n n n N F A F n e n n n V A A n t e t t e 6 7 e 7 w 2 m e n 6 w V n k n m N V +.A n k n n n V F n t C e e Z V n A n n n n N B n k t n w n V w N n n +.V B A e e n e n 7 A k +.A A V w n 6 k e V k n m A A A m B q l n k t k n l V n n m A A V n t n V V V V V V V n t w q t e 6 V w n k e V V V V A m k k k n k 2 e e 7 k V k 2 +.A n f k m V m 6 w k m m k V @.V q t V l e e e 2 q l V m n t t V l n n V n n V V m e t +.+.N N A l s.e V m V V m n m V V n l l t l n l m A A m e N A N n n n n n k k N A A V A Z B n n n t n A l n F F N F 2.V +.l e k N V V V m V N n m A F A n V F A A A V n n m n k l N A A m n n V m k k k V V w l m w m F +.V k l V +.+.F m k n A V n t q l 6 l m t 3 - S = r 3 q 7 m 7 t 7 q e t w F % t A r.6 7 7 m 2 t ",
"< 6 e n k q e k k k B 2 n n V 2 6 n e e 2 A k e V n e w e f k k w w 0 6 6 6 6 6 6 k w 6 h k 6 6 7 7 6 6 6 6 6 * t t w w t w w V 6 2 6 w w 0 6 w w e e e e e e w - 6 7 e 6 w 6 e 0 6 0 2 6 e w 7 n n n k 7 6 e V w 2 - V k e - t t w 6 7 7 6 7 e t e w e e w e t 6 + w 6 6 A n 6 e q w w w w w w 7 6 7 - w t - e 6 6 k w 7 e * * 7 2 e 2 n 7 k w e e < e % 6 * w 2 6 7 w w 7 6 2 7 7 6 2 6 7 6 - * 2 6 7 7 6 2 2 - 2 7 q e e e e 7 w 6 - * 2 6 2 l % 2 2 6 n q 6 0 7 2 * * * 2 2 + 2 2 % * e e * e e 6 2 2 e e w 2 2 e k w 2 2 7 l 2 7 t w 2 6 2 2 7 l k k 7 2 * q q 2 q w 7 q t q t 7 2 t t 7 w 7 2 V 6 t e e q q 7 w e e 2 - 2 q t e 7 7 7 6 - + 2 e e q e k l e w e B N n e e t 0 6 7 w 2 6 e - - 7 q 7 e n w k 7 6 w e e e q e k t 7 6 w w 6 * 6 7 7 q t k t t k q 2 - 7 7 6 9 7 7 e q 7 2 7 6 - % w w * e q w 7 2 2 2 7 q q 7 7 7 e k e 7 w m 6 l m t 7 3 F 3 l r l t A e n t q e k e 2.% e t N % 6 w V 7 V ",
"e e k n n h e k n n V w A B A w w k 0 e 6 V e w A n h e k n n n B B n k n V n e V +.V n +.m.o.V k n N n n B n e A +.V n n t k 0.w w e k n k k n k V o.A A r.+.V A A F +.k V e 0.r.Z +.n n +.N V N N B k w 6 e A q q 6 F k k 7 m N l t k k k n V n k n C A N N V t - n n t m.r.k k n N N n n n n N n n w n A k F +.C +.n n A n n A N A N F N V n h n n A k n q q A A m k k k l n V V n k n V m t q k m N l k k l t t e t k l N V l m N k t n V V r.q t t t F n w e k k k k e q w k V k 6 2 k A V k n k k n V m k e n A +.V k l k +.m N F N N A N n l A n V t n l q k 2 n q w t k 7 N V t e 7 w n q 7 F w n k t e n k l V m e 7 e m V V V m n l n w t l l k k n V t e p N N n e e C k n F F n e n m k n m n V A t t l l k n m l e t N m t t n m l k m n e e l A +.V V m e t m m t t 9 9 t e w w t l e w N k w m w q k l e q t l n m V l n +.V l A 7 % w t r q 3 S 3 t 3 t t N q m e q 7 q t l * 7 2 6 % 6 q t 6 e ",
"e 6 6 w e e w e w 6 n e A e f 6 w h 0 n 6 k w h k e 6 0 e e w 0 6 6 2 < 2 w 6 % e k w 2 h V k w 0 t n k t t e 6 e k w 6 w 6 6 e 2 2 2 w e w w e w e k n B n n n n w e e * e % k k w n 6 6 n 6 w e 0 6 6 2 - 6 e 2 l e k * e 7 q t 7 2 6 7 7 q t 0 6 7 e e e w e w % n e * n N 7 - 6 w e w 7 7 w w 7 w 2 e n 6 n n w t 6 6 e 2 2 0 6 * 2 * 6 * 2 6 w k e e 6 6 2 k k k e w 7 e k k k t w q k l t q e e e q q t t 7 6 6 2 6 w e e 7 w 7 6 7 e t q m 2 q 7 7 n e 7 7 e e k e 7 6 7 7 w 6 * 2 q k k w e e w e e w 2 2 e k e w k k e l q q w 2 q k 7 2 - q 2 t 2 q 7 7 m 2 V q w t k 7 m n w q q q k 7 2 V 6 l t t t n e k V V t w t 2 2 w t e 6 w n k t t e e e e e e 7 6 9 e 9 9 e t 6 6 n n 6 * 6 N q 7 w e n k % 6 n m e w n l w 6 t n e t V F V 7 t k w - 2 w t - 6 6 - 6 t t 7 7 6 : 7 7 6 7 e l t w k 7 7 m - 7 t l t t n m n e l w 7 n w * 7 e 6 k l l m t m t l 3 m l m q A t N k k V 6 e l m q n m m e n t ",
"n e w k V A A A h e o.+.J.V B e 0 e e V w e w V o.V B V A A V n n n n k B A V e r.m.A k o.m.+.B 7 n V n n k w - k n e e N n e n k k k B B k h k V h k o.Z k k A r.n n V w 0.w 2.N e +.n N m.n A C k w e n n n n t I.s.n * V m q V t w e k k l l N n n V V n n V V e m.A - k A n w t n n n k n n w e V n +.0.e n C B 0.C A 2.k e n B 6 n 7 A n A A B o.q n w V n 6 e n V m n n n N A A m n V +.r.N l q w e l n m e t n V V V n k t q 7 7 t m l q l 6 m l t A V A n k k k e e k m 2 7 w k m A A n k n l t k k e 7 e V m 7 6 k k 7 V l k w 2 e n 6 t t +.n F q t 6 t +.q s.n l V V V V w 6 V +.n e 7 2 V 6 n N A F t 7 e N m e w t e q k V k 2 7 V e 7 7 q e k k n N t 7 7 9 t N F A e 0 k n 6 6 e A q 2 7 t V l % 6 V A w 6 n m w 7 l m q w l n t + w V N k e l n 2 w 7 - 7 p p 7 q 6 6 7 w 7 q t - - * 6 % 7 F 2 * 6 7 7 w k k e m F l k A e % 6 7 - q 7 q l 3 7 t r = t 7 6 % k 6 n t e n . q t V 2 n t t 2 V k ",
"* 6 h * w e o e k e e o 2 * q * + * 6 w w 6 2 2 k m e k q % 6 6 6 2 O 6 w 2 w 2 w e e w 6 6 6 2 w 7 A e m 2 k k 2 m + e % 2 q 2 7 e +.k 2 2 * k e 7 n 2 2 k 2 2 2 6 e n k w w e e 7 t n k n A B V 6 2 e e * - k t 2 2 w q k l 7 k 6 * 2 w 7 q k @.m e 6 2 * - 2 e n n 6 % e n 0 w w e k n n e 0 - w e t V m q q t q n l 6 t n - 7 2 6 q - l w +.2 e q q k e 6 7 N * - 7 * 2 e 6 l A n k A n l m.k e w e l l q 2 k t k n e 6 t 2.6 k n w 6 e n n t t l n t 7 w t l e - V k V e V 6 6 7 w 6 2 q n t e t n n t e k l l t e e q e e A t 2 q k t e e k k l l m n t e V e * V V 7 F A % t n q q V F m l q l m e N F e t e e t t e e t k k t w q k n m F V 2 t 6 V t t V V n k n V n 7 m V n k l w w N V n 7 e +.V q N t n m V n k t e l e l m t t l q - n A e 7 l +.+.e e N t F 2 2 e e w 7 w k n t e t l e 7 m - F k t w 2 s.F S 3 t F l r l m n t q l k V n V A t +.t n q l 2 k t V l k l l n n N V t e q e k n n n ",
"k V @.V q.r.e q.A A +.e A V r.V l m F F F A V V A +.k n m k +.V k V n A A e n k n V V n n n n n k k V e k 2 k k t F 6 n 7 t m t +.k k 7 q n w k 2 2 k 7 7 n e m w e k V V n n n e e n n t B C e A N V A C n n V m t l m n N V e k e w k m k f k k k B A A m k m n n C n e N +.B e e e t n t w 6 6 q 7 e V V n m n m A V k m V m k k n A t A q A e m n n V V k N r.e e l q e m e n N k t m m n V e w w q t e 7 - 7 6 w k e 2 7 m + 2 t k t q 7 2 N n l m m k t k k t 6 A n V e n w q n V m k t l e w 7 w 7 6 2 7 6 7 q e q 7 2 * t k m m t 6 w n q w 7 7 q q 7 7 F t 2 V l - l t w t e 2 - q l l l e t t e n V n k l l n l t e q q q 7 6 2 6 7 6 V V 7 l 7 m e k t l t w q l n k w e w 7 q 6 2 e n t 6 7 l t 6 w 6 w t k e w 6 2 q 7 q e 2 7 t e - 7 t e 6 6 q l 2 - 6 % k 6 t V 7 7 6 w e w 2 % 2 w q 7 q - k k q 7 2 r q r 3 3 r - = 7 l l k k w - - % 2 7 % e - w 6 q + 2 2 t 7 7 6 2 2 2 6 6 7 q e e e e t k ",
"* 2 w 0 n B 6 e 6 0 e 2 e e k 0 2 7 w q 7 2 2 2 2 e * * 2 w n 7 % w q V n 6 n n % * 2 * * < 2 < k e e 2 6 * 7 6 e V 6 t 7 t n k A 7 7 2 7 n w e 2 2 k e q e w A V k t k n n n V 6 0 e 7 6 n n - 6 e n n k t e 7 e w t n e q e 2 k 2 * 2 7 6 7 e w 7 7 q 7 2 w k e w k n e e n t n n n n n n e w n m q 7 l n e k 6 e q 7 7 2 7 V q q t N 7 k - k w k e q l t q k N 7 7 q 7 q k e q w w 6 6 k k 2 q q e e e q 7 7 7 6 e n l q q t w w e n m N V F m t e k n k e q t q 6 V m m q t w q k N N t q q l e e t k k n A t k n V V m l t 7 t V A k 6 w k A V l l n m m m +.n e +.A t F V 7 t m A F V N m t k t k V m l m k k l l l t e q q q e t t e e e n V k N e m l m 7 e e 6 7 t N A N V k l V l q l F m n k q k l w 7 e n m m k e w l t n n w e A A m n V F V t t V n n m 2 m t V A t t t l V V l e t l V N q l e A V m l 2 r t l 7 S t r l m V V V +.n n e V F e V 6 n n F 7 t e V V m n k e e e e q l V m k t l V ",
"k k n V q.v.A  .V V V n V V V k l n m n k t e e n @.k k k A m.m % w w n n w B V e n V n k n n n r.+.V k n n V n 7 e 2 2 2 w t e 2 2 k e 6 w 2 e 2 2 w k e 7 7 n +.n 6 2 6 w k N e k N e e F 0.w 6 e n V B t e e k e n N e e t q k 7 7 k k e w e V k e 7 2 * 7 l t 0 k A n w e w n n n B n n k e A V q 6 t e 6 7 e n w 7 k 7 6 +.t e k V w V w A l V n t m l e n k q q t k n V N k t m k 7 m A 6 q e e q 7 7 q e t q t m V n k l e 2 * 6 7 7 q n w 2 2 7 7 6 2 2 q 6 2 e t e 6 6 7 2 * - - - - 2 7 2 2 7 w w e k 2 2 2 6 6 w e e 7 7 q e e w 2 2 t q 7 7 w q q q e 2 2 e w 6 e w % % w A A k 2 2 2 e w k +.n 6 t 2 6 6 6 6 w q q t q q e q w w q 7 7 6 7 7 e t l 6 6 7 6 7 e k l l t 2 2 q 7 - 6 t w e 6 O - q % % - 2 7 7 2 2 2 2 2 q w * - e k t e e e w 6 6 7 7 n V - q - 6 2 7 2 2 6 w e t e w 6 e q O e O e k q t + 7 - r - t 3 - 2 2 2 2 6 6 2 7 6 k t % 2 + 6 7 l 2 7 - w l l t e w 7 6 6 - 6 w w 6 2 6 7 ",
"e 6 2 w h n V h e e 0 6 6 w 0 6 7 7 w 7 6 2 - * * k e 6 6 w n 6 k n w n k 0 k h w k n k e w e w e e 7 2 2 e w 2 w w e 6 w t k t 6 q A k w e w V 2 * 2 k k e k m A k 6 6 w e k V k N C e 7 V Z w t 7 e A A e w V l t n n 7 w k k 2 2 e A A k 2 2 k e k k t w w t w - e C k 6 7 0 t k n n n k k k k l w 7 l k w e V V w w n e 7 A e e l A e V w A k m k t m n t m q t e e l n n m e t V l 6 l A 7 q q q 7 2 2 q k t q q t k k t k +.V V +.F k w q V V V A V l n V +.V m m F V V m F m t t t t n V +.F A A V l t t t t t t k n m V V A A V V V N n n k k l n m n n +.n V V l l k q r.V m +.+.n e k l A m V m.F l F n n n e t V F F +.V l l t w w t t w w w n V A A V n m F +.+.V n +.A e e V N l V V m A n 6 k F e e t k k l m A F n n A A t t A A m A V e q n N t 2 m +.e m t A F V V V V V V n l A l l k 2 +.7 V F l F m a.t m l t q 7 q t t k N w q n k V n 2 l 7 t e A k V t k A A V N m n n n m m n m m m m n ",
"V k 0 k k k +.k h k 0 e w n e k e k l l t q w w 2 k k k k e V k k k < w f 0 h w k A +.V k k k h n A n m k +.V k e 7 V 7 k n k k V k k w w k e m w e 2 k n t n k n t k N C V V A k B A k 6 e n 6 k - 2 n n 6 6 n t w e e 2 6 e e e 2 2 7 7 2 2 w k w 6 6 6 2 6 q 0 - e V n e e e n n B B n n N V k m k t m k 7 w k e 6 2 w 6 2 q 7 w l F e m - e 7 t q q n k e n 7 l q 7 t e 7 q 7 e n e 6 e l e e t t q w q t n e q q q e t t k k q w 7 7 2 2 7 6 6 w w 6 * - 7 7 - - + 6 - 2 - 7 6 6 7 7 2 2 6 t q q e q 2 - - 2 7 e t t q 6 2 2 t n e 2 - 7 e 2 2 2 6 w q w w t 6 k e 6 t 7 2 k w 7 t n q 2 2 7 q - + - 6 6 w 6 7 6 % * 7 e q 6 % + * % + * 7 * O % + w 7 t 7 6 - - 7 t w 2 % l e 2 2 k l t V q w e 7 2 7 t w 6 6 6 6 7 q l V w 7 t t 6 6 t t 7 l e % % q t 7 o * w O 6 * k A - 6 q t k e 6 - q 2 - - - t 7 e w 2 q t m 3 3 7 3 3 3 3 6 2 7 t 7 6 w 2 7 w - l * 2 % e 6 l 7 w w w 7 7 6 7 7 7 7 2 - 2 6 7 7 6 ",
"V k w n q 0 A 6 0 e 2 k w n w e w e l n l t q q 7 k w k l e V k k h 2 k B k V k q n A n e w w w w m e k 2 V k e e 2 A 6 l l t t A e k 2 6 k w e e V e k k 7 n 7 e e n V N n n n n C m.r.n n V n N w 7 n B t e n V l n n q e l e r.n e w 7 7 l +.A k 7 6 w w e k n t V +.V V F A B N V N n n n V k V V n n e 2 7 k t n t 7 e t 7 N m V +.t V 7 V t m m n A N k m t F N t N n q k l N n k m n n A 7 q e t t t t t e e e e q e k k n l q - - q V +.m n n m n k t l l e k 7 m e n e l n V F A n l n e w e k l l l m t l n V V m l t n F +.V l n V V e e q e l m V V k 7 A l t +.m t q 7 q n F A n q F F V e w V +.l k V N t k A F V l q e m V m A s.k t A m r.V +.A N k t n V n n N n n t k A V m F n m k l V n k V l l k k k l V F n t l n e l A A n V V t e l N m w w t 2 n 7 l A 7 q k n m m m n t t e e n e m e t n l m t l t t m l l m l e t n l e e 2 q e 2 n 6 e 7 N e A m A n n l l l l n n e e q w q e l n ",
"V n e A e 6 A 2 w e 6 A e V w e 7 e n m n k t e n k 2 k n e n k w e 2 e e 6 w 2 w n A n e e e e w V e k 2 m k e q 2 +.7 m n q q k e V k w e 2 e % k w k e 7 A k t e e w 6 - 6 e * 6 V F e 7 e e t e 0 7 e l e 6 k q e t 6 6 6 * k e e n k w 7 e 2 * 2 e n k w 2 6 6 w w 2 6 e 6 t k k e w 7 w e 6 k l t l e 7 t 7 w N l - 7 l 2 V k q q % e 6 A e l t e k w - 2 2 n t 2 t e 2 w 7 q * * t q 2 k + * 2 w q 7 2 - 6 q e q 7 q e e 6 t t - % 2 q q e 7 2 7 q 7 2 2 w 6 e - l w t 2 6 w e k q 6 7 t e 7 7 w q q e l 2 2 2 2 6 w e t q q 6 2 w t 7 % 6 2 * - 6 e k n t 6 V q 6 m 7 - l w - * 6 t t q t k V t 2 m A % + 2 7 2 6 k l w w 2 2 q q 2 2 q % - m e N 6 e 6 q 6 - 2 2 6 t V 6 w 6 7 e 6 * 6 t l 7 q V t 6 n e t t e q e t l k 7 7 w 2 e V N e q e t q 2 7 k w 2 w 7 F w 7 e N n e 7 6 w k m 7 k t e m + t * w A t q % m t q r r r r q 2 6 q n q q 7 l l * w + 2 - e - t e V k t t e e e t t e t k t w e n A ",
"A +.V n r.6 V 2 N e t C A t w t n k V F n t n k t e t C F A V A C n k +.7 2 A * e n n C 0.6 A t F N r.n n r.V 2.r.e A w k m.e Z V e Z w N n t 7 e B F A n e n A 0.A N V B n V 2.+.B n A n w w k w w k A V e w e k n B N n n n k V V A F +.A n e n V - n k Z A n e V C t k Z A e r.n B r.m.2.+.C k C +.0.+.+.V n t k n V C V V B k n V B k t n A V t e r.F k 0.2.r.J.k V r.n A k e w /.6 m.7 +.n +.A n t l V V n V V m k t n k q w e e t n n N N n N A A n e e n B F e n B e A t t n * N n 6 r.e V n A k n * k A 2 n C n e t e 6 k 7 7 k B k e e A n k k N N n e n m t w k +.+.m V k k n n t k N V k t 2.N N A * A w n B V B 7 n k n e 7 e A 0.+.e e n A Z V n n h V k 6 w e e n 9 e e t n V n k t F w - A A 7 q n 7 2 6 e e e w k k n N B n k n F A n e e B N k m k q q q w 7 7 n t t V F V l t e w k t m N e 2.N t n e t V k V w k 2 - n t 6 t 7 p n q q n n w 6 m V 6 2 l V e 6 w k n n k k k w k k t * N : : ",
"w h e e A w +.k e 0 7 n N t e n e 6 e n w 6 6 - e w 7 w 6 6 7 k n e w V 0 6 F - k B n n V % e - 6 6 B w 6 t 6 e n - n 6 7 V - e k 6 n * w w 6 6 - 2 6 2 * * * 6 e w w e 0 * % * n k e e w 6 2 6 e w w f f 0 6 6 e t n n n t e e 7 w q w w 7 0 7 e k + w 6 e w 6 6 - 6 w 0 * * 0 n 6 6 e w e e 6 w t k t k n k e 2 6 0 w w w 7 w 2 7 e e 6 2 6 6 e 2 * n k 2 e w w n - 6 e * 6 - e O +.+ n * - 2 e e 7 6 7 q 7 2 7 7 6 2 2 6 w e w 6 2 6 - * * - 6 6 6 w w 6 7 w 2 w * w e 6 k w n B * k e % B 2 n w n w e % 7 k 6 k B t e n n e n 6 w V k + * k e w 7 7 e e w 0 w e 7 - 2 t t 7 6 2 6 e t e e k n w 2 e 6 7 N - B 6 e k n k 6 t 6 w 0 6 6 e w 6 N t w 6 2 * 2 7 e n k 6 w w 6 w t p t e e e w 2 q e - 2 n t 7 N * 6 0 6 e N C n 7 w w w e e q 7 w e e 6 6 0 7 6 t l m V V V A F k e q e t l t q 6 2 6 2 e t - n t 9 m n l V e k t m t q N n e n 6 e r q q k e 7 q V V q 7 l N k n e 7 e N A n w V A +.k 6 N e n ",
"B V n h n 6 k w V k k V A C A +.A k n V n k n k C C A V k e n Z r.A B F B A F.k +.Z A B F 6 n w k n F n t V n A A e 2.N n F 7 n 2.A A.t V V A A r.F N n V C V B e e n V N k t k V A V n n B B n n e e k B V V V n m A A A N B B V V A V n n A +.+.m.k +.n V V n C C F 2.A k n F 0.N B B n Z +.n n n k e n V V n N V V V A A A A V Z 2.2.F V N N r.C n J.r.B F N n m.N A A n n N m.6 A.n +.V 6 C V V V V A +.F m V l l V m k V s.F l k N N e e V +.A V A A N n k n N e n N k N e V N 6 B t 6 Z e V e N t V w n C 0 e k e e n n t A A n e V m.0.e k e e t n N n k n V m e e n n k e e k N C N B V Z n w e e e F e A e N B N N w n n B n k n n k e V n e w 6 6 k A k V n k V n e e N A A V B B n k A t 7 l n e l m.6 n N w 6 e w * n B n k n A A t e n V n t e t e - 7 t t e q w q t t q 2 6 t k q e e k t N N 7 n 7 6 t e w t 2 7 2 q 7 6 e 7 - 7 : 7 q e e e w 7 k m n e w q k l C t 0 w n N k 7 h e A 6 6 9 9 t ",
"0 w w w e e n V e 0 6 0 w 0 7 e n 0 6 w 0 w n k 6 w t k e w w e n w 6 6 6 k B * e 6 w 6 t * w 6 w w w 6 6 e k n e 7 V t w e * 6 w 2 n % 6 2 6 w V n e e e e w 6 6 6 7 e e t n V 6 e e 6 6 k n w 6 2 * 2 w e e w 6 6 7 w 6 6 6 7 w w 7 6 6 6 w e w n * t 2 6 6 6 6 n N w 6 k k 6 w 6 0 2 - e k 2 e w 6 6 7 t t w 6 6 6 6 6 7 7 w 0 w e e e w 6 6 e 0 6 B t - w 2 2 n 6 e 6 w - 0 e O k 2 2 e . w 2 2 2 2 q k t w q 6 7 t w * 2 l e * * e e * * e k e w w 7 - * * V B e t k t k e e e 6 n e 6 B w e - w 0 V e N V e e e 0 7 e k e n n w * e m.+.2 e w w w e t e e t n n e w t t t k k k n n k t t n k e t V w n 2 n w n t t t 6 e V n e w e n n N 6 0 e k e e k A w f e e n n w w e p M k t k k e F q w k w 7 k V * w k e e n n e w n n e e B B e e k n n k e e e t n N m n l t q m A m w q V V k 7 e V l N n - e N r p q q n q t t V A V A N m A e 9 t N N l t k N m n n e w e n n n B n t t n n k e m.t F N N m ",
"V V V V V +.+.m.+.V n n n n n V A n N F V V C n e e k n n B n k A k e 7 e F A w A k A k A e n N e t w e n V A n V V 2.A n n t B n e 2.e n k n n C V V V V n k e n N N n n n N V e V n e h A A k V n n n V A n e n n n k k k n V Z N n n V C B k A +.e +.n n n B t A A k n 0.F e n k n n t A +.e A A V N C +.F C n n k k n n n B k k n n n n n t e e t F n 0 n e k Z k n t +.e n k w +.w - C 2 k l l k t n A V m A N A s.F t t F F n n 2.+.e w B B N A A V k n A k w 0 6 e n n n V n n C t 6 e 6 t 2 w w Z k V V k e w 6 w t k e V 7 0 n e O % n e e w e e e w w 7 q t q 7 w e t B n k e w w w w n B B k r.w n - B e B k t n w l n t w w e t n B 0 e n C n w 7 e k n e e V n w e t M M t e e w 6 A l t t q l m e k e e V A n k n 6 e k w 7 e k e n k e k n n k t e q 7 6 w t q 2 - w 7 * * w w % e n F t t t : m t - 6 - w n 7 w 2 7 l n e 9 t p - * - 7 w 2 * 2 7 2 2 2 * + % 6 6 6 7 7 6 6 6 w 6 % h * B p e 6 ",
"k w 0 6 * q % 2 n t w 7 w e k n 7 6 n A n w 6 * e e 7 2 6 w w 6 w 6 7 * 7 Z k 7 N w A 0 e * - 7 + 6 * w k e e * e e k e w w w e t w A 0 k k k k e k n n k e w 7 2 w e e w w 7 2 w e w 2 6 e e * 2 6 0 w k n e 6 w w w 6 6 7 e k N t w e n n e 6 C A 6 V e w w e n 7 6 k V n e e k e k n t B V e 6 7 7 6 2 6 6 6 7 7 w w e e e e t e e e t n t e 6 6 0 B e 6 n e e C e t 6 2.6 t t B A 7 * e 6 6 t t w 6 7 e q 2 w 7 q k t 6 7 t t 7 e V V e w k n n V V k w e n A t t w t A n B V k B A k e t e A e n n r.n A N k e w w k B n n A t e n n w w n n n k t e e e w w t l l k t l n B n k w 7 e e e Z +.Z e m.w V e B t V k t n e n n n n N V n n k n n N V n e w e B V k k B k w k p M n n n B n e k n t q k A V k 0.k e V N 7 2 e n n n n n n V A A n e k n n n n s.+.m t n F m w w l m l n V n q V A +.q 7 t t a.N r N A s.T.+.A e e V A t p A N t n N N N n k e A A V V l t l V 2.C n V r.m.0.V +.h B e A 2.N m ",
"k 0 w k h J.B @.A V n n B A Z Z n n +.m.V k n n A +.A n k n V n k n V 7 n J.V n F n J.n N e w V w A n A A k A e n N n V V N C V n w V 6 k n n n k k n n n n k e e n V N N A A V n n k e n V B h 6 e n n V +.o.V k n n n n n B V n t e e k n e w V m * N e e w w n e e n V n t k A t n N k k B n e k n e 7 w e e 7 w e t k n n n n n n n C C n e t e 6 B n n F t n 0.n B 2 m.0 A A +.n t k 6 n 7 t t q 7 q e w - 7 6 6 6 7 7 q e e w e k n k n V A A A A n e e k V w k 0 w n 6 6 w * 7 w 2 6 w e n 7 t e A 7 e w n e w t N V n e e e 2 O q m.F * w w w 7 6 6 6 6 6 7 q t e e q e e t e 6 6 7 7 6 n V n * 2.- n e w 6 t 6 6 e 6 e e w w k n e 7 w t e e e e w w e 6 w 6 w e 6 2 e 7 7 6 6 e n e 6 7 t 7 6 l k e V e 7 7 t t e n A V e w n V N n V k w 7 e e w e n V V k 6 7 e w % + % 2 7 w 6 2 * e k l 2 7 t 7 p - * e q e l 2 6 w 2 e k 6 7 t q 6 q 9 6 2 7 2 % q t e 7 2 2 7 w n w - 6 e n k w B w w e e F e p ",
"e 2 < 6 2 o.< w n n t e e n n n t w t k 6 6 N F 6 k N k w w w 0 6 7 k % 6 A 6 6 e 6 m.k n e e +.7 A e e 6 % n e 6 w 7 t k e k e N w n * e n n n e w 7 w e t e w w t e 6 6 e n B w 6 2 6 e k k e e n V n k k k e 6 w e k t e e e n n t t t n n n n e O n t t e e w V A e e N n 7 F e e k w 6 e e n A A n w e n N e e n N C C C V n n n V A C t 6 B e - k V V +.w n r.A V * m.6 +.F A 6 k F * V w w e e t l n t 6 n n t 7 q l N n C N n e e t n n N n n V C N n N n 6 n e B 2.e t 0.n N n 7 e k N N e n k +.e n k m e w k N n e 6 e e w 7 e N n w k n n k e e e e t e t n n k t t A +.Z B n N n t n A F 7 R.e A B B n F n n A m F n e w e t e t n +.A V A A n n n w k n V +.B n q.N n e e n V e 2 F s.V A I.A N (.A +.Z n w e n C m.e 6 V m.+.C A N B V A C n V +.k V m e t V V k q e n F F N l n e k V l F a.e q A N 2.N t l w n +.n F +.t m F m n F F l t V n w m A A l e l N m A V n k e n C +.e e e Z n l.t M ",
"k e n +.A w w V A n w 6 t A V w A A A n +.w o.n A e V V k n e e N e w e n n k t C N n e w w e e w n n e w n n w V k 6 A e t 0 V k k k n V V n t k w e n k 6 w n w 6 2 6 q n n n A V n f w w e k w w w q e e e t 6 6 - 6 w e e w n n e w V * n 6 6 A * N w 6 7 n N w 2 w t e n Z q k l t q t k k t n N n t w e k e 2 w B n k n t V Z n 0 e e e n 6 w e w 0 6 w e h n < B 6 e k 0 n t 6 6 n B e e * 2 w q q w w w t t e e e e q w * k t 7 q 6 2 V t 7 7 k V m t 7 k 2 2 m D t 9 t p p t 7 l * k w 2 e 2 t 6 l 2 - 6 e l e 6 * + o + 7 2 * 7 q 6 2 6 6 7 6 - - - 2 N A q * 7 k 2 . F B k n n e 6 - w t n k 7 2 2 6 t 6 2 w q 7 w l C w 6 w e 7 e V k 6 A A w n n n e + - 6 w w 2 l m e N l t l q m 2 n w w q 2 7 6 A N e 2 7 e e 6 e 7 k n q q k t k k n 6 + l r.e 2 l m 2 e n 2 e - 6 V t q l 7 q k e e l t 7 6 r - e 7 - 7 w w t 2 7 w 2 * - 7 e % q + 6 e * 7 6 t 6 o q t t - l n 6 w 7 7 e - 9 7 7 7 e e e e e ",
"w k k 0 6 e n n C n t e k V V n n V k k B 0 n e A w V B e k e k e n F +.n e n 0.A V k e 6 6 6 6 w t t e w e e e n e 6 t w w 7 n e e t k n k t e e 6 6 e e 7 e n V n e f n A A A n e w w e e e e e e e e t t t k n k t k k n n n w e e k r.k m.V e F 2 N e 6 6 w n w 7 t k w 7 e n V V l t k t e A A A A n e w 0 n 7 e N n k k e N V w 2 e V C F h h e w 0 w e k o.o.e +.h A r.Z e n n N +.C e e k n m m m n n n V l e t n m n t w n l t t 7 6 t n k l V F V m m k m V l n N N p p A N e m e @.k n n e +.m V e n k m m l t k l l l A m t m V n N m N m n k k l n t m q 2 l +.+.r.A n t n B n t e C A Z A n n n N m t e m m k l A m.C n n e 6 0 k Z t r.+.e N V N m w l n n m t A n e n e e n q k e 2.V V V t n k k V m e e m A m k e n V l k m l V A s.+.l A F 6 2 l s.F 2.A.n l m m +.l e m l V V k k n N m N A r N m t l e w k l V A n e e t l e V w t t % 2 2 k l 6 V m V e F r.V r.F D N 7 t 7 7 e t m V A F ",
"e n k 0 6 k A A n t t k e e k V e B w n e e k e V e V n e h e n 6 n +.0.n w k F C B k w 0 6 6 0 e e e e w 7 e k e w e 6 e 7 t t e t t k e e e t e 2 < 0 w 7 w k k w 6 2 0 e k k e 6 2 6 e n k w 7 7 7 7 7 7 7 7 w w w 0 6 6 6 0 * 6 6 7 B w N w e V 6 n n k e k t w w e e 0 w k e t e q w w 6 * e e 7 7 w e w w t 6 7 t w w e 0 e t 7 6 n V e 7 k e w 6 2 6 e k n n 0 B w h V h * w e e e 6 * 2 w q q w 7 7 7 w l 6 % % 7 t w - 7 6 w e 2 2 2 * 6 2 2 7 7 6 7 q 2 w e 2 - 6 7 6 e e q 6 k 2 n w k 7 * V t e 2 k 7 w 6 % % - 6 7 6 q 6 * 2 6 2 6 7 7 7 6 2 2 2 6 - 7 2 - w t n +.k 7 6 0 w w e e n n k t e e e e t e t m n t k A A n k n k e e n A t F N w k e k e 7 l q q t 7 t 7 6 t - 2 t 6 2 % k 7 7 q - 6 2 O q l 6 - e l e q 6 t m t q t e 2 * 2 - % 2 q - t w N e 7 n q 2 w 7 k 2 - 7 2 q w 7 2 % * : : - - 7 7 e t 6 2 k 7 t l e 2 2 2 2 t N k m k 2 e e 6 n q n t m e V l e V n t t 6 e 7 7 q e e k k k ",
"A k n r.q.n B v.N n n A N k n +.k +.e q.n A A V A e A n w e h V A B B A A N n n Z V n n n k n n A n n V N t n F e t A e C k A n n V A V B n V Z n e e k V n n B A n k h n V A A k e e n V A B k m m m m m n n n n B B n e w e t V A A C F A A n n B w t A A V A N n k k t k A A.V V m n m A V n C V n e n Z m.J.A k n A N A +.A t n e e V A k e n n k e e h n V Z o.B r.A B Z e n A V k k w 7 n n l k t e t k n A l q t m V m t n e A 2.l n F n k e w e t t k n V q w m n 7 7 m ) t r N s.2 n V A m q A k N k F V V N k t n V V n A N k m n l V A V V V V V V V k m n m V t q m m.A B B N V A F A C V C A A C N 7 7 e t q 7 e V t w 7 e n k k n A n +.V k n e n k e m q e n 7 7 w t V 7 6 n t e 2 m q q t 7 k t * N +.k w m V t m e k V l t m m A k e t t n F r.V 7 l w * t e 2 w 7 N k t n w t A +.V k n D N t 9 7 6 t V t w A 2 e k e 6 6 w q q e n V e 7 k m 6 V t n t F k N k e n q 6 r q N N N n n n n n n ",
"w < 6 n k 2 * w t 7 7 t k w w k * k * k 6 k k e V w V k 6 e e V t 6 * 6 e e w w e 7 6 0 6 2 6 w e 6 6 w w 6 6 t % * k 2 k 6 e 6 - 6 7 6 6 6 w e w 6 6 w e e 0 6 e w 6 6 w e k k 2 6 w w w 6 2 2 2 2 2 2 2 2 2 2 0 w w 0 2 - 2 6 e t t e e A N n w 6 * O 6 6 * 2 e w 0 6 2 6 e n 6 6 2 - 6 e e w e n k 7 2 7 k n 0 * 2 6 * 6 e 6 6 7 * $ 6 e k C w 7 6 0 w q e e B n h n k 0 n 6 e t 6 * 6 6 2 w 7 7 2 2 - 2 7 e w w w q e e q 7 2 2 l V 6 7 n t k 6 * 2 w q w w k * * q t - * 6 e 7 : 2 k * k 6 w l 2 2 O e q e % - 2 6 w t t q 2 q w w e w 6 e t e e q q e e e 7 w 6 w k w - 7 V t w 7 7 7 e t w 7 7 e k k w 6 t t k t e e n F V k e t B n e w e e B e t k 6 e n e n q e N 7 2 2 t A 7 - t q t * t 2 2 7 2 t k o 7 e 2 - w 7 % V w q n t e n N n t e t n e 7 q q % l n e A n 7 n t +.A A F k m * 6 7 2 q n n q F p 6 e V k 7 k w k n t e t n N m t A A w 6 q e - n 7 q w A q q F m A q 6 e 7 p t t t t l l n n ",
"A +.A n n V A n 2.A A +.r.+.Z A k +.n V n A r.A B 0 n k 6 e e n N n n N V V F A.r.A V A V k k N B t e k n n k k e k F A +.N C V t k n m B N V A B B V A A A B n n n n n n V A A n V A A V n k k l l l l l n n n n n n n k k n n A A C n t m.A +.+.V A 7 A +.V Z +.+.+.+.A n k k t k t q e n n k t A 2.A n n N n V k t e 0 t B e e C A V 0.2.Z +.V V A +.@.@.+.A v.o.V B A n J.Z e k w e V V e t m n l t t k n V q k V V n l k l t n +.+.k e n V r.m e k V V N m k k k e n D N 9 t D A 6 m A T.e t +.n t - V m k 2 w t k n n t 7 6 t t t n q 7 k N n l n n m n n A V t e V A n n A B n n n n N A k t t n N N n e n n n l t k N A F N k n A A n e 7 w t 0 e k * e m e k q e n 6 7 2 7 m 7 * w 7 t q F t e l t A F 7 k l t l V V t V 6 6 k e 7 t n V V t e N n e n t 2 t q 7 n e t k w l e e e 2 w 2 w e t t n p r A t : 6 l t 7 k e n m t q e l n F q +.F 7 q e q 6 n 6 w 7 N 7 w k t m q 7 t 7 9 6 6 6 6 7 6 2 2 ",
"h k e 6 2 w e 6 w e e w e e w 6 w n q 2 w 6 V w A q B n e n k B 2 2 0 w 0 6 e B n w 7 e w 2 - w 6 - * * 6 w 6 O * 2 6 k w 6 2 e 7 7 w w e e w 7 6 6 6 6 6 6 w w w w q e e e q q 2 6 6 0 w 6 6 2 e e e e t t t t 7 0 6 7 e e t t n n n e - F 6 e w 6 n * n N e n w e e e e 7 - % - 6 q 7 7 7 7 6 2 e k e e n n k B e e 6 - e n w * w w e B n 2 * w 0 w e e e w 6 B e h e n 0 0.h - 6 6 6 n e 6 2 q w 7 6 2 2 7 e * 6 q q 6 2 6 w 7 l k e w 2 - q n q 2 7 w 7 7 7 2 7 6 2 7 t t q t m t - t e A 2 2 l e k - t 2 2 k n n k l k q 2 7 e e e t 6 2 k n l t t l n n k e l 7 - e l w 6 e w 7 e e w w e 7 6 6 6 6 0 7 7 t k l k k k l t k k k n n V V N C A A e A Z e F F n F A m m t F l e N t t m t N % t 2 2 6 * 6 6 2 2 6 7 w q e t +.e t F V n N A m V w 2 k m k V +.V m 6 7 t q F l 7 l l k t - 7 e e k k e 6 7 e N N t e m m k V k V F V l l n N V - A V 7 l l k n +.n V l A t V n k V e t D n N t t t t t e w 6 ",
"+.k k A A h e V n F +.V N A V k r.b.r.k +.n J.V r.k A A n A V A +.C V A +.F A A F N n A A n n A Z A V V 2.J.0.e n n e r.k n e 2.r.0.0.r.m.r.F C A +.o.V V A r.G.n n V V V n k k k h e n V A B k t t k k n n n n n k k n A +.+.F B V A V e T.n C V n J.w +.Z t k n n n n V A A B - e n m l l k e B V n w e A 0.A C n k e 7 n F N A A e 0 V r.2.r.A A A A A A n k B n Z A v.h q.w n A B n A B e t n n k e q q e k e k n l t t l m e V k q n e 6 k m k e t q 7 7 q m q w m N t n m.z.t 7 n +.% 7 w t V V A.V V w t l n k t l n n e l m l t k 7 6 N t e q q e t t e 2 n n e V +.n q n k n N B k e k N n t e w e n N q e k l n l e 6 7 t n e w w e n B N k - e n 6 V l 7 N m q 2 2 F t * 2 2 7 t 2 w 2 V t t t 6 w 7 e 7 7 e q 7 q m t * 2 n k 7 7 7 l r.A m r.F w 6 7 e k 7 t t * m 7 2 m A A m 2 6 e q t l e 6 9 N e N n 7 7 2 2 6 2 t m l e e t e V % V V 2 k t q 7 n q t 2 7 - l A k k - - p 9 t - : 7 t t k e e ",
"w e e w 6 2 2 2 0 w n 6 t 6 e 6 < w w A  .f h 6 e e k 2 n 6 6 6 - e * e e * t 6 t t * e 6 N 6 - n w 7 k N k 6 2 2 * - 7 7 2 2 7 6 0 6 2 2 6 w 7 w w w e n V V n B k q e e 0 6 2 w k n n k e q 0 2 0 7 6 7 e e 0 6 - t k k 6 * A k w 0 w 7 2 6 t t e e t t 7 2 2 6 7 e +.n - q 7 % w * t l % 6 7 - m.2 + q 2 w w e q 7 2 2 7 e k 7 e k n t e e l w 6 e A n * * B k t e t N A n w e 2 w 7 w e * 6 V 6 q 6 2 l k l e w w e q 7 t V 0 t n n n B k 7 6 k m 7 +.k q e * 7 6 A n t : N n 7 p q q F n 6 t t +.q m m +.2 V F n 2 * 7 t e e e e e 7 0 e N F Z t e +.7 Z 0 t l % w k e +.l 7 6 6 6 0 w w w w V e 6 n n e V V F 7 k V l V 2 t e n r.s.V t l n t k t e V F n 6 e A k k e - t n n N 2 2 V k w 2 l e 6 n n 7 e * V +.N n n m A r. .n e n N t : t e N r.r.V k k 7 w e e e k n V q 7 F 2 t e k t t t F n F 6 9 t r t m F 2.F e - l w w k k q q n n m l t n A A n r n N N t q q e m n l t t r t t n A e n 7 A V @.",
"A A V n m +.J.R.w e F n F N A n k V n o.A k V V w k w e k n h V C A 2.F A N k n Z A 7 t 7 Z A r.A.V e e n n n V V n l n l q 7 e A A N n B C N k e w 7 0 e n n t A n f k k h k k n V V n k k n n t n n n B A C n w 7 n k N n 7 +.t k N A A N n V n k l m m l n V A m l +.l - q 2 q A q l m 7 n V * +.7 7 F l l k A V l e q e n A n k e 7 6 7 t m A e 6 e n e e n A A C n n B n e C e n n n V e n t 7 V N t k 7 6 6 2 0 t t q q t e k k e w w 6 % 2 2 w % t 6 w 7 2 q 6 V e 7 # t n 6 t r t F k w t e V w l t m 2 q l m n n N V n w 0 w e w 0 7 e k k e e n w t 6 7 q 2 w t e k 7 6 6 7 e k n n t 7 e 0 * 2 0 6 w e A e t 7 - l q w 2 2 q e 6 7 t t w e e 7 k N e e k C k k e * w e q l 2 2 l 7 6 2 7 7 7 t t w e 2 * % % 2 w 6 % 6 e k w 7 9 t e p 9 9 t k w w e e k k e 6 6 0 e n 7 t e 7 q - t 7 l e + A - + t 7 q 9 e 7 w 7 7 7 7 w t t 7 2 2 7 w 7 2 7 t t 9 r t t t q 7 6 2 k k k l t r e e 9 t 6 e - k e k ",
"k e 0 2 2 0 k A 0 w B e N e N t e k w e 6 * h n 6 k 2 e 6 B w V n w 2.n e N * w 7 e 0 k w n k N B e w t n n e e e w w q w 7 7 w V B k e k n e 2 k t w w e N V n A k w w w w e k w e e e e w w e 7 e e e k n t w 6 6 7 - e n 6 n 0 e n n n n k e 6 6 7 q q 7 e m F m t V e * w 2 2 n w 7 q 7 t l 7 A q k r.m t k l k t q 7 6 7 q +.V e 6 7 e l n n w 2 6 w w e e w t k e w e k k k 6 e w e k 7 t 7 % e 7 - w e k Z V l k t t l V n n n n V A V n l 7 n e N t V t k A k +.N N q A D 7 m N m A k t k e k q l q k w 2 7 t V A V V A n n n C A N n n n n N A n A e k t e N n n m q e w e k N A F Z A V n n t w n V n N s.F A l e F F A l t n n k m +.A n N B n A +.N k n A n A Z e N m l F V m A k N m e n F V m N V m.t e n n A +.t k V +.A A F m.l.Z M n N V n n A B A A V t e k V A e 7 F k F w s.e m.n - J.p - ) n N N n q w l A l N V m n n k q k k k t t m N n D A N N m n k e A A A A A N n n n A n m q m k m ",
"r.@.o.V n k k k V n A e n w N n n V w h w 2 n V V +.n V n V e V n e A n V +.k n k n n A V B k n t k n A +.A n e t e q q q e t k n n n k n n t 0 t t e e n A A N n e 0 6 6 6 6 e 6 w n A A n e w e e t k n n e w e e n 6 e V e V n C N e w e k w w q t t q 6 q n V V m 2.N e V n + e e 7 w q w 7 n m 6 7 k 6 * 2 e k N N l e 7 6 t q 6 2 6 q 7 2 w n C n t k n V e n B n n A Z Z t 6 k e k n e n m 6 t w 6 N F m.t t w 2 % % 7 l - - - 6 w k k e 2 o q e k 6 t % 6 e 2 t 7 9 - t N - t n t t 2 7 e 7 7 q l w w k 6 * - q q 2 6 l 7 6 6 e k e w 0 7 6 e t * n O 7 2 * k 6 2 q + 6 7 w e t n N B n w 2 w e - w n 0 e t 7 7 w e t 7 q 7 7 t t q q t e 6 7 e 0 e k w w 7 e 6 t n * 6 6 * e e q w 2 k k % 7 m 7 * 2 2 l % 7 l % % t w w 2 * * 0 e e 7 : # 6 t n e w e 6 w t w - * 6 e 7 % % q 7 k - k O k e 7 A e * t e p m t 7 2 2 q e t q - * 7 q 7 e e e q e r r 9 t e 7 7 q w 6 * e e e w 7 7 6 6 7 t r e 7 e w 7 ",
"e e f f e w w w V n A e n 0 k e n B e n B h V V V A A k A e w w 6 6 O 6 t e B 7 n 6 * * 2 * 6 7 k k n n n V V N V N k q w w q e e n V B n n N n e e e e k B n w k e e k k e h n e e n o.+.B k e e w e t k k e w e n N 6 w n w V n V N e 6 w w 6 q e l n t 7 w t 6 t l +.k 6 l q 7 V F l N A m V r.F V V A n w t 7 t n m t w 7 w n l t t n V n w 6 t N k e k n n n N N N V A V k e 6 n n n n w n V 7 k t t V n t 6 n r.r.V l m S n n n n n k k k l * l m A t V 7 l A t V l N e N D 7 N F V V k m A F m A 2.V k r.F l t V n w e V N t e n A A C V A N F A 7 F 6 C V t +.l t A t +.V N n B V A A V n e V A k N A e t t n l n A n t e e k m N n l l V k n C B C F V r.+.2.V +.+.w t e 2 k n l l e F V 7 l +.t 6 e q t * l A 2 - l k A n w w e p n n 7 7 t Z +.V n B V F 2.A e w t V V t +.t V V t w 2 w A +.n n N n D a.a.+.V k k e V A N e e N F V A A +.F A N N N D N n n V A m k F A V n n n m N m A D A V A A V ",
"n n n n n n A +.w 6 n e V 6 w 6 w e 2 h n w n e k k A w A 6 0 2 n V - k A n r.k F t k k A n V V 6 e t t e e e 0 m n t 7 6 e l l 6 t n n e t n N n n n k n n e 2 e e k V V B B A k e e n n k e n e w w e t e e e w w t 2 6 0 * k 6 e k t e w 6 - 7 w t n k q w e - w e m 7 % 7 * - 2 7 + * 7 2 l 6 2 k t e t - 2 7 q t q 6 2 w t 7 6 - + * q e 2 t w 2 6 e N N t 6 7 w e k n k w e 6 n k k n w n V 2 7 6 6 N k e 6 n F m q 2 7 r e e e e w 2 6 w n % 2 - e 2 e 7 k V w k q t : r : O 7 7 2 e w k 6 l 2 7 w 2 . 7 7 2 2 e w % % 6 w 2 * 6 e e e e e e e e 2 w 2 e 7 6 q 2 - 7 7 k w 7 6 6 6 7 7 6 e e t t 0 7 7 * + - n t 7 e 6 e 7 6 6 7 7 7 q e e 6 0 e w e t w e e t 7 k n - w 6 % 7 7 w w 2 t w 2 q n q 2 6 7 q * 6 t 6 7 q 2 e e k e 6 : e N 9 6 6 e e w 0 e w e n e 6 6 w k q 6 A - k e q 2 2 * e V + 7 m 7 N n t w 6 2 2 * 7 q e w q e e w e e e k r 6 6 7 t 9 6 7 e k e 6 n k e q q e t p 7 q p 7 e 7 e 7 ",
"V V n k h k B A k e V n F e n n k n e n n e V n V +.+.A r.A n V w w 6 0 w 7 w 6 e 6 n n 0.w e e w B +.F V n e 6 V V n e t V +.r.k V C n n N V V n n n k n n t 0 6 0 e n n f h n A k k V A n n V V n k B V N V A n e t e n t 6 V 7 e n V V k e e n l n V V n l m N N k V n k +.k +.V 2.V A r.V E.l l J.F m +.n l k n V m t e k N F F m t k +.r.F A k e n +.r.+.A 6 w k n n A +.F V t A B n V n +.+.q e 7 7 A A F Z r.2.n q q t m t n A Z B e n F r.l e 6 F t n V V r.n V n A r m n r F V l +.@.r.e r.k N V V - N l l m A A n l N N t e k n n n B k n n n V e V n q k e l l e n t A C V A Z F Z A V +.C k n k w w 7 w +.m n F n A n n n l n m V V A e n C n n n k e e n e n C w n n e V m m V e t t N V m N l e n n k t t k n k 7 0 e n N t 6 e N A n n N C n n A e k n n k n V F l q V k m V m F n m n +.w D m e N N m n n k k k n l n V V l k n k k n V N t t n A N n n n n k k V m n n n m N A t t A e n w k e ",
"n B B n n n n V n 0 e 2 e * e n k B e k e 2 n V k A e V h V w n t 6 A e w n * e V e N e V 6 n F N A N w 2 6 7 6 l l e 2 2 q l l n n k e e t e w e e w w e n k e w w e h e 6 6 w e 2 6 k n w 6 6 t 0 6 w e e e n k - 2 6 t e * t 6 - 2 w 7 - 2 e t 7 6 7 w 6 6 7 n e * 7 t V J.A 2 * e w e t * V t q +.6 O w 2 - - q m V k 7 6 6 7 e q 2 2 t t 7 - 6 e V V k k N 6 e n e w e n V l 7 e 6 6 w 7 V w * t e 7 q - % 6 e t e r t t q 6 w n n w * 6 n m e 6 - F 7 6 t 2 k 2 7 6 t - 7 6 - t 6 % e e e o n 2 7 e k + t 2 2 2 2 2 2 7 q n e e k k e e e 6 e w e A 6 A w 7 N q A A e m 6 2 6 0 e k k t e e V w * 7 6 * 7 w % 7 2 t +.e q 2 6 7 7 w q w 6 C e e n e w w 6 n n N e e e * 7 e 7 n e t k * + * l t 2 7 2 % 2 e A m q e t q q e w e N A p 9 7 e 7 9 n B k k n e e e w 6 6 7 w m w 7 n 2 t - F w A 7 l n D * O q t N A A V V V V k q t t w q n e e k V N t t m m n t t t t e e 7 7 7 7 q 9 e r t e m 6 t 2 q 2 ",
"k A A n n @.m.@.e B n w n 0.+.n n e k B A A V V n B A o.V n V +.r.n e k V V N V 0 n A k J.n A J.V n e 7 6 6 0 w k e V n 7 n +.k e A.n V 2.t A A I.w N e r.'.n n *.e Z n A.t.A B B A t.t.Z B n e e k n V V A r.R.6 F V w n C n V e n t +.e m w l A 2 n % n V n N k m.C 7 N +.A +.n s.F n V n t +.+.V A V k l V l t N V F s.F l t V V m l N F N t e V m.r.w 2.e A C n A e V e A V F A N n n N A F 6 w k V A A N N e 7 e B F F C V 6 n V k e k V A +.+.A t t m V m A V n t t t t e 7 2 V N V e r.m.e 6 V V n N N A A A e 7 M N e 9 t 7 M Z n V 0.n k e A k e k w n q 7 r.2.e r.* F A e J.V m.A e n e t A e F V Z w V l n A V e e V n A V V F A N A A k h n N t 9 e N n D Z e M Z e k k A +.k k m k 2.6 e n 2.l N e n t 7 A A w k n q q w l V t q A t e l k 6 e +.m.V 7 6 l n q e A 2 V 0 V F 6 n m.0 N n e k n e k e k +.m.C k n t t l n n m m k 7 w t t 7 t +.+.l q t l k e w q e 6 k V V A N t 7 n 9 : 6 t k e 6 ",
"6 6 0 w w e k B e e t e n n B B n e 6 6 6 w k V w e k n k e e k k w 7 e t t n V w t k 2 n 2 7 N n n k e 7 6 7 e 2 6 w w 7 e N k 2 e 2 7 e w e w n 6 A w e V * e n 6 n 0 A C x e * 4 8 w w 0 0 0 e 7 6 6 * % * 6 e n w * - w 7 w % 2 * 7 % 7 2 w n * e * e t w e 7 n 7 % 7 t e V 6 l q 6 q 7 2 k q 7 t l w 7 7 % q t q 7 t e 6 q l l t q t l l e * 6 t w + k * w k w e 2 t 6 e 7 k e e w w e n N w k t 6 6 w e t w 2 * 0 e t e w e B N e 6 7 e e t n n w 2 7 t t l t w w w e t t * o w 7 e - n n k 2 e e 7 p 9 9 e p 7 7 M N t 9 9 7 e e 0 w e e e 0 k w w e 6 e e q V n t 7 6 e e e 6 e 7 6 6 7 n k n * e 7 t - w 2 2 w w - 2 q w t w 7 t t w n n w 6 w w 6 6 6 p t n p e p p 6 e e n n e k k q F 6 t l A q n e 2 w - w q 6 l e % q q 6 w 7 6 t m t k t 6 q V V n t e k l l n n 7 k e N C e n A k A n t V Z C A t w k N e e n B N n t w q k k e q k k q t m N k k l m m m n n n q k m m m N n e 9 6 - 6 t n k 7 ",
"A k n A A n V m.Z A Z 0.C e n A A A A A A B V A V V  .r.r.A V V t k n B n t N +.A A A t A e e V B V A V n n n n e n n B A C A r.A k C A A m.+.A 2.A E.r.V F e F 0.B r.N A.A.0.+.Z 0.r.r.r.0.F F n t t n B N A 2.A k e e e k n e V +.V N e V m m n w V e N n t t n V e 6 e n N r.l V l e n k e n F N A A n m A n n N t q l l t l t l t e e n N n n n V k 7 Z k n A k n e C n N e k k k e e k V Z e V V e 0 t A +.Z k w e n n n n w t t e w w e w w n V k w w l m V m k k n m V A 7 * t e l w V l @.7 e t t N 9 6 t p 9 7 n n 6 # p N N n t e e V V e N k n A k N V m m e V * m e e A % A t t A V A A A w n k n w l q w t l t t m e k q 0 t t e N n e w w e 9 9 9 9 p e 9 p p 7 6 w w e 7 2 t k * n 2 t e l 2 t 7 6 l 7 7 w e V e - V F t t l k l m e e e 6 q l e w t e 7 w k t 7 e 6 k k e n e e V A k w n N k n k 7 w e w e n n n k w 2 2 7 q w w t k t w 7 w e 6 6 7 w e e e q 7 e e q e t t e 7 - * - q t q 2 ",
"w 6 6 w 6 2 6 e e e n n w 0 0 w e e n A n e w e e e e n B n e e 7 w e w 6 * 6 w 0 w t n B e 7 w 6 7 7 6 6 7 6 2 w t w w N w - n e O e e 2 n w w k 6 k w w k - 2 w * k * e e w w w w w w 7 7 6 6 e 7 6 0 w 0 7 w 0 O * e 7 w e * w k e 2 * 7 6 - k t B k n k e e n e 6 6 w w e V n n t e t e 7 w w 2 7 q 2 6 w 2 e n k k V N t k n N N k k N Z F 0 e w 2 * e e e k e e t B n n e e e t e w e n C - w m n e 7 t A A t 6 w e e e e w e e t n k e w 6 e k t w q t l m k e w e t l l q - e w k w n w o.6 e t n M 6 : n N t 9 n p : # 6 N n e n e 0 C e w n e e n e n m e q 2 e 2 e e e n 6 A n n N n 7 e n k n n n e l w 7 q t t t l w e 7 6 e e e n +.V n n C A Z D t N p p / D t p t k k 7 2 m m * N q V n A k V t 7 t 6 7 7 6 t 6 - l N k k t 7 w m t l n e k m l k n n t k m n e F 7 Z n e 2.B e n V k e n n k B Z k n A B N V n k n n l l l t w l N F F l w e V k t t l V V m l t k k q t n n t m t 7 q t k e 7 ",
"V +.o.n n V V B n A Z C C r.r.A n n n n n n A m.B k k B A V B n 0.2.+.A V N B n k e n +.Z Z C V A A B n V +.A n V Z B N +.k 6 C N 2 F V w V n n N e k k N F n k n t 2.w B B N B t t k n n V C A N n k n n n n B e * w V n n V e w t l q l N V l n C n N n n B N k w w e w 6 w w k e e e q q q 6 e e V +.V N n 7 n V n n Z C k n t n n e e n V V 6 e t 6 2 6 k e 0 w e k k n k k n n n n t k B A e w n F n * * n n w 6 e t e w w t k n V V k 0 2 e e k n n n n n n k q w e t k l e 2 k q l e m 7 V 6 n A C A e e t M e 9 m N t e : N N n V k w V w w V k w t e V F q k e 2 V - m A w A e n t 6 w 6 t n B k n k k n e 7 w e e t t e n t t B n k C e w 2 2 7 t t t # 6 : : n e - 7 m m k w e +.+.2 e 2 k q V l V 6 t t 6 m m 6 q e 7 q t N F t - 6 6 2 w q - - 7 6 e 6 6 q e 7 6 7 A - n 6 * B e 7 * 6 7 0 e w w n n 6 6 e w w e 7 2 w t e e q 6 - q t n n q 2 6 k 7 6 6 7 q q 7 2 6 7 6 6 7 e 9 6 p q - * - 2 2 * ",
"n A A h e n B h 6 n n 6 0 n k 2 * * 2 e h e k B k q w h n k k k V V n e k n n e k 6 * e 6 t k t t t w 0 e n n 0 w e e e t 0 2 w e w V n w t e k w e n k t k B A t t +.6 e e k k l t t t l n n n 0 6 6 e e e k n 0 6 6 6 * 6 e e q 7 e 7 l e k e n A e V e n C A V n A Z n n n w k e n N t l V k k w e e 6 w t q Z 0.C B Z C n B k n e w w t n k e A A k n e 0.V 6 e e N e n k n V B n n n n B N n e e C n 6 w A n n n V V n n n e e k N N t 7 6 k t k m V n n n V n l l n V V V q 6 m e n t A q V 6 V +.A N t N M N p e N N p t e N Z Z A B k V e t +.N e n k +.+.t A m 2 r.+ m +.2 A 2 B B e C n A n V w k t V V n n l n n n n t n k k V V n A V V n n C / 2.F e p M A / N p M k e e 7 w V m 2 F m +.V s.r.J.n e q 6 A F 7 e l t t t A s.n 2 w A V +.+.l l V m V t t m V l k N m.V A B n A F 0.N 2.r.2.0.V V m.m.N n V N A r.2.V F F V m m V m A F +.F V V A +.A A V A A V N n V A V V F ) D m F N t t k n n k ",
"k n n k h k n n n C Z B e e e w e h V r.m.+.V n +. .+.r.r.+.A A A A V n n A A N 2.n w A w A F A e V C n n V N e V V F A n n V t e A k n A n N N e n n n t e C 0.l l m.7 q q t l l t r q e q 7 7 A C V B e 6 6 7 e Z A e 7 e n A V w t 7 m 2 q q 6 k O e 6 w n t k e A A e k n * e 6 k n 7 q l w V t e w 2 w n l w x e e B n w w C C n h n B n e * w w 2 e * n 2 6 w 2 e 6 t 6 w e 0 6 6 7 e e w 7 6 6 6 w e n n e e n n k e e n e w e n n e w t 7 7 q t q 6 6 e l k t t k k t t - % t 6 e 7 n 6 n % w n e 9 : e M Z M p N N e 9 7 7 p B k k n h 6 6 n e 6 w 6 n t 6 l t 7 e + 6 e - 6 6 t n n N w k w n - w 6 n e t l k t k l n 6 e 6 2 w e w n e e w 6 9 p t 7 : - e m 9 : : - w 2 2 7 w k k * e 7 t % 2 6 n 2 2 7 - t t 2 w 7 7 t q e n e 2 6 e 6 w e 2 7 q 6 - - * % * 2 2 - 0 e 2 6 7 * 7 B e t e e w * * e k 6 6 w 6 6 e e q e q 2 * * - - 7 e 7 - - w q 6 l n m n n k t t w w 6 2 7 9 7 - - - * * - 2 2 * ",
"k w w n n e k A w e C Z B e n Z q.A B V V n k h n k n V B e w w t n e 6 6 w e w N 7 6 A 6 V n e 2 n A n e t t w k t A B 6 e n * w F 6 t 0.n V n n n 6 w e e n k l m A.7 7 7 t t m m n m V A V N k n B N n e k V O V A 6 6 6 6 n m * 2 - l * w k t Z 6 F n A 2.Z k l F A e V F 2 N t A F w w l w q q V s.F m t 2 6 u B *.H.t.n n *.Z C n C A B e e V B k r.k m.w C C e C k +.k n C n e k V Z A V k A V e k r.Z 7 t n N N t w t V Z V n n e 6 6 e N V F +.m t l F +.F A V V N n t 7 7 A l N n +.l L.h B A N N p N 6 p p p A A t t t 7 M Z n A m.A t e N t e n e N k n F A m.q V t e A - 2.V n n w - t k r.k A n +.t n V N m V V A B V k e n V C r.A A C n N Z A p Z M m.R.A p M t k 2 w k k m n 7 +.F 2.7 w e r.N m r.V V V m F l t +.F k n V n n V e t n n A +.m m +.F k n s.m.V k r.t Z r.7 V I.k k e e B n n 2.C n A r.A n n e A +.+.V k e e w A F N q t F F l n V A A m n n m A V n t n N m t t t p n m n k e ",
"n k w r.o.e V r.6 n e B 0 V n V n n n n k h e e t n N n n N n e k A r.A n n n k 0 0 0 w k k k q n A A n n N N n 6 w +.k n 6 k < V n V o.A n n V V 6 w h w k o.h w o.V 2 v.w 2 B k k e 6 w k e 2 l t t e w 6 q n 6 w n e N Z w e n 7 B t 0 t 7 6 C 0 w w 0 n N - k k e 2 w k e * 2 e n m k e e e w V l t V l 6 t e 6 e V n e N T.e k h w e V V e n V V k w e n N n t e n n e w w k O V n e 6 n 7 e q 7 w t l w % 2 q 6 2 t n e q 6 2 q t 2 * 6 7 - k t n q - l V t e e 7 w w 0 6 * 2 6 6 e k t w 7 7 w 7 7 7 q e l 7 7 t l t t V e l 7 2 n A e - 6 w l 2 6 m 7 % t w t 2 6 n 7 2 - 7 7 2 2 q e q 2 + 2 e 2 w n w 6 6 6 e k k n n n w 6 6 6 6 e A n 2 % 7 e 6 w m t N 6 w t 2 e k k 7 e k 7 3 3 3 2 3 k 3 n e k 6 w w n e 2.w 6 2 + k k % t : 9 : n q - - e % n + n k 2 n 7 l 7 k O k n t V l 7 l l e k e 6 e l e 6 % m 7 2 - F e 6 e e w w +.% k t V - t A t m e q 7 2 2 7 q 6 * q m 2 l w l m l q V m 7 6 2 - 6 ",
"e w 2 V V 6 e n e V k A e A n V n n n n n k k k n n e 6 0 t n n 6 e k e w e h e e e e e n B k e w t n n N Z 0.2.% * V k B e V w n n k k e w k A o.e k n e B +.B V r.r.k G.n e V m A A m m A A m F V n m n k k l t l N w k A n 2.A 6 e w w V N V B w n Z C 0.m.C k q 7 k n k e 7 2 w k V n k e e n F n t m k 6 t n e e B n e e B e e k V V n k k e N F Z A A A n V n e e t n n n +.n V n e e +.B A A m t t l l t N A k w m V n n m t n A n n V V k N t V V e m k r.2.A t e e n C V n B +.r.F A Z A A A A V V N m n n m V m e 7 7 w A F A +.V t t l n F l l +.k e V l V n t n w k V n n V V n m A m 7 q t 7 m A.A.V B n N V V C C Z V n k e w k A m.m t V V l n F A r.t l m e n V k e k V k l l l l k k 3 k k A n n B V n +.n e n e m r.k D N D N N N N N F e r.k N N e F l V l V w V m k +.F l N t e k e 7 t n e V F +.q n 2 6 * e l k t t V 7 q t V e l F V n k F A m n n n l e e n % 7 - q l k l F V q w 7 7 e ",
"B k e A +.e B n 6 k e n w n e e k k h k k k n n Z A n e e n C A e h k e h n n k n n k k n V n e 0.+.+.F C n k n e 0 k 0 6 6 B k k k n k w 6 k A A k k k q k A V k h k 6 h 6 6 2 2 e k w 6 6 w e m t w q e w 6 2 + 6 k w t n 6 n n O * * 6 k e n e 2 0 k 7 6 w e 7 * * e k 2 2 6 2 2 w 7 6 2 2 7 V F l q t q 6 e e e w e n n e 0 6 2 w n h 2 6 k 6 w e n B B e 6 7 w 6 * - e t w w A 2 7 * - n 0 w t e 2 % - 6 q n m 7 * 7 w 7 w q * - 7 2 6 q 7 7 e 6 t e * 6 - k n k 6 * 2 e n e * 2 k n 6 - w 6 6 6 7 w 7 2 * % 6 t e w 7 2 - 2 e k n N w * 6 7 2 k q w t 6 q 6 2 l t 6 2 % e 7 % % w q * * q w 2 7 q 2 7 t w e e w w e k n n N n n n e 7 e B k 6 2 w q 2 2 q l V 6 w t 6 e n 7 2 7 k q r k r k q q + 7 6 k e w k w t e e 6 n k * +.e n n t t 6 t n t l 2 k w e k e V t k w t t k 6 2 l N e q q 7 e e 7 e k 7 + q 7 % A k 2 q k l n n m t A w 6 t n q l V w q n l t t e w w w N V - t 7 k l t l A n q e q w t ",
"V k q h A 0 n e w k n n n B k f n n n V V A V V n n n n t e e e k e e w e h e w k n k e k V n e t e e n n w w k +.B V k e e V n e n V A V n V A A B n n k n o.+.+.k n e w e n 0 k m m k e w e e +.A m V V N n N 0 t Z N F r.n V 0.6 t B n C k n m.B k B t 0 w B V n n A V k k n +.+.A k k k V +.V N l e e e e k e e w w t N t - A B n n k e k A V C V n B C V n k A A k n A A t 6 T.7 A k n A 0 7 k N l e e l m F +.n e n n k m 2.m N V l n V N t V n +.N 6 l N w n C n n B N n A n n A A n n V m l k m A F V l 2 k V n k V A V +.N e l +.V q t t 7 N V m n e F w t +.V l V l F n q e V F m N +.F A +.+.A V m k N n n n n N n k 7 e e e w 0 e n N k l A A n m F l V 7 t m e n N k w e k r r k r l t m e A k B f e V e C e n w A A O r.t t n 9 t t A A N n w e k V V V V n k e t V n e w n V n t e q k l e t k 6 6 l k e F m e t w 7 e t m 6 m.6 q l s.t n 2.q n t t l m n k t k A F 7 F N N t 6 7 k k e k e 2 7 ",
"A n h 6 V 6 V e 2 6 e w e e e 6 2 6 w e k e e w k n V A V n k k V n f k n n k k w h e 6 e n n w k k n V N n n B < * w n w e e 6 * * 2 6 0 w w 6 0 w 6 6 0 w e n V 6 6 6 o 6 k < e w 7 7 w 6 2 2 k e q q q q k V t w 6 O 6 n 7 k n - e e 6 6 * 6 C w 6 e n w w n e k e 2 2 7 q 7 k f e 7 6 7 e k k t l l k n m n n V n 0 0 e w * e e 6 * * 6 6 < w e w 6 2 6 w w e N B w 6 e e - O F % n w w k % - 7 q 7 6 w e e q e 7 6 e e 7 t l q t k 2 2 q t 7 7 * e e 2 t n % 6 e w e n e 6 w k e 6 6 e k e e 7 6 7 t k e w - e k w 6 w e w m e * 6 k w - 7 6 % q t e q 6 N - w V w 7 V k e 6 6 7 w t n l t e q 2 * - 6 w t F 2.+.C N N n w w t n n t t n V 2 - 6 e q 6 7 t k V w l V t t t m e k l r r r r r q m k A h k w w V t F k N w A +.O +.q e n t m 6 r 7 6 7 7 % 7 N m m t t e t e n n n k l V V t n k N V l m n 6 V l V +.e t l w 6 2 7 w t - r.2 6 e F q e V 6 l e t m F A n k l m N 2 A n n e 6 2 t k n A l 2 2 ",
"+.A V 6 A 6 +.k k k V k A V A n k n V A +.+.A A n n V A V n V +.V k k n V B n n 0 e e 6 w n n 0 V Z +.A B n k e o.V n q.n q.m.J.A V n k B +.+.o.n V n n A A V +.r.A n B 2 B A k m e e k V m k e V m n n k l A m.A n n 0 B r.k B 0.k A n w n n N B B n A A.Z n C n A V w w m A n e k n V A V n k 7 2 e k e k m t k n k 7 7 t n e V  .A n n Z V 0 e B A A V A A A m.J.2.n e n V B e F w B k l +.e V A m k k m A A t n k l A m l V n k V V e q m V N w O e A N F V k C V n n +.A k e C N 7 7 B A k m k e e t k t e q m F F A V N n t V V m m e 7 m N e V V V V l +.m V r.l l 2.m k e k k e l V m q n V k q l t q l e k k e t n n w n V V n n n n n e t l m k q e n l V 7 t m 7 6 2 k 7 e k 7 3 r q 7 - 7 2 k 2 w 6 7 n t N n k 7 n k % n 2 e t t p p N t t N r.w F w 6 7 * w 7 t w e q l n e k V t k e l n t l t - k 2 e F - e V t l t k t k e V w 6 7 e 2 7 q 2 l q w t V V t 6 7 l k % l e k k n q k k N +.m 7 7 ",
"k n V < n * V 6 * % 6 O 0 * 6 % * < 6 6 w e e h t e t k e w t V e w w e h w 6 w e n k 6 w V n 0 + w e 0 7 n n w V e < e * h n +.e e w 6 6 e f e 2 w 2 * e w * 6 n V k k % e w 2 w 2 * 0 e w 2 2 n t q w 7 7 e l 2 6 e w N A 6 2 n w n 6 2 B k w w n e w n e 2 w k k e 7 7 e e e 2 6 e k k e w 6 w - q k 7 e n w e e w w t N A A e h k n n n e w 6 w t k n N n e A V n w 6 6 e n n 6 7 6 2 2 n 6 q e e 6 6 7 e e 6 7 6 7 t 7 2 e n e n V t e n l 7 * . 6 t 2 e t 6 k t 6 6 k n w e n n e w t k e t t e e e e q w - 2 w l n k t k 2 t e 2 2 - 2 e k 7 t w q t 2 w l 6 e q w w * 7 e w w e k k q 7 k F V m F n 6 w 7 e e w k F 2.A n B n e e k e 7 t n V N t 7 q k A +.q k V t k t A k k m k r l k l 7 r 7 m w n n n N V m 2.n n V k k A 7 A N N t - t 7 6 t +.% m q 7 e 2 m n A e n e m V t V r.V q 6 q e q t e * 2.A n 2.t n q e n V n k l F e n n N w k m e m r.n e t A F n t t l l % n q e l V n t 7 w n t 7 e ",
"n A m.e q.6 q.e V n A e  .n A k n n n V A r.m.J.0.+.r.m.+.B B Z +.A A +.o.n k n n A n w e V V w V J.J.V k A n 6 e e k T.+.m.A A k V A n k n k e n A k k +.A w k V m. .+.6 n 0 2 A n k A A n k e m.F N V V m n m 7 e n w n A e n k e A t k m.N 2 B m.C e B B B m.r.m k m m e w k A A m n n k k k V q n V e k A t n e w t N A C C e 0 w k k w e A n n t t n A n e B n n n k e e n m.2 A n k e A e 2 e n l k k k k l m t k m e w n m q e n e q q 6 2 q e F n - l r.6 n A k e V A n e t n B n e w e w e l n l l k k k 7 7 t l t k V V A w % 7 n m m A n V e t n 7 7 F 2 e V m 6 * A l 2 2 n V t q l e V q 2 k t w V k n e 2 6 n V n n n e 0 w t e 6 e k m n q 6 w k t k % 2 t 7 t k m w e r 2 3 3 3 q 2 e 7 V w e e e w t 6 A 0 w e 7 F m 2 A r e # 6 m p t N s.% A 6 - 7 % n e l * q - 7 q 2 k F t e 7 e k t m n 6 t V - t m V % t w k e 7 7 +.* n k k O 7 k * l +.k 6 6 k V l t k e k * V e w 7 e N e % + 2 2 2 e ",
"0 e n B f 0 e n n w 2 2 0 e t e % 6 6 % q.n w k 9 N N 7 w V n * e e e 2 +.w w n 7 6 0 w 0 6 w n e t k t k n w * 6 n k < 6 A V 6 2 w k n e 2 6 e k e 6 2 w l l e w e k m t 6 7 l k t 0 w n t 6 w 2.N e w t k w - 6 w e 6 0 k N N w 7 N A 7 e n 6 * n e k r.0 N e e N C k e k N n n t n A k 6 - e k 0 6 k n e 0 w 2 t n e 7 w w 6 e n e O n e t e e n k e k A V e e n N l t n n k n n n n k e q q w q n A V e 7 q A e n A t 0 n 2.C V w t k e A B 6 6 6 w k V n e e Z e N Z V A * k h r.e t p ) - 8.- F t k e e 6 m q t k +.F - 2 J.6 w V 7 7 l 7 n 7 e n e n A w e n N k 7 7 k A 6 k N n k n n k w k V C B n n n B n B F +.A V A w V n n n n +.N n k n 2 n e M 7 N N p w w 6 6 V +.F F A m t t n w e n 7 F l V A A N n k n n n n C V V N n n t e t V k k V +.k q n A 7 A e t n N n n B n n B A 2.n n n k B F +.C Z n k k t r q r A n k A 0.A k w N A V l t l k q t t l V +.+.V n n n F +.n l m n q t m A N t e l ",
"w e n V k e e k n n n n V B t w n n h 2 r.V n B 9 N F Z +.v.A w +.A r.n +.w k A V N N C C V A r.A +.2.+.0.r.A n h n n h k n k 6 k n V V m m n k m V n k k m V V m n n V m k k n 6 6 2 6 n k 7 e n k k k n n n k e t t e e n n n e w V V 7 e k 6 2 n n n 2.w A n 0 e e e 7 w e e n e t n t 6 6 t 6 e B A V k k n 6 w e w e k N N n n n w A k k 7 e e e t t e e t w 7 w t e 6 2 w e t l n n n n n q w e n n e 6 7 k e n n w 7 t e n n w k k 7 t w k t t t N F A N 0 w 6 e t 7 e w n e k e t e e # n * M e 7 k e 6 V t e 6 k m 2 6 m % 6 m w 7 l 7 6 * w k w t V e e l n k w 6 w e 2 0 w 6 6 e n B k e 6 0 e t k e w 7 w k N N A 0.6 k 7 e w w B e n k n 0 N t M 7 e p e w w 6 2 k n t w 7 6 2 w l k l m w A t m V e t n n n n N C k t e w 0 6 * * % 7 6 2 e e 6 2 n N * n w e e e t e k n e 6 6 e e n N n n B N n n e 7 w q 7 7 7 k e e N A N e 0 e k t e e n m l 7 7 7 q t t w 2 - * 7 e 2 2 w 6 2 2 6 7 6 6 2 - ",
"6 6 e k k w 6 w 0 w e k k e 7 6 B e e 2 B e k w # 7 p N A A n w V e k e k e B k n e e k n n n N 6 7 w w w e 0 - B B V A V e w w k k e w f m k 7 e n m t w q k l V t e k n l e w e e w e N k 6 w 7 e k t w 7 6 7 n n n k n V V n t k A A t n N e w C F V m.k 0.2.V N V A C n B V V k t n n e e n t n N B B N n t k e e n V A F 0.Z e V n A e n w A n n F A k k A V t l +.A q w m n n N V N n k e m l n V V m l l V A 2.A n V C w n N k 2.r.C +.C n n n n N Z F V A k V A n k k m.r.o.k A 2.Z 9 e n t A C e r.V k +.+.F e n +.l m +.e N r.m N +.A e w V Z n n Z A k B A Z F A A A w e t e t V F +.F n 7 w B F A N B n V F +.A A +.n A n n n k F N A V +.n r.A D p n A N A A n e V r.F A V V N A +.m m V w V w t n e n A Z V B V A n n n n n k t e e V F m F V m V +.0.7 A B C V n n k N 0.F k n Z t A 2.+.C C A F Z V n m V N N S N B C 0.2.A n t t k e w w t k k m n n V F 2.+.+.n k V F V V F N F F V m V +.V t ",
"k k n V A n h e n n n k k k n N B e A n V h V e e e t N C V n B +.0 w k B A +.w n e w k n n n n e t n n n n k e n B V A V e e h k n f 7 f A V e n A F m t t l m A m k n V V n e k n k n V t 6 w n B V B t w e e 6 6 0 w e k e e 7 e k k e k n t % 7 k 6 t * e n k w w k k w 0 e n e w e e w 7 w V t 6 - k 0.A 0 N e w n C n e e A * w w w - n e e 6 6 e e 7 6 w q 6 w l k 2 2 q l l n n n t w 6 6 6 7 7 6 6 6 w t e t k w e e * * 6 - n N w k e 0 w w w w t e w B 7 N e 6 w 2 A e B 2 k n M # 9 : t e t * V w 2 7 l m 2 7 m 7 w V q e e - 2 l l 0 6 e e 6 2 6 w 2 6 6 w t k e w * 2 6 w w e w 7 7 2 - 6 e t e w 6 w n V V k 0 2 w e 2 6 6 - e w e 6 e - n 6 9 : 9 p t t n w 2 e e q e t q 2 - - q e k - e * 7 e * 6 w w w 7 e t 0 0 7 0 0 6 6 2 6 e k 2 k 2 2 2 n B * n w e e e 7 * 2 k N e w n 2 w k k e e n N n e w w e q r t w w t n k 7 - * l l k e e e e e 6 2 - 2 w t k t q 2 w e 7 w q 2 7 t e 2 7 k q % ",
"k h k B V n e e A C B n t k m A V n r.n n 6 V n n t n C V n k n +.k n A k V V 6 N k e n N B n n n n V V B n n V n V V n e e f e e k k 7 q n m k n V n t e t t e k k t t e t e q 6 e e k N t 7 k k t e e e t k n t t k B V V B n n C V n N V V V k V m.n +.n A m.A n n C A n t n A V V A A N n k e 7 * - n m.+.e J.A n A +.A N V 0.6 n n B e r.F N V N n A 2.A k e l m m m m m n 6 6 w e k k e 7 l A +.A l l A r.r.k n +.A N V N n B t +.+.e k t k V A C V C V n 0.A A.n t F e n e r.n C N 2.t A t k.N F k r.V n t A 2.e n 2.N A F A V l w t V V A V n n n e e n A V n n n n e w n n n V A A B n n V A A n k n V t N +.m.m.+.V k N C e n n e V n A k n e A p N p Z / A C A n e n V m m V N e 6 6 e n A e V w n F n n n V A 2.m.m.+.F A B k w 6 6 V m A e r.t k t A r.n m.n N A 0.F e 7 B +.V n n A C A A A Z 2.m.F N n n n l l m n n A F A n e k e e t l n n n m +.V n n m N m l n t n V l l n w 7 m A n n A m 7 ",
"k e e k k e w w V B n n k e e w A A +.0 w % e V e t M A V k e e e B A +.6 e k n k e w t k t e k 7 w e e w 6 w k n V n w 6 w e w 2 7 w 7 7 7 e k t e 7 - 2 7 6 2 7 e e 7 6 7 q q w k n n N e 7 k B t w w e t e w 6 6 7 w 7 6 2 6 6 e 0 * 6 6 * 6 w e Z 7 n e e Z k e e e e 6 6 w w e e e e 0 6 2 6 t N N B n n n n w * * 6 w t n 2 O 6 2 w - e 7 w n n e t C n 6 * w q 6 6 e t 7 t t t l m m k e 7 m F m w q m +.n * * t e 6 w t e e 7 V V 6 w e 6 e k e w 7 7 6 k n N 7 7 n 7 * 2 n k k e M t p : N 9 e e k k h 7 e t * 2 k w N 6 t l q w e e q e e 2 6 e 6 * e V n e w e e w 6 t 6 - 6 e e e e k B N e * % 6 t e k k e e e w 6 k k 6 e e 0 k e n 0 e 6 n 7 p e p n 9 7 w 2 * 6 l q 7 7 7 6 2 6 o * w % 6 O 2 q n k e e e k k k k k e e 7 2 - * e 6 t - F 7 e q w B 6 N 6 7 e N k 6 * 6 n n e w k e 7 w 7 6 w k B e 6 6 7 6 6 q 6 6 7 e e w 7 w k t t n n l l n m l t t k l t q w 6 e k w q e 6 2 t m n n m t 6 ",
"A V A A A n n V N B n N C V n e +.r.q.w A w k A e n N C N n n k w +.A A w V B m.n k n N n k n N N V A A B t n +.V e 0 e w 6 6 e k w e n n t k A V m t 7 7 e t e t n m t t l m n n A A V N e 0 n F C n n N N n e A A +.+.C n n Z V r.C k A A n A e w F 7 A N n r.F 2.+.V n n V A A +.2.F A C C A e n C C t 6 w n A A B n N +.r.2.n N A e F n A V N A +.Z V B n n k k k k k t l N V n l l m n t w e A +.V k n F m.n 7 w n e e n k e k t m.m.k V A F r.r.F N V A F n V n V C B V e A n +.F F M A N n m.M n 0.e A A n n V e l V e F e F F m A +.A n e n k n A e 7 A +.A N N C A V N V e 0 e B V V V V C V n e w t n C A V k t k t w Z A k A +.B F A A k B k 2.n A N Z Z N B V k w k n q 7 w q w e t w n +.l A w l F A A V n k e e e t t n n n n N N w 6 n 2 +.2 t k k A w A e k V Z n n n B F m.+.N N n B n e w t V 0.C k l l l l m N n n N V B n B N t e t e q t n e q e k m m l e t e m m q q t w k l n V A V l q ",
"k k k k e w w k 7 6 - 6 w e e w 0 n n 6 r.e 2 q # 6 6 * * 6 w w k o.< * * k 2 e w w e t e 7 w t w e t k 7 - 0 n V < % h n 6 6 B w * * f k 6 6 k l k w 2 - 6 q e 2 7 6 - 2 w q 7 e n n n n e w V * * 2 6 w w w 7 2 6 w e 6 * 2 t 2 k 6 * t k w n - % n * n n e A N +.Z t 7 t n n 6 e e 7 6 6 w e e 6 * 6 6 6 k F 2 w e w 7 e 7 * e N k o w 6 7 e k n C Z k * 2 t e 2 2 q 7 * 2 k w 6 2 7 e k e w - e k w 2 w k n 6 6 w 7 - w e 2 2 6 2 C N * - 2 n V N w 6 6 e n 2 0 % n n 2 k t +.* k n N # e : N k.M e 0.* k n e e n l V n 2 t 7 V l 2 q n t e 6 n n N A 7 * V n n e e e w 6 2 e 6 6 e N n e w w 0 w e n n e 6 6 w e e e k e 7 k k 6 n B e n t k 6 e w A e t e N A M B A n e k m l k m V n t t 2 t F e l * 6 t - 7 e t e w e k 6 6 0 7 e e e e t q F 7 +.* t m w t * k 7 e k n e V A n k N k 6 k n A A n w k F V k w w q q r t Z N n n n t e e t 6 2 6 w q m +.e e t n m n q 6 n l V V q 6 w 7 V t e n A N e 7 ",
"B e e n A V V +.e V +.A A A V n 6 n A n k A V e 6 k A k J.k V m.n A o.V n B n k A +.e 6 A r.A +.n n k n n n V +.r.+. .+.A n n A @.k w +.V e A A r.+.B n n 6 6 V B o.A e e B A n B r.v.+.+.V V q.n A A e r.% r.k k V n A k A * e k h V V +.A q A A h B +.B k A r.n B m.V s.V r.A F t n A B B A C A w r.V e F k e 6 n k e A V n r.+.V k k V A n k n A k +.n +.B A N n A k n A e e n +.l F V r.k V F l k A +.V N A B A n k w R.A B V e V m V +.n A N e w t A F B e V B n n V A A A A.F N n k w e V V m.n 2 V r.n q k 6 A w B m.7 F V 6 m.k T.n n w e 0 6 t B n t t n e V n B C w w w n w k * V V q.k e A w e @.l k n n e e n V V n N N e V k A e w q q e 2.+.A m.V A 6 t F 6 A e V n N +.0 V V r.k 6 n V e 6 e e 6 e k 2 V A w n e 6 A w +.e e k h V V n h w 0 e k n k t k e 6 w k N e w t n k w 6 n k e 0 e n B n n e N O 6 n A n 6 e e 7 w k e 2 e k k 7 2 7 w w t k q 6 q m N e n N 6 q 2 A t e t 2 e q +.t n e ",
"6 2 6 e f 6 * < w k k 6 < 6 w w k e 0 6 6 e e w 7 6 2 % 6 * w A 6 w w w 0 6 6 7 n f * & < 2 % * k e h n n k k n w w q e 6 * < w e w 6 k e 6 k 2 w k w 2 6 6 2 e e k e 2 2 w w 2 < e w 6 6 * * w e 2 n 6 * e % q 6 < k % e 2 * 6 e 0 w 6 e e % e e 2 w n w 6 e n w w B w n w k e n 6 6 e w w e w w n n 7 n n 6 e w e 7 6 w w w e e e w w w e e e e e w k w e 6 0 0 6 t 7 e A k t 2 t 2 e 7 l 2 7 e w 7 w e n n t e k e 6 * o.w 6 e w m k k k q n t e 0 w t n e w 7 w w w w w t k V n k k t e e n l V e 7 N N e k e - n 2 e A * n e % V 6 +.e n t e 7 0 t B n n n n e N t k n - 2 e V k n 6 k e k V k A k m @.k k t w e n C V n e k t 2 e 0 n 6 6 e t e A n e F V n 6 7 t - n 2 e n n A 7 n k C t n +.+.V k n B n n V n +.q.V A V n o.n V e f V A e e k n B n k e n C C n k n V n V B N Z F A N N n n n t k N V n C e A 6 n n n V e e w 7 w e e w 2 k  .n w w m r.N V n t t k t q N V t l t V t 7 w 2 k t F k V V ",
"+.o.+.m.r.B k n A +.+.B e k V +.r.A V r.J.r.A A A V B +.n A A A A V V  .A B V r.v.n k V n h n n V n n A o.V k h k n A A n e k A m A m A n m @.e 0 V n w e B n n +.r.+.V V +.A n V q.+.V A B B r.+.V J.A n +.w A +.n m.h A n B A A n n w k n 0 n B h V A k e V o.k k A V r.A r.r.C e e n k n N k w J.k w r.N w C +.N n n e e n e e k n n k e n A B n V n V e h w e 0 e w t A t t e V t l l A t l n A n w e A A e k B V k 6 A e e k k +.m k k t A n n n n n n n n 7 e k t e e k N k n N B N C V n A A n N +.m t A n w n 6 e C 6 N Z w F 0 A t B V e 7 6 w t t e t A n F N n V 7 w w n n B w e 6 6 7 - 7 7 k k 2 * N t e A 2.Z N n t e 2 e 0 n 0 6 k l t V e 6 A V N N k t t +.e k n n C t n w k k k k k e w 0 w e 0 w n k k B e e h w n 6 0 6 w k 2 2 6 e n n e 6 2 k n 6 2 t k 6 - 6 e n n e w e 7 e e e w e e w e * k 0 k 6 2 e k e e k k k e e 2 2 6 2 6 e e w 7 w e t w 2 6 e q w e w l e 6 o t t A m V q n V ",
"e w w e w 6 6 h % 6 e e 6 2 6 w 0 6 w k V n e w w 2 6 A 6 k w * k 0 0 k h 6 w n k % 6 n 6 2 f k w 6 2 w e w < % % * 6 6 2 * 2 6 e q * 2 * * k 2 2 k f w k n h k e e 6 2 6 e e 2 e n k f k e e n w k n 6 A o B 2 h e e k O e * e n e h 0 k V 6 k k w e k 2 2 h n 6 2 w w e w e k n w e n e n V n 2 +.6 6 N 0 e e F k N V 0 w n 7 0 e k k w w e n n k A h A e k e w * 6 - 6 e 6 6 e V k t n A n l l n e 6 w n n e 6 e B e 0 n e n k k V q 6 e w k t e e k n n n k w e k k k t e t 6 e k e e n k 6 n k e t l q 6 w V n B w k C e F Z 0 n - n e e t V n t t k n k k t w n t t n w e V A A o.V V n B t e k k A r.A e N 7 2 w k e e t C A k F N r.n n N m k A k q F V e V e 2 n A w e C V F +.A k n A +.V V V n k n A n n J.V B v.n V V w m.h A V e n o.A V V A +.+.+.n F +.n n A A n 0 w n A A N n n N Z +.A V C A A V w Z t +.V n n k e k A +.k e w m k e k V +.V e l m +.m.+.l m s.n k F m A.V V w n N A V m k n m ",
"k q e k n e k V 6 k A +.V k k n A +.V w e A r.r.V h w A 6 A B e +.n n A A k n +.+.q n +.k w n n o.B n V A V k h e e w e k n k e A.A k A n 7 m k 2 6 6 e n e 0 k +.V k e k n n h e V A V A B k V n A +.n J.2 G.n n f n +.2 V e k 0 w h w k B 2 w o.n V B e h A +.r.+.A +.A B k n e e n n e k A C e n 6 e 7 2 N 6 k w V A w w n e e e e e e e e f e w V e A e V k w - w 6 w n e n w m l 7 l m l e k 7 6 e n n B A w w A k f k k A m k k 2 2 k e k e e e n C A N k N n n N A A n e k N B t t n k 6 n t e w q k t - k t e 6 w k e A N - w 2 V A n n 7 0 6 2 6 6 0 6 e w n k n A k V n k k e e e k n 2 k q 2 w A A 2 V e 6 e t e w e w e 6 n e N 6 2 V n e V n e m w 6 B w - N N k e 6 6 w N e 6 2 t n e w w 0 6 0 h e e q.e w V 6 e w % B < e w < 2 h e w 6 6 0 h n k e e t t e e t 2 2 7 k n e 7 6 e k k e 6 w e e w - e $ e n e - k e k m m l e e * 7 e e 7 w k k e k V F n 2 2 t 2 * q 2 N w t 6 + % * 2 6 e w 7 ",
"k w e V A k e e w e h k e 0 0 e k A V 6 2 k V h w w w k w n e 2 k w w h e 6 0 k n w e k w 2 w e h w 6 0 w w 6 0 h e 6 6 e n k 6 +.k 7 A k * 2 * q w 6 n +.n h A +.A n k h f e w 6 h k k n k w e k 0 A k w V 6 V w o k 6 0 6 e < e k A k V A 0 e k 6 0 0 2 0 k h n e 6 n e k w h t t B n e n A V N n n N w e F e w e N A k k n n n k k k n n n h e e k e B k V n N e N k t n t A t V V 6 m m N t F t w n V k k C B k r.n V k k +.n k k 2 6 V k l t e w k V A N t A n k n A A n w A A V n n B k w V l l t t F +.t e t 7 2 7 w e V F w n k +.r.N N k n n k n V A V n e C n n A n A v.A o.n A n +.q.n r.m t l A r.k k n n N n n e e N V k +.C 2.k e V t 7 n k 7 e % w n t e F n F n n n n r.A A N 2.A A B n k n n B A A @.V n A n n A k n w n B n n w e k k e e n V A k t N C n N Z n n N +.2.A n k V A A n t n B n N k F - N r.+.t k k e 6 7 k k k k n m k k m V n n V +.r.+.N m V k w q q m l V V m V n F F J.+.V ",
" .n n +.r.A k h k e e k k e e k e n B n k n e 2 0 n V n  .n e 6 w e h h e e e h k n e w f k e n k e e k k k k n B n e w e n n e k e 7 m k 2 7 % 0 e w e B n e k V V V V B n h e w n n n V n e n k w A e 0 B 6 B B O B e e w n * e k V w e n w n V h n V n A o.n e w * n e n e B e w w 7 6 e t 6 e e t 6 w n t n 6 w 6 w n k w e w w w e k f e w w e 0 e w h e k n w n e 6 6 2 n w n n % t e t 6 n e 7 w w w 6 6 n 6 A w f 2 6 n 2 2 k 2 2 k w e 7 6 6 6 0 w e w n e 6 6 w e e w t w 6 w e 7 2 * l 2 6 e 6 q m t t N e w e w k A n 7 k e k n 0 e * 6 0 6 2 0 7 2 w 6 k w w k w n e 2 w 2 h * w 0 k n 2 e e 2 k e * e n e 7 e w 6 e e - e 6 k 2 - l e 7 n k 7 k 2 0 0 w t N 2 A e 0 w - e - t w n h n h 6 6 e e 0 k k 0 e e 0 h e k k 2 e e k k e 2 2 6 0 w e e e k e 7 6 6 w w 7 7 w t n n e 7 w k n k e e e e 0 k 0 N - e k k e k m k 2 6 n V k n k 6 2 e k e 2 2 7 e t n m n t q 6 % 2 - 7 7 k q k 7 n e A w - ",
"+.k w h n k e e k e e V A V n n A h w h n k f h V +.A < V e k B e n V n n V V n n +.k 6 k k w k e e h n n k k n n n e 6 6 e k e w k e k e k +.e k A V e B A n e 6 w k B n k e e w k k e n k e n k B B 0 o.O +.e J.k B r.6 +.k 6 k V A 0 w V B J.e 6 e n n A B 6 r.A e r.n A e V 0.N k e e V N 6 t A V 2 A m.w J.A A e e r.r.n V h k n B V V V V +.r.V q.n +.V +.n e A N t n n J.k A F - m k m w w t t w k Z A n o.e +.e V w e A e n A.+.V s.A +.Z A V n k n V F 2.A N n n A r.m.n w w B V k w w F 2 w V w 2 l V n F k e k e n A e w B N n C k +.A 0.2.A N C N k B n F V V +.A m.B f o.A J.V A V A m 7 @.+.6 V r.e A +.n e V +.A m.r.n +.N r.V C t t q V m t +.m B e V 0.2.6 J.V A F e n w +.F m.V +.A k k A A k A A 6 V A e +.A e A 2 +.V A A h A n k k V A A A 0.r.A w 7 n n 6 e k C Z N e e n V A C V C A n e V e +.t n w e A 7 V A e k @.+.e k V A m k n +.s.t n n l N F N w V l 2 t 2 e 7 m 7 l e A k r.t 7 ",
"n e k +.+.k w e V f V w n < k n 2 e V n k n n h h e k V V n e e e 6 0 k h 6 w n n 0 2 6 e w e B e 0 w f k e h n e k w 6 w w e V e V A k q k n e B n e 2 * * 6 w n n n e w 6 w h 6 e k k e e e h 6 0 2 n w e 2 e e 7 7 + l 7 w 7 7 2 e 2 2 k q k n e n 0 6 n e n n e q e e w w e n e n w w B k V w - w 6 t w e O w V % n % k w e e w q k h w w h n n w 6 n B e 0 V V n h h k k e n h 6 * * 2 2 * e q w w 7 w e k w k 6 2 e 2 * n * w k e 6 6 6 6 6 - 2 7 w 6 2 2 7 2 2 2 6 7 2 2 q 6 2 6 e e e w k V t w k 6 * n n 2 e n . t 6 + t k O e 6 e t n w w w w w e h k 2 2 6 k k 6 2 e t 6 w e 7 w k t V + 2 2 + 2 q n m n k e w 6 6 7 k w 2 2 7 e e e - % 7 n t e t q w * % 2 e l m V q 7 - 2 q n k 7 2 6 6 2 6 w w 2 7 e k t e 7 w w C 0 w 6 7 q 7 m n t V t e k 0 e k w 2 2 7 q e w n N m k q e t k w V V q 2 q e 6 - V e 7 +.t * A 7 w * k 2 t 6 e V q 7 2.w N e - q k 7 e t q V m k + 6 q q k e n l l q q t 7 q F ",
"A n n A A k h n T.r.J.A r.k V A e n A n k k n k h e e e h f k V A n k A A n k B V k e k n B A +.n k n A o.A o.r.n V n k n n n +.V V A B e n +.+.A  .o.A A A o.+.k k k k h e h k V n k k n n e 6 w n n q.e k e +.A V n 2 m e n V e t +.V V +.k m V V v.o.o.r.V V B n n V A A V A A n V k n r.+.r.A t V k A V F w V r.0 m.k +.n n A A +.r.A B A m.n V k e A  .n k n V A A A A V n A A V n B A A B k n n n k k l n A +.k e V k e +.n V A V V A V n F V V F +.F V N n m V A +.+.A n m n B V o.+.A V m V t k F n 0 k +.k F m.7 2.m q +.2.w A k n N A A B n n V A A A A k k n V A A +.t e n V n m m q V 6 l l q e e A +.V m F +.V n m k k n A A k 7 2 w 6 e l e k n t A n t l m n n N A N t e k V n e V n l l m m V V N A Z A N n n B 0.V F n t l q V A B +.N n V t V A n t t l N N n 2 q k t q e k m t N V t q t t q t F n l 2.V e r.V N q V l F l N V e e m.k A l 7 w 7 e t l V A +.N w V m e t 7 q t t 2 - w 7 w n ",
"k h e e e w w w A n V k k 2 0 0 0 e e w 6 6 w w w 0 0 w 6 6 e n h 6 2 e k e 6 6 6 0 w 6 6 e k n 0 6 w k k k k n 2 w 6 6 w w 6 f n 6 k n 6 w V n 0 w e e e k n n k k k k k k e e w 6 6 w e k k e 6 e w n 2 0 2 k q q q + w * 7 t * 2 V k e k 6 w 2 < h w w k < * w 6 w k n n k k 6 * 6 2 w n w w k 6 n w n t n - e n % +.e n 6 6 2 6 e e 6 < w n e k w 6 k k w 6 2 e B V n n k e 6 w w w w e e 6 q t k k w 0 w f V n w w k e 6 h k t w w t n e 6 t 7 6 q t q 6 2 * * 2 e f e 7 2 w q e k n k k k w 7 2 7 V n 2 - t 2 n V 2 V e 2 n A 7 n 0 6 w w k e 6 0 e k k e k e 7 2 e n n e e t n m n V m 2 k t V n n t 6 A l 6 2 k V k e k e w 7 e w 2 2 2 w w q 7 2 e n w t q q e t w q e m n k q q t t w m e 7 t k e t m k n N n e w e e n n +.k 7 t 7 t n e V k e n e n k e w q e t t e * 6 t l t t n V 6 7 7 6 6 2 2 2 k t q t n l l V n t 6 l t n e e t 7 w A t n q 2 l 7 V t k +.k F k e +.V e n t e V F n e m V V +.",
"n A +.A A A A V n n V B V k k f n V V V B V A A A A @.r.+.V V o.k e e n A n k e w n B k e B A V n n n V V B n n w n k e n n h n o.e  .J.V n A n A A V n n V +.m.A V n n n n k e 2 k A A n n q.T.+.A e A V r.k e e k m w A e k k k k +.k e k k A V n  .n n +.n V A n n A o.A V V A n o.A q.J.V k m k 2.A r.V A 6 k n 6 r.B k w e e n A A B n V +.A +.V n V V e e k A v.r.+.+.+.+.V A A V V V B k k n n k e e k V V k e e n n e 6 A C n k n N n 7 A n l V F A m l e k n A  .A V n e e f k e e e k e w 6 e A V e 6 e - t t 6 n e 6 n A k N e 7 t e k e w e k k k k e k k e k m k 2 e e k e q N V 6 l n m q n k - V m 6 2 k A n k n k w 2 7 e e e k m m V t w V F e t t k k t e e e l V V m n m m n m w 7 k l q q m n B N n t e t n n B +.t t D m V N k A n n V k V l k t k l l k t 7 w e k t q e k q w e k e 7 w t V e k V n V +.m l k t m n k e e m l l A m n k k t % m 7 w A - k 7 6 N e 2 k q 6 2 k t 6 w t t k ",
"6 e e 0 6 e k k 6 w w e e e w 6 0 w w e e w q e e e k n k w 6 w 6 6 w e e 0 6 6 * w e 6 2 w e 0 0 w e e e e e w 2 e e 6 e e 6 6 e * w B e 6 w 6 e w 0 2 2 6 e k k e 6 6 6 6 6 2 % 6 e w * % 6 k k k 2 n k o.w 2 6 2 7 * n w w 7 w w m 6 * 7 0 k n e k 6 w n e k n e 0 e f e w w k 0 e 6 w V w 0 t w N e k 7 t * 2 w * n w 2 2 6 2 w k n k k k k e n k w e w 2 2 e n n h w e n n e k e 0 6 6 6 6 t k k e w e n A n e e k n V h 2 e e e 0 0 w 7 6 e 6 2 w t e q 7 w q e e e e e e n n k e w e h k e w w e t n t 6 l 7 n w q m k t k A B V V e Z V k n n n k k n V w k m k k m n e k t n l k V A e F V l 6 n N 7 A A e 7 k V n k V k 7 7 k A A n k n m m t w N V 7 m V N l t q w 7 7 n A V N m n l k 6 7 n m q w k k n N n k t k n B n N w t +.V V n e N k t B e N l l l n n n l k l q 7 w q 7 6 7 q e k l e 7 e m n 6 k V t m F e e e m V m q q e V n n t l q e n m 2 +.n A T.n s.+.V r.m t +.V t 6 A +.N N m m V ",
"B B n h e k A r.k V n A n o.n k V n n V B k k n V n k n B n n V V A A A V n k k h n k h e k n k k n V B V o.+.o.n +.A n A A n k n n k k n n B +.e k n n n n n B r.+.A V V A A +.B n k k n n k e w V B q.n q.A A F m k 2 F N A A l n s.A n A k V B k V k n o.k k +.n h n V V V V A e w * 2 V n A m.A 2.k n t 0.V k V k A V n A n e n V V V V V n n @.+.A o.A n B o.+.o.B n V A +.B V n h e k n n 6 6 2 2 2 7 k n h 0 e k k V n 2 n C A C N V A C k e q t k t t k m m k k k k k n B k e 6 6 w e k w 6 w w 2 7 e 2 n q m 2 t l t k 0 t e e n e +.n e h k h w 0 e n w e e 7 7 k m A t e m F V V V e r.m k 6 t V e V n e w e w 7 e k V k w e m V V V l t l t w l l 2 l n k q q t t e 2 e n n t q 7 6 e 7 w n m t q t e k B B k t e k V e t 2 q N t t k e N t e n e n k k k k l l k k V t q t t w q t 6 w e 7 2 2 w k 7 - q k 6 e l 2 q w n k n 6 e e n n n 7 n 6 q m 6 % q 2 w N 6 e t - q 2 2 k q 6 * k N l k e w t ",
"f q e k e 0 e V 0 h 6 k 6 n 6 6 n e w e w 6 0 e k w w e k k e e e e e e e e w 0 w 6 2 6 0 6 0 e 0 e e w e n V B e V k 6 e k 6 2 0 V w * k k e A k n B V V B V V e e e w 0 0 w q e w w e n B k q * e w k 2 k e n n t w + e 6 e k 2 7 V k k n 6 7 h w n e k A e w k w 6 w k k f e V e h 2 6 B n A C k V 6 0 6 A n 6 f 6 w k n V 2 e n V n k n n n w B B k n k w e k n k e e h k e k n n e e k n V t e e e k n m m V h n V n @.m.n 7 e n t e e e w k t t t e 7 w t k k l t e e k k o.V k h n B V V V k N N e n V 7 A n +.7 V N l n e k k w C t m.N n n B n k k n V m k e e k k V +.l q m +.n q e t V w l q 7 n t e k V A k 7 w k n @.A k k k m +.J.2.V V A V A A k N m t q k V F A t N A V n k t q m m m V A V V n V A 0.+.A n n n +.k m l l N r l C n +.V B A n A N N V N m m m V n t l N l 7 q m l n t 6 7 l m l t k N m t l V t F l N t F l A V n V F t s.t n r.A n n n V A m n V q V F V r.+.r.m A A A +.V l A ",
"k k A m.r.k e V k A k A k r.V n A k e h k h n A n k k A +.V e 6 k e e e n A A n V e w k B n n A n V B k k A +. .n +.V e k n e 6 w m.B 6 +.+.e A V V n k h k n V n V A V k e e f e n V V n k k n V V w e w  .n k m m V 7 N 7 t l k k +.m m +.k k n e n w f V e e A n k V +.+.V n n k A k k A f k N n r.B N n r.V w n 0 w A r.r.* e V A k w e B A e A A n n h w e e n n n n V n e w k k w 7 w e e 7 7 6 q k k k 7 k 6 w w 6 B r.n n V V n l t w 6 m n m n e 7 w t k k k k e e k n n h w q k V B n V e n n w k n * t q V * n e 6 6 w e w * k 7 F e k k e e e e h h k 7 2 e k e 6 7 F t n F t 2 e V l 6 V m w n k w 2 n +.e 2 2 e e * 6 k n k 7 e m A e q l t t k q n t 6 % - q e 7 w t k e w w w 7 w q w 6 w t e w e n V N t 7 6 2 e 2 e e r q - r w 6 e 6 6 w - 7 w w w 7 7 7 w q 7 w l N q % - k t e 2 O * t k 2 e l l e 7 e k e A 7 6 % l q m t * 7 k 2 A 2 7 m 2 2 % 2 q q t 7 t - l m e q 6 t m t 6 e N t 7 t ",
"< e B V n k h e e 6 w k 6 6 k V A e e e 6 n V 6 t +.e * V A k A w A 0 k e B 6 V 2 k * 6 6 * k 2 e q f B k e n F t t k 6 q h 6 n q * n * e 6 6 6 r.A n k k n k w k +.V e k V k w e 7 m n k k 7 k m w k w w e 6 n F V m m m n t q m 7 e V k r.2 k 6 0 e e e k V +.n q B k V 2 e n n k 6 n 0 e w A A k N n n A n A N n t e t n n N k B n 7 e V V w 0.r.n k A e 2 k n 6 Z V n A t k n n r.k C w n w A e n k +.w n N n 7 n n B 0 F.+.6 V 2 A k n n w e n w n 2 N k B e e A.w F A e n N +.0.C n n n e e e w w n C A N 7 A F A 0.Z e 6 Z n e w e k k t V t w t n n l k n m V V V m n n V V Z 2.A k n F o.V n V B 6 w m.k n A +.A k k k N N n k e t C r.k +.2.N k V B e V t e n A F F F V A A V n k k k e k n n B  .@.@.A A A A Z +.A n V V F +.+.+.+.A.k e 2.k m e +.n k A r.+.V n n n k k e k A n k @.w V t l F V A n A m V e s.n V V V n n k l m.A.n t q A k t n m r.F F +.A l N A t n m N +.m.V l F k V V k e l V V ",
"n k k n k e n q.o.n V V e w k n e e e 0 2 e n e w V n n m.r.k e 2 k n +.+.A w w q n 6 w w 0 V f k k B B h e t N Z B V k V [ w n o.f o.w V k e e +.V k n V V B n k B w * 0 e w w e 2 7 2 7 k f B k e k 2 2 k 6 7 k q 7 w t l k t k 2 6 k w A 2 e w e k k h k V o.V n V w n e n e k n w h 2 k e k +.C r.A B V k A n n k e e e e e B N k w t A n 6 V n e e k w 2 7 e * t e e C e e e t A e n 0 e 6 k w e w e - 2 2 k 0 e e e 2 r.k w V 6 C t n B e w k e k e N n n 6 w n 6 t t w e 6 e n k e n n n w 6 6 6 e k t e 6 k e 6 e n w 0 w 6 6 6 w e e w n e 6 w t t e t l t w 2 * * - 2 * t n 6 - w e 2 6 B n w w w w e 2 w k k e 6 2 7 - 6 7 e e e k k 2 w e 0 6 0 6 * 7 - * 2 7 w e t 2 w k k w 2 2 2 2 6 0 6 0 e k f e t t e w e e e V m n t 7 7 q t 2 * k 6 w 6 n 6 2 w e w 2 < * * w 7 2 6 k w 7 n 2 q + * w 2 q q e 2 6 2 7 2 7 7 k * - t l e e e k 2 7 7 m s.A A q w q 7 - 7 t 6 e e w k N e 7 l w t t 7 2 7 e e ",
"e 6 w B n 6 6 n e 6 0 e 2 2 w w k A B k n V A +.B n t k A +.V e n e V V A B B w k V e e e h A m e n B z z V F F / p k B @.[ 6 n +.e V 0 n n e w r.n k B A V V A +.+.n k A A V A A k n 7 k @.m B e k A w k s.A k V n t l V F +.+.+.k k m k +.e k k V A A B n A q.r.+.+.w B V +.e B +.n n q r.A n V N r.V k n e N +.0.0.+.A V B n A A n n A r.A e A k k V A F +.A C w k k k F V n N A 2.V Z n N t e n k n k C B n A C V k n k m.k t N 7 N k n B n k n A n Z A +.A e +.k N V A A +.e B A A V V V N A V B N A F A V n A n w B A n k A N n n V A F F r.A m V A A A F A V m n n N V F k F +.n n 2.2.n e o.A n V V k k l m V m k k k n n n B Z r.m.r.Z N N V V C V n n A B n n N N A +.B A q.+.A B B V V A A V V A o.A V F Z N n N Z +.V V n t q q n A n w n e k n F n V o.+.A B B n k +.V k k +.V m r.V A w n F l V +.A k l +.e n F A l 7 e V A k q k l e n k e m t V n t k t w n A N l l q e n q 7 m m V V l e t n n ",
"e e n A V e w k k 0 e k e k n k 6 k w 2 k h w B n 6 - 6 w n B w A 6 n e k q V 2 w e w w w q k q - q f q q n N M N 6 w f B f % e k 2 6 * 6 e 6 6 A h w k n e e n k k w k A n 6 w 7 w k 2 0 m 6 * * * 7 * 2 m 7 2 e 7 2 2 7 e e w k q 7 e e e 2 2 * 6 e e 6 2 w h k e k * w 6 e 2 6 w * 0 2 V e w 6 6 n e 7 e 6 e e e k t e w w w 6 6 6 w t n e 6 k * 2 w 7 n A t k 6 0 6 * 0 w 7 e e t w w w e 7 $ w 2 7 * V n n e B w 6 0 e V 2 e e 0 t t e e e 6 6 e * t 6 k 0 2 A * n e e n n 6 w t t w 7 0 0 B k t k n k t e 7 t w 6 k n 2 + n w * % * 2 7 w 6 - - 2 6 2 - 2 - 2 6 q t k k k w 6 2 e k e e k w w 6 f n 2 % 0 6 e k e e e e e t 6 * * w t e 6 w 6 6 w e w 6 6 e e w w w 6 6 e n h w 6 6 6 w e 6 w 6 2 6 w w 6 7 e w 6 2 6 w w w t l t e t m V A e e w e n A n 0 e f w 0 e q 6 e 6 % * 7 2 2 e 6 w * t N 2 2 q q * 6 A + q k e 6 n m e t n t 7 N V F A 7 k 2 l n e t k e n A N t e 6 6 e 6 2 q V V m t q q t k ",
"V A B w 0 k n n A n n B k n A n V +.n k q.+.n o.A k n F r.m.r.N q.k r.+.m.A r.w A o.q.A A o.V B n A  .z k V N p F.A +.@.@.B 6 +.r.V V B A m.V A v.A n V A V V +.A A m V r.A e k 7 k +.k n s.V k V e m k n V w k V n l l l l e w A A A A +.V V t e n A A V B A @.+.V q.A r.k A  .V n w +.A r.A +.V B 2.C A m.F F n B N N B N A A n V F 2.2.F F +.m.n n n e V r.B +.Z F A t t +.F A F V n n A A A n 2.n n 6 F A A A J.V N V +.r.B A n A F r.Z V V F V F e Z N +.N t m.e m.A C A F t n A F A N V A +.A C Z Z V B V n F V n +.0.k 6 r.A B k k n B V n n m A V n k l V V V A A A V n +.n n C Z V n V A V n V A e 6 k e k V m m A V k 2.B w w k V V n V n n A +.A V V A A A A V n k n m.A n k n V V n k n k f n V V n A F Z A A F A n e n V m n n k q B e w n t n n w e n n e f n n e A m e k V k k A l V e F r.e k V N e m T.q V F V w F m 7 t l e e N e 6 k e s.7 q l w e n t l m t t k q q l e 2 w V m k e w w e k ",
"k A A e e V V e k e e e 6 k V n k e 6 6 k h w w e 7 2 7 k n n n k 6 w 6 0 6 e 2 h e B e e k 6 6 6 w q 6 0 w 6 : N e k q q 2 o w e 6 6 0 2 n * 6 0 6 * * 2 6 q e n n q 6 q w 6 w 6 0 k 2 2 e 7 e e * 7 7 7 q 2 k t q w q q q 6 - f k k w k 7 k 2 6 w e e e h k V n w n n A 2 e n n e 6 o.B V e n e w k 6 w N w 0 w e k k t n V A e t N A n w w n B e e 7 6 k A V t B B V w 6 A A t k 6 7 2 k t k e V t 0 * e t e e 0.w e e n k e e * e w n w 2 0 n k e 6 e e t w 0 n w n n e e n e t k n e 6 6 w k e e k k w 7 e e n e 0 n V k e k t k k k t e e t l m A m t e t V l q 7 q e e e V +.A e e V n 6 w A V 6 w k w 6 % 6 w 7 w k k 6 e w 6 w t n k e e e k n n n n k k e e k t w 6 0 B k e e n n e 6 w w 0 6 w k k w e k n n n N e 6 t m V V V A m w n k n J.F 2.n w * w e 6 2 e e 6 k k e k m e w V q k 2 w t - q l e 2 q V 7 e k q V A e t A e 6 F e w 2 n 6 +.6 e A t l V m m m k e k e e m k 7 7 A n t e q w t n ",
"e V q.q.r.r.A k e e k e 6 n +.o.V e h B n n n k +.+.t e A V V J.r.r.k e e B B r.q.A v.V n +.n V N n B  .@.+.F ) N M C B  .[ w V k k k V e +.w k B V n e h A +.A V r.A e f n n V +.k n w 7 k w k l e m e w n k +.A N n n m V n k m +.n e V w +.e n n n n V A A +.A n A k A e n n n V n r.V +.n B A F m.n n +.N N V A 2.2.F F 0.r.V n V +.A t e V n A V n V +.r.J.n F A r.n e r.A n C e N e +.V A n V Z k n n Z A n J.t A B B t C 2.e r.A m.A n A N V e k e V n e N n A n 0.A B r.0.F F A n w w t V n n A A n n C B F N e V +.A A t t t e e e e e t t l n t 7 w k n t 7 7 e l n n n A C e e V V w k A.m.n n A A B w k m k m +.+.m 0 w e k k n n N 7 k n k k n n e n e 7 e t e e k e e h k n n k e h e e w e n n e 6 w e t k k e 6 6 w 7 6 t V m w e w w r.n A k e 2 n V h w k k 7 e k e k k q 7 V 7 n 6 7 e 6 t l k 7 q q t w t e t n 2 6 m 7 % m w l k +.- V * t V q q k t t k q 2 6 - - q 7 * % k w 2 2 2 2 7 t ",
"6 2 2 w e e e k k k n w * 6 n k k 2 e n w 0 k e % w 2 2 n 6 o 7 2 B 6 e w k * h f 6 k * * e 2 w e 6 0 k k w 7 e - # 6 0 B  .w t 2 2 6 k 6 A 6 f e n h * * h k 0 2 B n 6 0 e w w n 2 6 2 w k 7 k k m A 2 o 0 6 7 n t 7 7 w q q w k m e * e *  .w B n k k n V A A V n B < e e n 6 % e w k 6 B e 0 e n Z w 6 k e k e k V V n e e k n w e V V e e n w Z B 7 t e 7 n t N e C e - n 6 e n 7 n w Z k k w w N 7 k 2 e e e 2.6 n t w - n A 2 A e A k w n e k 6 n 7 C w 7 t - N - N t e 2.B n n n e 0 w n e 6 w n k 7 7 k 6 k e 6 e e w 7 F C k w 0 e n A t t k t w 2 w l m l l n V V m k w 6 6 e e w e N 7 k n n n w w V 0 k k 7 e V A k e t n k e k V +.6 n A k e B N e A k w e n V A F h k n k f k V o.V n k k n A V k 2 e n n n n n k A V e 6 l +.+.n A n 7 F e A A r.0 A r.B e k k w 2 7 w e k 2 2 n 2 V t k m t n k V k t 2 V w l n k A.V 6 A F t N N l 6 F e I.6 q s.l t m n m V m l m t e N m e e A n t k l k m F ",
"V V k e V A n n e 0 k A o.r.m.+.m.@.n e k o.q.A k A +.A k e k A +.+.k k r.q.A T.6 A o.A q.A k r.V @.w B n A e G.V A k n +.n 6 n n V V w V A 0 V n A V 6 B @.q k e k k n +.h T.n V +.k V 6 B k V +.n e +.w o.V e V V n 2 A w n v.2 w k k 0 q.k V 0 k J.A k +.A V n o.A k h B n 6 e k k k k k k n e e k V +.+.V k A n A  .A 6 q.o.A n +.6 n V h 2 q.q.o.B n V V V  .B V o.B k n f e e k B Z F C n e w V A 6 6 n k k r.w k e o.n k n k V k m.F F e e w k n n V C e w h k k V +.V w A r.k 2 k V k V e +.n V 6 k 2 % n 6 6 B +.A n n A n e w e k n n C w k n 6 6 k w e e n V V V k e 2 k n 0 6 k A B e e h k k k e e 6 k 6 h 2 V n B k V e w +.F k +.e e e n A  .V k n k h e e w e n V B B B n k n V A V e w V k 2 k e k k k k e f k 7 w w w e k k e e e e h k k h e e 6 q n k 2 6 n A e 2 w k e w e e k V n e w e k A n e k k e w w 7 k e 6 e A m 6 7 l t 2 - e t 6 k w N n * t +.e t 7 n 7 w V 6 w * N 6 t V 2 7 t ",
"k n e w n n e k h w h B n V A n e k e 0 0 e e 0 6 w k e 6 2 6 e e k 0 w A k 6 k e A n 0 e w 6 k 6 n 2 e w e 2 V 6 n w 6 n n e k B k k e V n * n e V V 6 n +.e n w w e e h e A e w h e k w k e k w w w e 2 e w < k f e w k w e n 6 6 w q 2 V 6 h e e +.n w n n k e n n k h k h 6 6 0 w q w w e h h e h n V V k w e w e k n 6 q.V V 0 B 6 k e e h 6 e k e w w w 6 B f f f < < w f e e e n V V n e k e h w < 6 n A V +.n e n q.n B t w n 0 V n V e k 7 w w 6 w e 6 w w q e k k h 0 6 e e w n A n k w n e n w A e 6 n k B +.v.+.A A V V V V A +.r.m.n e k n e q n V k e h n V V V A V @.+.V n n n e n n n n n k k e h B w k 6 A V A e B e e A m 7 t B n k n A  .A V V A A V n n B B C F 0.A n n N A @.+.k k k q 2 q k k B m k m A +.k k k k m F +.F n n n V  .+.+.A V k k A A n k n A n e k n n k n V V V n k k B A r.o.A A A V V A A n k l k e w w V V m n k k t q V l +.+.w n +.q m e n w e V w q w +.l A +.e k V ",
"n V k h n n e n V k n V n V +.V k V V n k k k k A +.q.+.A A A +.k n e k A n e f n q.V e n A V V 6 V k n k B h A V r.A e n A B n A A +.n A  .w n h V +.k B +.n A A B o.A k +.V n e e B k n 6 6 < 6 V +.k n k k e V k k  .n n k h +.n k V k +.e V o.k o.B e V n V V V A A A V n n w e h k k k n B V B B V A A B k n k n k A n J.B A 6 V e V e n m.e n A B k q 6 *  .B V V q 0 n  .A C C A +.+.A N k k w 2 6 e n +.n k A 2 n +.e n V n A w N n F V m.V n n e n A V n k k k n k k n w 6 e k k B n 6 e k 0 e 0 B w < n B k 0 2 0 e k e k V V n h k k 6 w w 7 7 6 7 B B w 6 h n h n o.% * 2 w h k h e n n k h e e w w e h 6 6 * e e k q k w w n k q e e w w e k k k e w k n e w e w 2 2 t n e 2 6 7 7 n q q e 2 2 7 7 f k k e 7 7 e k 6 w w w e k k l w 0 6 e n n n e k w 0 e k n q 2 e e e w w e e q k e w 6 6 0 e e k e e e w 6 e n A e e A V 7 w A V q 2 6 6 6 q n 6 - t t 2 t A q t 6 7 - 6 k 2 - 2 l q k k 2 6 t ",
"e k e w e w 6 e e 6 w e w k A V n n k e e e k k h k k k k k k k k e 0 w k k k k 6 k k w k  .V w 2 n V k e n V A o.+.V k k k k k k A r.e k +.e 2 w h A e w k 6 e V k A V 2 +.w k o.V r.B +.w e w % V v.0 V e k n n q w +.6 n e 0  .f q V h A 2 k A 0 n k e k e n n k k n n e e h 0 w e k k k k n k h h k n n n k k h k w n e A * k < k 6 n h n +.n n n k k f 0 * f q B V f q k n B n n n B n k e n A k e A A n +.V e L.6 +.m.h V n n A w k w N n A k e k e k F F k w w e e 6 e n  .k n V k V r.n n n e w 6 e w 2 A r.+.h w n A V A +.r.r. .V n k A 0.N n F V n r.+.h e V V e h A k w e n A V n k A V n k k h k k  .+.V V n V V A n k e e m +.+.@.k n V +.q.+.V n n +.+.V n V B e w V A n t N N t +.n A +.e k +.A +.+.+.V k k m A m V V B k V V m V n n B A A B h A V n h n o.V e k A o.B n A +.A o.A V V A A A V n n k k h h n A k 2 7 A F t k +.V k w q e t t t e w t k q V m.+.V m m n A +.m t l V V A V e k V ",
"e n k k B n k A e 6 w e w n o.A k e 0 w h k k e A A A o.+.+.A A k e w q e n n k e k f w e n k * w n  .n h n +.A o.k h V n e n +.A n +.V n A e w k k +.V e n e n n e V B < A w n e 2 e 2 e * w e % n +.2 n w k V V e 0 A < k k h B w w V f V < e V 6 n B n V n n n e e k k e e n e k n B n n n n n k k n B V V B k k n e B e B o k 6 B 2 n A A n A n e e n A V e w 2 q k e q k f n k t t k t e e 6 e 2 * k e 2 w w < r.2 V +.6 w N C r.k n w B n n w e k e t V A n e w k k e k A e * 2 w 6 h A k e k n e k n A A * e n e e V n 6 e q q e k n k e e t 2 - k e 6 k k 2 2 k n 2 * w e 6 2 w k k e e e w 0 6 6 6 w w h e k e h 0 6 6 e 6 2 7 w k k k * 2 6 e h e w 6 e n n e w e e w e t e w e n e 2 k e k k * 2 e 0 w w q 7 2 6 e k 7 e k q 7 w w 7 k f e f k k w 2 w e 0 * * w e 2 * w k w w k n k V n e e k n n n k w 2 6 w w e k k e e m V k e w q V A N m m 7 o 6 2 6 6 2 7 e 7 6 w 7 e n m t - e 7 t t 7 6 6 e ",
"f n n n +.+.o.r.k e k k w k A A n e e V o.A n e h k k k k h h h n f n V n V V w +.n k k e V A k k k +.B n n r.A v.e k +.V e n r.m.6 n r.A k 0 V V k m.r.V +.A +.A V +.+.k +.o.+.+.n V n V f B o.2 k n w e 0 k V n e w k 6 e k B A n n +.B r.e V n w V V n +.V V n n n n V V Z +.h k B V B n n n V V V V V V B n B n V B A e o.6 k e A 6 V +.A e m.+.n h B A V h B q q h e h V V B n n n n n n n +.A k e V V B A B V T.V m.T.V A B A m.n N e N n A k N F N n V C n k h k n n V A A k n A A o.+.V w e B e n e A q.A r.+.k k V A n V n k n V o.o.A n t 7 w B n n C A n B r.r.V k B V n k n +.m.m.m.A V V V V V A o.B n A A +.k k e s.A +.r.A A A e k h e e h n B V A A A A V V V A r.A B V Z Z n e k k m k 7 e k k m V m n k k m A e n A m n n n k V V A  .+. .V n n A V e e n A V e n V V V V A A m.o.n k n A +.r.r.A n V A o.o.+.k k k k n m e 2 7 n n 6 6 n n 6 k l n V A V m n q n k V F V V w F e V m e n t k ",
"w e w w B n f k w 6 w w 2 6 k h k e e n B k w w e k n k h e e h f 6 e k w n B 6 +.w w k e k V k q * n k k 6 n w A 6 e V 0 2 e h B & w n w w 6 e k 6 A A e n n k n n V n k e q.B k e w n w 6 * 0 e w w k 2 6 w e * 2 w 6 e 2 6 k n n n n 6 A e n 6 2 n e 6 n k e e n B n n A V k 2 6 w e e w w w e e h k k h f e e w e e k < V h w * k < k f w 0 A V n e e h w 2 B q f h 0 0 k B e e e w w e e k n w 6 2 < 0 e w 2 h q 0 w n w e e t A w t 6 n k B w n A k 7 e e 0 w 0 6 w k e w w 0 2 0 e 6 % * k e B w n 6 k n A A V 0 * 2 w e n k e w w e e e w 6 7 e 6 6 t k h w 6 0 0 2 2 2 V V n w w k e 6 0 6 6 6 6 0 w w e 6 n e A w h e A q e e 2 7 e - e e 0 6 6 w k n e 6 w n n w q n N w 6 e n e w e % 7 7 2 7 e w e e e k e 6 2 6 w 2 q l k e w 7 6 6 w k n k h e e w e q w w e k k 0 0 e k k q w e k e e w e h k k B k e h k e e k k k k e k k k e N V n 7 7 n r.J.w e 7 w l k e l - t 6 e e 2 e * V % q 7 - q 2 2 ",
"A A n n A V e f B k V V k n +.o.A B n n k e e n n V A V n k k n +.k n n e +.L.A G.k n q.n e f 6 n < V A o.e A e n w n A e n +.V n k r.k 6 r.r.e  .e r.r.n A V n k V V k n 2 m.n V A V R.q.+.k  .G.V n T.k V B V 6 n r.V L.n V r.B V n e * A e B k k r.n e q.+.V V r.G.+.+.r.+.k e n V A A A A A n B A +.+.+.+.+.B e n n n 2 r.r.A w A n +.n n +.e B A A A A A B B B o.@.k e n B n n n n n n V A r.n V A k V r.V k m.k V k +.A +.A F m.V +.A J.m.N e n A n w e k n V V n V +.A e k n w e A n 6 n B e n w V w n k 6 n m.m.A k k k A A A V n n B A C n F 2.e e A A J.r.V k h k k k w n n e k o.+.V V V V V V V V V n w V n r.n o.A A.k k k 7 m A.+.V V V B n n B V k w k q.q.n k +.V 7 7 B A k n +.e +.m e m m e k 6 e k k e e k n k V @.+.V k e w e k V A B k k n e e e k n n k k n e e B B e w e e n A q.q.A n k n n n B k e e n A k k k e 7 e k t t n m e 6 6 k r.F q 2 w w q m q A q k q 2 l 6 m.2 n k 7 N e 7 ",
"w w k +.+.n e k B h w w e e e 0 n k e w q k e 2 6 k e w e e w h w k k e w e n V 6 f k w n +.k & +.6 A % 2 n A 6 * 6 w 0 6 0 e t e 7 n e e n e N q  .k h B w 6 e 6 k e V 6 k e A 6 B k A 6 k 2 * w e e 6 6 w e w 2 0 2 % e % n 2 e n 6 6 < +.k 2 w w e e k n e 2 e k n k k n e 0 0 7 n n 6 6 e t 6 w t 2 e A e k A * o.2 k V 2 e h 6 k B 6 0 e < w e n 6 f 0 k 0 k k 2 k w A n B k 6 6 n k 6 6 k e B C n n N n w B w w n t 6 e +.n n n e 6 7 e n n e e 0 6 t n w 2 2 n q w h 6 6 e e e 6 w n V n l . e w * A A 6 e 2 F w N 0 % e A e 2 2 - * 2 t 2 w t t q 7 6 6 V q 6 l V n t t 7 m 7 - A V 7 t e w e k e 0 e A w k k e e n k w 2 k V B k k n n e t e t B t 6 e m w n A t t m t e k l l t t k n m k e k k e w e * 0 e 0 2 2 w h k k e w w e w w 7 m m k A +.k 7 w N n n A t w m.J.V B 2.F e w A A A B e e n n t 7 w q t l n m n V k w e n A n w C e k B e N 2.V m 6 e 6 n 2 l V l n n m n n n n n e w n V N n V ",
"A V +.m.m.V n n V V B B B B B n r.+.V V V V B n V A V B A V n V A +.+.V n B V n n B k 6 e +.m.r.v.e L.A o.+.+.n t N F +.0.2.0.A N n A N C F n A n +.V V A V A +.n A n +.n +.V +.n A n V w A V A n n  .b.G.o.n n A +.V n G.A R.+.n V q V k +.k e V k n +.r.A k k A +.F N k k n n V V +.0.n N 2.r.A Z 2.n A 0.n A A w q.f +.r.V o.A V A  .B n n e A A m.B +.V +.V A q.n n w q.V k A k h A m.m.A e e n B n n V N n V k k B n e k C A A V k e e t n n n n k w n C n n k o.k k V e n V A V n B o.+.A n 0 n e n r.n n B t m.k +.k 0 B Z n e k e w k F m A F V m V V n +.A V A A V V V m F n t r.s.V A V B V A V n n n q k n B B B k w e k m n n B V n e e 6 - 6 6 7 C A n n m e 7 6 2 t t k t e t l m +.m m A A m k n 2 w h e w 0 e k V V k 0 0 e k e 2 k k e m A k e e n e w N k e A k 7 7 n n 7 7 n n B n e e n n e V V V N k t t k n t w w k n t 7 N 0 7 n k e k n V q l q m 6 k m t t e t k k t e t w 0 e k e w e ",
"n e k V V e 0 e h n n n h e e e +.n h n n e e e e w 2 0 k 6 * 6 e k k e e e e e 0 e k e 0 6 * O e % n k k 6 6 6 6 0 w w e k w 2 0 - w 6 6 e 2 6 0 2 6 6 2 0 k k n n e n h V k k w n k V e n e e k 6 6 n k * % 6 6 6 < * k e A e 0 6 * k w w < 6 w * * k n 6 * 6 n A A n w 0 w w t e n n e t A A n k N k V C e F e 2 q * e 6 6 < e k e e n k w w k k V w n w k w h A e 6 % V k 2 w k h 6 6 k V B k t e e e 6 6 6 A A A A A C V n V n k e 7 0 7 w e e n k 6 w n e h e k 6 2 e 6 e k k e q e k k e 7 k n 7 N A 6 k e e C w B w 2 t A B B C N k N 0.m A V e e m m e t l n e 7 w e e e e 7 7 t n k q k n n n n n f 6 V B V  .A n k k V B k k V o.A k C 0.+.Z A e w N +.F m V F m t k l l l k k l m V m k k m V n k k 0 h n B k e k n A +.n 6 6 k n e w V m k m A V V V A e 7 B A N V n n N A F A A F n B n n n N N n k m V n t e l V V n e e k k t e A t e A F w 0 A +.n n k m w l m n k e t m m l e N n k N A V n n ",
"V n n A A V V A 0.+.o.Z A V B n +.n n +.+.n k B r.A n A m.A n A n A A B n B A A m.+.A n n V o.r.+.V +.A V V V A V C N k k n B n F C r.A V A n A q.k o.A k A +.A V n k n k n n k w k n A n n e 6 r.n k V B k k V B A V B A +.m.r.h h k A B n n V V n n A +.A V A N F r.+.A B k e e w n n e n A V V e k k A C w A +.A V n +.h A e w n e k q.A e k k k A e n w k e k A e e 2 A n h k B B e 6 w V v.+.V V Z V e w t V A V n N F A k A n k k k k k n n n V V t t n t n k V e w n e k n n k k n n n h n N C n V N e n k n V k N k w n B n N V n w e n F r.F t k A N 7 e m V t e k k q e w e t q k k 6 q n V n n A V k A k e h q 2 2 e k f w 0 k V B f w n V C V 0 $ * q e 2 2 n t 2 e q q q w w w e e 6 6 6 w e 7 2 2 0 e n n k w 0 w k V k 2 2 e e * * k e 6 7 6 2 7 w e 2 % 6 t e 2 6 e e e t k t w t t t t k k e w - 6 q e e e k n e w 6 6 0 6 6 w t n k B +.e 6 V V t w 6 w 2 w e n e 7 q l m t 7 6 2 6 7 e e e 7 ",
"e 0 6 w e h k k n e 0 0 h k e 0 0 * 6 n n 6 < 6 k e 0 h A n w f n A A h 6 6 e k V n e w e f h e k A k w w n n e 6 e e 6 6 0 e k k e V e 6 w 6 B n < n h 2 k e w n k n h h e h k e 0 0 6 e e n V 2 6 w e k n k e 6 w e w 6 e e k 0 h n w w w k h 6 e w 6 0 k n h n V A A F +.V e e w n C n N C n r.n t e V n * w e w w 6 B w B w e V k n v.+.e k A V +.n o.h V n V n w V e B k V A h h A r.A k k N n B +.0.V N A n N n e k A A n n e w e k t n V V t n n e e t 6 B n A n n A n n V B B V A A V V A e B F w w A e k A k k n n k B k k n n e 6 6 0 A +.F l l V k 6 t N V n V F V q k k V V l n k 6 2 k n e w n V B q.V B V n e k A V V B n A r.r.+.V C n V +.A k n A F l l +.A t V m m m n n n l k m m V A A A V n V V A +.A k h n A r.v.A A +.V w k +.@.A A m k V N A A B n A +.n e n V n n V N k A A A A A V n n V V A +.r.+.A N k e e t k e t n t r.r.A r.F B +.+.V t t t n m A +.N k n F +.V t n n n B A F A N ",
"A n k k n V V V A n h B q.m.q.A n k V r.r.V n n n V n n  .A k n o.r.v.A n V  .@.B A A A A n 6 O w m.n n n  .n 6 2 f B B k B V A k f A f 0 e q  .V 6 A k e A e n e e k 0 e 2 w w k w f e n e k k V V n e f V V k e k n h 2 n w n A +.m.n n n A V w n n 6 w A +.n B n e w k V N t 0 6 e B n n k 0 C e e 7 n n * 7 V k V e A n V n e k e e n k 6 6 n h V h V 0 k h V k 6 A e e 6 k V e e A A e 6 h t e t n B n k n n V V n N +.r.F e 6 6 e t e k A A e e n e e e 6 e w n e h V e e k e e n V B n B Z 7 k 2.6 6 r.w e A 6 e e t k n t t e t e e e w m V V l l l e 7 t e q t m V l 6 e n V m n k q 6 w k k e 6 e n V 2 6 e k h w w e * 2 6 6 w e e w e e e k A n 6 6 t e 7 q l k t n 7 6 6 6 6 6 2 - 6 7 w 7 e k e 6 6 2 2 0 6 % & * q k n k k h 6 % 2 t k e k w 6 e 7 7 k k 6 e n w 6 w e e t n n k e 7 7 w w 6 2 - 6 2 2 7 t t 7 - - % % 2 6 * * 6 O e n 0 7 w 7 0 t q * 6 - q 7 e e 6 * 2 w q 2 % e e 7 0 w t e 0 ",
"n e 6 2 6 w w 0 e w w n A o.B h e k n V n k e w e A V k V A n f w e e e k n n k k n k 6 6 n A V * q.w V n k w 6 6 e k k f k k k e 0 k e e n q n V w V 6 e o.6 V A k V e A h V k +.V r.+.J.n n e J.+.k w w e h k A V V V e m.k V h e B e n 2 e e e n n e e B V k 0.F N k n C A N k e n V n n n 7 k n V e V 2.n A A w A 6 n n e f A n n n h k n k B h V k A w k n V A k +.k n w h o.A V V k w k +.A A C n n N N n k B V V C A +.+.B k n A N k n 0.r.N A +.C N C N n k A n n o.k k n h h n V n n V Z V n r.A k r.n n m.w B k V A A t e w w e k k e A V V A V m N F V t w t V m k e t +.A l A m t N A V V B n n A r.h A r.r.q.+.+.o.k n V A o.+.A n V A A 2.A.A e w n e k m n m A A F V n n m V A A m A A m A +.+.A A n n V V k n A r.+.o.r.q.A V V e k k k n k w k n w k V e e A B N B V A +.+.2.r.0.A C F +.C V A t e t l V F F A Z n B +.r.A V F e n r.2.n n A A V F l F m r.m m +.A N V F +.V l B n k e k V N k ",
"A B h e k n n k e h B o.q.o.n e n A A n k n k e w +.A h n V k w n n k n A o.n 6 w A q.n e n n 6 6 r.0 +.B w 6 n B B f 0 0 f f q q 2 f f B  .f f A e V * e A * A V w h 2 V e n 0 n 6 w < k < q w +.k e A +.n e n V e q e 6 m.w h n 6 n V m.w n A h f k n n k e k n V V n e e e 7 e 6 w e w e w * 6 t V 6 7 k 7 n e o n % e V 0 k A e k k 6 e +.V n e n k V 0 k k 6 k e f < e 2 * n n e e B A k < k n t 6 0 n C N 6 w t n n t k n e 0 w e 7 * 2 t n w t n w 7 t n B k V e k V e e e 6 6 e e e e k - t % w N 6 7 7 7 +.* e 6 t n n t w 6 2 w t e 7 t 7 7 t e 7 t F N 7 - 6 q 7 6 7 6 A t 2 l t 6 V e 6 < 0 e w e n 2 e k w 6 w e w w e h k B V e 2 k k w 6 e w e V V w t n 2 2 q 2 q 6 * * 2 w t k e t e w e k n k B e w k k e k +.A e w e h 0 w k k n k e t w 2 e V 2 w n w e C N e 6 0 e t e t N k w w e t e w e 7 7 7 7 q t n V N e e V A n e t 6 * t A 6 * w e * 6 % t 2 t % O n k e t l l e 7 e e 7 6 w n n t ",
"A k e k n k k n k  .r.o.V V n k n B V B k e e e n n k k k k n k k w +.A e k k B q.e n q.k w k q v.e @.V k 6 A 6 n w 0 n B k e k k k e w h B B e A 6 2 n V w 6 n w e f e w e k V V n k k k f n V n f n w A n A h F V t n Z n w n +.k n r.q.w * 6 w B k h @.r.A m.N V +.r.F n e e w w w e n n k t e A n +.k r.r.k n w n n k k w n n o.n f 2 V 6 n e A e e n e N C n n n k n A F +.n e t A 2.V k t k e n A V e w h e k V A A A A A V A @.+.k w k A V V 2.m.A Z r.+.V A Z Z A A Z F A A t e F n e A A V V A A A V B V n n V +.r.+.A +.+.+.o.V k k n J.V n V o.V n A 0.V N A A n N +.V V +.k e A V A A V V V B h k V q.n n m.r.f e A o.n V A A o.+.B o.q.V n V n n A A V V A C n n n 7 w e n N n k e B F A e w n A N l A 2.A k e n A n B V C A V n n T.V k +.n r.k A  .n V e n 6 n V n V Z A C V N N Z V V C B t k V n k V e +.e A J.k e +.w m.6 k k 7 t m k 6 t V l V k n m e e V A C k 6 F F 0 t N C k w t A +.V e ",
"e w w e k e w w n A A n h k n k k n n k h e e e V A A  .A V n k k e q.A f k q e e e n h 2 e n * k % w 6 e w A w n w 6 e f 0 6 w 0 w e e h B n e n w 6 e k e 0 w * 6 w w 0 6 w k k e w w w 6 2 0 e w h 2 k e n w e V k 7 e k 7 6 n e 6 6 0 e h k w k w * 2 w e B e w 7 6 * - 2 6 e e t k n n n k w k w n 2 n n w e 6 k h e e 2 h 2 e 0 2 % k % e 6 V k n N 6 6 * * 6 e k n k e 6 e 0 6 e t e 6 2 n k e e w w h V B e 6 2 6 w w w w w e w * % 2 e k w w e 6 7 e 6 7 w e k k k n n 7 6 2 6 e 6 * 6 w 0 6 w e h h e 6 2 2 6 e e w 6 e e k k e w 0 w k 6 2 w w 2 < 0 e w w e e 0 6 6 6 6 k w w n h n e 6 6 w e 0 6 6 w w w e e 6 2 2 n q k k e e e 6 e k 0 2 0 6 2 0 e e e k e e k A k w 6 7 e e 7 6 * 7 e w w n V N e n V k 7 6 0 e e e e k n n n t B e e k e A e V B k A k n 6 n A w * % 2 w 6 2 2 w e k B n 7 6 w 6 w B e V 2 w N w 0 m - F - k n t t t 2 % 7 N n 6 2 w e 2 2 t n t w * k k - w e w w w e t w - O ",
"k e e n n n k k A  .A k w e k n n k k k k k k k e k V o.+.A V n k e r.o.k k w e n V +.A n +.m.n +.k f w V V A n A k e n V B n V e h n B o.q.+.C V A A V A A V h w e n V n n n V V B V A V n h k +.V A k +.A r.V e m.r.e n +.V 7 n +.A e k o.+.k 6 k A V e V o.n +.r.Z k e N F F t k n n n n n n V B k o.e A A A n e V V n V e B n A +.A A J.V m.A A.A Z 2.N Z F t k n N V V N N A C N n V A V n k A +.A V V A A +.A B A r.v.A k A A o.+.A B V +.T.+.A A V F r.A N A F r.r.2.r.r.A n N Z A C A B m.r.+.o.+.+.+.A B n k n V V V n h n V V B n k e r. .+.r.+.V V +.C C B n n V B k A n o.V n V k A o.n k V o.A V n e V B e f A B 6 h e B A n B V n k B k h n n h n V C A A n e N r.A n e k V A B e k n n n n N V A k n n n k n N A A V B B V C N n V A +.e A V w n e h  .n n 2 k V 2.t 6 n 2.r.+.F k n C Z V k t n e N Z k B 6 e C e e C w r.w n n 7 e V F n n l 7 t t A F t e V +.V V e N C k C n e n V A N n t e ",
"k e w e h e k B A V n e w w e k h e e e k k h e < 6 e k n n f e w 2 V n w f w e e 2 6 n n h n A A V e 2 k k w 6 e 6 6 q h f e e < < 6 0 e n h e e e h h k h w 2 6 0 e e e w w e e w q k k e w w n h k 2 k e V e * V V 6 w n e 2 w n h 2 2 e e * % 2 n n 6 n A 2 e V n w 0 k k 7 6 7 w w w w e e e 6 w n 2 k e n 0 2 e 0 6 w 2 w w w h w e B w B 0 k * 6 w 6 e n w w 7 w w w e t t n n e t V B e % e n k e k f w 0 6 7 k n n w * 6 6 e n B k w w V e w e 6 e n e 0 w t t t e e e k 6 w e 6 w n e m k e w w w w w w 0 6 6 6 6 6 2 n n B n k e w 6 k e h n k e w e V V k 6 e V A n r.n V n h f 0 V e 6 * 2 6 w 6 2 h V B w e +.V 6 w w B A n n A n e n k k V V n V n n N m e w e V e e t k B N t 6 V n e e e 0 w k w w e e e k B V k k k e e e k n e V A % A k < w e e V k n 2 e k n e w e V r.2.A k n n k e w k N k n t 2 6 - 7 N w w N e 2.7 0 0 V e q w - 6 l n l t A +.k e n m e n w t n n A k e t k t t t n V ",
"n n n V A V V A m.m.r.r.o.A V A A V A +.r.r.+.V A A +.+.+.+.+.o.A n r.+.B o.A +.V n k A +.n n @.V r.o.A A +.V A o.V V A +.A V n n n n B C A Z o.A n V +.+.B k n A A A V B B V A V n n B B n n V +.V A e A B +.B e A Z C +.F V A +.V e 2 6 k A +.r.A A k w A m.n A m.r.V N +.A t n N V V V A A F o.n o.m.k +.k A A B +.n n A n +.A B A e B V h A n +.B 2.m.B n n e e N 2.2.N e e V F F V V F A n n o.o.n h V +.q.r.+.V n k k n n n k k A +.A V V V n N N e k V B Z +.2.+.A N n n m.B V N w B m.0.n k f k n V A A A A A V n n n n B V n e e e e 6 V k k n V n k e e k w 2 6 e k w B w n n k k e A o.A n h k n B V n n k q k V n e n k A o.k e k w w k e e n k e k e w e n n k k B t n n t e e e 6 e 0 0 e e e e k n n t t e e e e 6 e t e 0 w n +.6 e n O +.A e k h w k w n 2 w 6 2 n N e w V A n n n k e w e k n n B 0 2 7 t e N k n N k 0.t e t F e e k w w l n l e n A l t k e 6 t 6 e n n A e n e e e e t e e ",
"2 2 w k k w 6 6 e e e k e 6 2 2 6 6 6 w q e w 6 w 0 6 6 w h n V e 2 k e 2 e w e w V k 2 w e w 6 < h k k 2 e 0 0 w 0 0 e k n k e e w 0 e e e k n e 6 6 k k 6 2 q k e w 6 6 6 e e k q 0 0 6 2 6 0 k e e < h w k 0 6 0 6 e n e 6 k o.h 6 6 6 2 6 k n e w w w n n w Z F V e e n n e w 7 6 6 w e e w n w A A 2 V 2 e n k V e w n f B A k n 6 n e 0 n e n 7 n A e t n 7 6 7 k k 6 2 6 e e t w 7 0 6 * w f k e e k n k h n n e 0 6 e n n e 0 w h k n V n n V V e w k e A A A V n e e e N k e 7 2 e V N f e e e h k n n n B n k e w e h n V n e e n n e k e 0 w k k e 6 t n N n k n t w B k @.+.+.+.n A V B k w w k n n A B k k n B n n n k V A k k k w k V n k n e 6 w n k n V C n k k e n n e w n A A 0 w t B V B k w n B B n n n n n n A A N e w n +.n n n 0 r.m.n V n w k 0 n 6 e w w F m.n e n A n n N N n B V n e V +.k n C r.B N A V n k Z V N +.t 6 n A.r.n e 2 m e n F V V V l e B e N +.Z r.n e e t V +.+.n e ",
"A o.r.m.r.+. .@.V V A +.+.V h h V V V V B V A A V V n n V +.m.L.A k q.o.B +.A A n m.A e V A n B k V A +.* k n e k h e e n A  .A n n n C A B C o.k k n n n n n n V n k e e k B V +.V B B n k k B A V A e A B A n B n e n F N t V m.+.A +.A k e e q k k  .A.r.V A +.A n e t k n n 2.A n n A A C n V k m.o.w J.n +.V V r.V B +.B A A e V 6 A k e V B n 2 e N e n Z r.V n N n t n A A N n B n k k n k k B +.r.A n k 6 e n n k h n V V k e f n n V  .A B A A n n V n V V V n k e t k e N n e e k t n A V n n n n k h k n n k w 0 q k w e e 6 0 k k 0 V B n k n B n n e e t k e w e n n k A n k V k n B n h e n A A n k n f w w e e e w 2 w k e k n e k V k e k w 2 0 n k n n e 6 6 0 - w e 7 w N A N w k k e e k e 2 6 w e t t t k n C C N t 7 6 w e V e e k k V 6 h V h n e V w B V 6 6 6 6 6 6 w e k t e w t n e 2 n +.k n k F e e k k w e n l e N F 2 * w 7 2 e l e 7 t N k t l e e k 7 N F n N w 2 6 w n F F n e ",
"n k e w 6 6 e V e w e n n w 2 2 f h e w 6 w k V +.A n e w e h n w * k k e B k n e k 0 e A e 0 +.k k n +.& n A e A n e 6 6 w e w 0 0 e B B k k B 6 k n w w n n e k e e w e k n V n k k n n k k n n h n 6 n h n w B B e e V B e t A n e 6 6 w e e e k w k A k w +.V k e k n t e e B e 6 6 w e 6 * 2 * V e % m.n @.w e A k k V e e n 6 n 6 o.k e n A +.k +.m.t e e n t n A A e w e n e w k k e n +.V e 6 e k e e n A A B h w e A v.e e k V A B n B n w e t e n V k n n n k t t n N w +.F N +.A e n n n n n B B n n k n n k w 6 q k n V V n B +.A k n B n k e k n n k e w e w 7 V J.n k B 6 0 A +.m.k k e e A v.+.k n A V e w n n e @.V A +.A +.+.B A @.A V A V n A B V A A n t n F k A 2.+.2.r.C w Z 0.C e t +.r.A n V Z A V n n N A V n n N A A A V e k q.h +.k +.A n A k V e +.m.+.w 6 N +.V A J.r.F k e n A C e r.R.A A t +.k V C +.Z m.J.r.n B J.t e A V n V +.n k V F l e l l n n e F r.n n 7 n n n V A A n t ",
"r.A n 0 r.@. .B B r.6 +.n V A B n V n n A V n V n V A A V n n n h B @.r.r. .B k @.V k q w f V o.n V @.k k B f  .V A k e A +.n e k h e h k k k h w +.J.+.e 0 w w * 6 w w 6 w n +.e k n V B n B A n A A k k B n e e n A A A A n w r.A e A w k q A k k n n n n V A B k e e k n k e m.V n V V h n +.A B n n k e f n r.n n 6 n w V B 2 V A h e e k +.A o.e B n 6 m t 2 k w n q q.n h O n w < A V 2 k n e e k e 6 0 n k n V V n n B A V n e w e n h w V w q.2 k n k k 6 n n w 0 k n e n n B n k A r.B n e n h V e +.w * * 6 h % V 6 6 w B n 2 % e V V e n V e w k B B n n e * 6 B k * k n w k n e n e +.e B n k A n k f q w w k n h 0 V k k n V V n n 6 6 e e 2 +.2 6 k % k h 6 0 * e * n n 6 6 e e k 0 w h n B k e 6 0 w k V B q 2 < n t e e e h f h w V A k k A V w e f n 2 6 % w 6 w w 6 w * V * 2 6 w w 0 6 0 6 2 e k k e e n k 6 n A V 6 6 O e 0 h e w A q n e e k e w e n A k 6 6 6 0 w e e w 0 k e e k e 2 w B ",
"e q f 2  .k f 0 e A 6 A k k k w e h 0 6 e e e n n n n n k e w w q q q q f B o.r.q n V B q < * < q n  .k k V f A k V n e n n e w 6 6 6 w e h e 6 6 k V n e e k V n n n k h k n V e n V k e e 0 < < e k k k V n e e e e k k n B V f 6 0 e V n h w 7 w e e k k n V k e w w h n k k A k k B n e w n n e q k n n n n A B n w n k V n e V A n k q e V A q.n A A k +.V V A e V n r.n f e q.V k +.+.n o.k e e n n w e B w w e f e 0 e k k n V V A A V V r.n m.h A A V A A n V +.V e k +.A B A A V +.r.V B w B B V n V k k e n n w o.B B n B n k e k A r.V k k k k k n V k V k 6 0 n n 6 k n q k k w n e r.V m.A k V V q.n f f k V V n k A n n V A V n n k n V B n v.V n q.k  .r.A A A r.k +.A A T.~.v.n A V V V A @.r.r.b.r.r.r.@.A  .@.F Z A C A  .@.@.k o.q.B n o.+.B B B o.h V n +.A V n A A n +.n A n k n n B V V A n V A A +.q.A n 2 e B B q.k v.+.A V B b.B +.A A e k k k n B k w B n n B V A A A V B n V B n n V ",
"n B A f @.k k k k A h +.V n k w k n h e V V B A o.A V V V V n e 2 q n B n e 6 < q k B B B V  .@.0 k +.B B V f V w B n h k e 0 e w w w k B B k w n h e e e w h V h e w w e h e e w k n k k n e 2 6 e k e h n k w f 0 6 e e e h V V e n 0 q.n n * e k n V V A +.r.k e w w e k n n e q e B n e 6 w e 6 2 q n n h e f n e e 6 n e w 2 6 6 e k w 6 n n o.B k e e m e e 6 * e k A h e q k k w w e k n e e h B n h h B V n n k w 2 2 w w k V n e 0 e k m w n 6 e w 6 e n e k n e 2 6 n w < 0 k e e e 0 B 2 k n w n 2 e n 6 n 6 6 k n n e 0 0 e e 0 e V n 6 2 h n e w e w k n w 0 h k 0 w f 6 w w 2 e 0 k 6 k 6 % 6 6 e w 6 w n n k e n k h k n k e e k w n k e n n o.h w * % w 6 2 e w 2 k e 6 e n k n k e w 6 w e k k B h q q 0 2 6 q A A V n e f k B e A +.n k A +.A n k n 6 k w k w B w A n V k k +.e 6 6 e k e k V V n n n B k k k w e k V r.w V k n k e A q n e h w n V V n n n k k k e e e k n n k k h e h n k e ",
" .V V q V q k B w h e n k e w 6 e k e h A V k n n h e h n V k w e f k k n V  .q.@.B 0 0 f B B k h V r.V A o.k o.n A A n n n k A A V V A r.r.+.A m.V k n B n n V A B n B o.q.o.V V n V  .r.q.o.A A A V k k V A A A n n q.+.k h B n k k * w w e * w e k k k n n V A V V B V V V V n n V +.o.V k k n k k B V n k h e A k B 0 A e w V n k A m.o.A J.C G.G.A B A s.F n e w A r.q.A A V n A A e k +.A B n n A V n B A m.+.o. .V k k V o.+.+.A k e V m.+.n V n B k e n B r.r.V n A +.V n 6 e A V n V B T.k r.v.e m.6 +.r.h r.e B B +.o.A V B V V V A o.A V V q.v.+.A V e k n e e e e 6 V q.V A V n +.V T.B V n V m.A n n k V r.r.V V r.A A +.r.A B V o.n +.V k r.k T.B V n 6 V n e @.n n +.A k k n A G. .o.o.+.q.r.+.A V V A o.A k f h B N A N k f k B 2 k V k e n V B V n V w V e e *  .w A k +.e k +.n e e B V k k V q.B k n n k n +.m.A n B +.2 k h A n k +.w n e e k V A n k n n B k k h e e e h k n A V k k V A n ",
" .V V e +.f B A h e n h k k h k k n w w n n e k k e w f V A n e < 2 0 e f f k B f f k B V k 0 * < 0 f 2 0 e 6 B e h 6 2 e e e n k e w w e e e e n 6 * w e w 6 w n e 0 w e k w 2 A w 6 k n 6 6 e w 0 6 < 2 w h k e 0 e A A e 6 e 6 n e e 2 n V +.k n n n k e e e q e e e e w w e 0 e e e e e w 6 w w f k e 6 6 0 6 n w k < k 2 2 o.k 6 e V e 6 n < h V w 0 n V m 0 2 w k n 6 2 6 q 2 h n 2 6 B h k e w w w w w e e 6 6 e w 6 w n 6 2 6 6 6 6 k +.n n e k e w w w 6 k k w e V n w k 2 0 n e w e e +.2 k e O n % n k * n 2 e 6 e w w n n w w k k w w n k 6 6 k n w B V B n n n h w e B e w 2 < e 2 o.6 w w e V q 2 2 2 0 h e 6 6 k w w e e 0 2 6 e w n e 6 k < A 6 B n 2 n k 6 A w e e 2 w A V e 0 w e h n V V n h q f k V B q 0 0 7 e B N n B V  .2 h B n k n B n n k A k q.V n 6 +.6 n e A e e n V k n A A n n V k w w k n k B +.A e 6 e A 2 V V A n k r.k V k n V V n h k B V V e h k k e q e e k A A k w n C V ",
"k k V B b.B V @.n e A e n k n V A V 0 2 e n k V V n k B A +.A n k  .b.T.L.@.B f 0 B r.r. .k k k B  .r.B A b.r.~.r.@.n n q.r.+.m.+.+.A A V V A o.@.A V o.+.A n k V n n n V A A A J.V n A A e h A B B V V B n n n V n n o.+.A +.m.2 n k o.e +.A m.A A o.A B n k k B V A A A A o.q.A +.+.A A +.+.A n V +.q.A n B o.A +.A q.V o.V A v.A e k A V n +.B A m.V n +.V A k h A A +.k n k V e V q.n n +.A G.r.+.A A +.+.+.r.V V +.A n n +.f e k A A B V +.A b.V r.V A A B k w e A q.V n A r.V A o.V n V n r.k A n w +.V m.V w +.A A V B n V m.m.V B r.r.V +.J.q.w w +.m.+.V n n B n k e e A m.A n e w n e n w A B e k e h n V A A V B V A A V A V n e n A A v.q.V A V r.V +.V n A n k A f n k w k +.A V +.+.o.V V V B B n n k k B B k k V w e n k e e e f e n A A V A A V n k A h o.k k < B 6 h w n h 6 w w e h k n n n n 6 0 e n n e w w n e e k A 6 n e w w 0 A e n k k A V k e k V V n w h n n k e e e w k n e 6 w k n ",
"0 0 n f o.0 f A e < B * w 6 6 e n e * % w e e k e w w e n V n k 2 2 6 0 0 f B  . .o. .k q 2 0 q q h B 0 q B n r.k e 6 6 k e 6 e w f k f w 6 e k e k k k e q 6 * 6 0 w e e k V  .w w w 6 2 6 0 w w w w w 6 2 * % 6 6 2 2 6 6 w e k e w n n n k k k n B n k e e w 6 w w 6 2 2 e n 6 e e 2 6 e f 0 6 6 w e w 6 6 e 0 < 6 0 e 2 e n k h 6 6 n V n V A h A k e k 2 q 0 0 n 0 B e n e e 6 w k e w e e n k e q e e e w V e w k k 2 2 w e w h V n w w k w q.e n 0 n B 6 % % w V B w 0 k k e k k w e e < n k A e w k o.B k 6 n o.k V e k e n V n f n V V V A n 0 w V A k f e k n k w w n e A k e 6 6 n e k w A n w h e n k V V e e k n e V n n k e w e B k n V k w V k n n e V k 0 e e w n k e h n e n L.v.+.V n k k k h q q q f f e k V 2.F A B k f f f h k n n V A V n +.A +.k A k B w n k V V n o.e n h n n h k A +.A k V o.A V n k e o.q.q.A r.h o.k e e e r.k A n n B n k e k B B k k B A A V V A +.n n V A V n B A ",
"V V r.V o.0 B L.A e m.e V n k V n n h k +.+.V V e e h n A +.+. .k B A  .A B B k V f 2 0 V @. .B B  .@.k k V k r.B B k n A k w n k A r.@.V n V r.e A q.o.A r.r.A k n V n e f V +.B m.G.B k +.+.n A B n n n n V A o.q.+.V B B n e R.B n n T.r.v.A B V A A A V B B A A V k w e V q.h V V h k A A n A V V A o.A V A V 6 n k q.e +.L.A +.B k o.r.A A C w V n V +.k S A V o.0 V n A w A k h n n k k n V V V m V V n k A k k +.r.V V r.n k n A n e n m.e J.k A e A +.w % n m.+.V A A V e h V V n A V w n V r.e k e r.w n e B G.n r.k V e h n V n h B r.n k k B o.A k 6 w e n V k 6 e o.6 V k e e k r.A A w k h e A n k n A V w 0 n n w +.V n k h e n A e k A n 6 r.e V n w +.k 6 n w e V e 6 n v.A e k h e e h k n n n q q f B B B V  .Z N t e e k n B w 0 6 6 e k h w k e k 2 k e V n 2 w k n 6 V 6 e e B n 6 6 V +.V 6 e h 0 0 n V V < w e 6 n w +.B w w w +.e k w 6 k n k k k n n e 2 6 e e w e n A k w e V A n e k ",
"V q 6 f f 0 k b.e e C 6 h e A 2 w e e 6 < 2 2 2 k 2 2 n k % % e k q k 0 k f $ V k e h < < e e B n 6 B & n w V % r.2 V A 2 0 k B q e h * k 6 n A e 0 Z w C C n e B 2 B * k k e k V +.V B V 6 2 V e h e w 0 6 2 % % w n h w 0 0 6 n n V 2 n V A 0 w v.n e B k k e k < f < e w w h 2 w n V k 0 0 w n e 6 e B V n h A e w n k 6 2 e A V e V V n A 0 B 6 n V k k e A n n n n n n h e A V V B k w e k A t w k V n k f q.n k k k n V e B w k k V A e n V A n e V V k e k 6 f e e e 2 e k k k k k h n A A A V k h n A A n V V k e e e e n A A k k V A n w e k k k f n V V A k r.n A w e k k k n e 6 6 e +.V n k n n n n n n n n k k k k n n n V n w 6 6 w n V n n N n e n Z N w n 2 r.B A A % F V n V C k k n n k q k  .A V 6 e w m.+.A r.n r.B V r.k A n V V k w e n V A n n V V q.r.n G.+.+.o.n n A n V +.o.k w e A m.A n n A A n k B m.r.+.V n k n V +.V 2 B V +.h o.V A V n V +.r.+.+.N r.r.w m.n r.+.V m.+.+.r.+.J.",
"@.B k  .A k V b.o.A r.h B n o.0 n A A n h h e e A V V o.V k e k  .V @.k B @.k @.V k @.@.V B e A T.w B w +.6 V k +.2 V r.V V k 6 e A J.+.+.h n +.A B A.h B B C A q.k r.k o.A B V n A A V V B n A k B V B n B n k 0 k n n n V V k n n A w V n A h A J.A V A V V w A e o.e B e q k n n V A B k k B V n n V +.r.+.V n k h k n n B V V B k A n h V 6 n w V n e V n n V B B n n k e 6 o.o.B h k V V k V A +.V n k e 0 w 6 e h e k B k B w w 2 6 n e n n B e 6 k V V A e 2 k n B A h V k k n n k k n V k n k w w e h e k n k q w e k k w k k w w k k w w q e e h k k k e k w A e k 2 0 n B V n k q w w w w e e e w w h V V V n e w w e w w e k k q w e k n e 0 0 e n n 6 k k t +.e +.w k N * C k t n n 6 0 w e e e e f 6 w 6 w 0 k w 2 k e n k k k 6 6 w k k e w w w 6 w < * * * w e 2 e * 6 B n n +.m.k h k n f 6 6 e k e e n V n k e e e 0 6 6 q f n w w * w k h 0 B w w 6 2 6 e e 6 7 6 n B 6 e 7 e 6 6 h k e n 6 h ",
"h q e B B f h A B h B 0 w w n < e k n e w w w 6 k n n h e h e 6 f f V q 0 A V f 0 < B @.V f 2 V V * e 6 A 6 B f G.e A +.n V V n 6 k e n V B 6 6 h e v.h n e e e n w V e n k w w w k B k w n n 6 0 e k k k B V B k k e w q e w 6 e w n w n 6 k e n n w e w w k O n 6 V w k 6 2 6 n k e e e w e h 0 h n n n A V e 6 e w 6 e V A n V A V q.V k A e n k o.k e @.A n n n n B B n e w A o.n 0 h v.t.n h q.L.*.B B B x k n A +.n n A A @.A A w e A B V n V k 0 h k k n k w V V V V e n n n n n n n n B V V V n V A B h A o.A V B A @.r.V A A n V +.A n B n n V A +.A B B A V m.A +.V A n A +.A A r.r.o.k n +.@.A n n A  .+.+.A n B o.r.A A A A V n k V B n k e k A 2.r.e n n V J.F 0.w n +.n +.B V A Z V o.+.o.r.J.m. .A +.m.o.q.A A n V o.V  .+.V A k V A o.V V V B k A k e e e A +.n r.e k r.o.k B q.m.A A J.J.A n A A A B n A +.A n h e e n A +.+.A A A +.A m.n V v.V N n n A r.2.A V V +.+.A n r.V V A V r.n J.n o.",
"e q f B V B B  .k e n k h n B e k n n k h k k h k n k e k n k w k q B B f  .@.f f 0 B V B k 0 B 6 6 A e V B  .2 A k r.o.0 w k  .A +.e A A G.n V C n m.n A n B A n k B k n n k k k e B A k A o.0 e h e e k A  .A A A n k e e e w k w n k o.e n V n k e n w e V < n 6 V e A n e e V k e k n n k k e V A B n A A n k n k n V A V n n n k A n e n 6 e 6 k w 0 V n w 0 w e k n n k e x h 5 4 w C C x v $.t.$.C B B n 6 6 e k 6 6 e e k n A w 0 n 6 * 6 k k e h e 6 6 w 6 k q 0 w * 6 e k n k k k k e f e w w e n e 6 e k k e f n B n k k e w e n k w 0 0 w e h k e w e e e n k k n V 2 w e 2 6 n n e e e k V n w w k e e e w 6 w n A k k k f e 6 6 e 6 6 0 w e t t e e e 0 6 t e e * - t k k 0 w t k 6 h k w e B n w k e B 2 w % e e w k % 6 0 < n w k k e 6 0 e k e 0 * * * 2 e n 6 k 2 6 n e 0 e n e 6 6 e h w w k A o.B w w k n k 6 6 w k V V n q w w k 6 n 2 q n w w w w e e e e t e w 6 e $ F e k k < e O A 2 k ",
"k k k k B B V V h w h A B C V n k n k h k B V B A k e n n k e e V q h q. .A @.n B n A f f V q 0 w e A k n k n * 0 w r.+.h w 2 e w +.B A w k e m.q.h C 6 n B o.A.V V n B k n V V k 2 e +.A A  .k n e 6 2 e B V k n n n k k k n B e * 6 w A e k n A V V +.k k @.e V 6 n e r.A n e e e e V A V k e h V A n k n B n B e e V A k w e r.o.B r.+.A +.w A 7 n V B A V A n B V +.r.r.r.q.A v x C =.*.;.G.M.C x C C e w w n e k n n A r.o.+.r.T. .A m.V e e V A V q.q.A +.V n A n k A n o. .r.r.+.+.r.q.A A A V B A r.+.V V A +. .+.r.+.A  .V n k n A A n n V A A A A A A A n V V A V +.v.A +.V w w n n w A n n V V k k V q.r.+.V n n V +.n n n V V V A r.A A Z +.+.A n t 2.2.+.A V F A V n A m.A V A F 0.n +.+.n k A +.n V n A w k 2 B V +.m.k V A n v.A V V n h k V A A n e k n n A A e o.V o.A B A +.V k A A n h B A A n A A h w h n k V n k n A o.A n n n V e m.V r.b.2.2.0.A n e e k +.F V n A w T.A V A e B < m.e A ",
"V B k e f k B k B e h q.B V n k k k h e k n B n q.n h n B n e w V q 2 V  .h B f e f V q n b.n 2 e * 6 h e 6 h n A n A n B A w e 6 n h k w w 2 k e * n w A n h n h V 0 n w e n n o.h n r.+.n k k V k 6 6 e V V k k k k n k e e k e % 2 < n w k e V A n V h 0 n w A 6 k 6 A V k w 6 6 w n V n e q e k n k e w e k n 6 6 V o.h 6 e k w < e e w h % k O 6 e w e 0 k w 0 0 w w e q w e < 6 n n 0 e o.G.h 0 B o.x w n A e w e h V A k V n A e e V h k 6 e 6 * 0 e e n k e n 6 * w 6 e q k h w e n k w e e w 0 e k k e w e e e h n k e k e 0 0 w e e e q h k k e e k n k 0 e w n e k k V n e 2 2 e w 2 e 2 % 6 w 6 6 k n n k h q q e k w 0 w e e w e n n e e k n n k k 7 t N B 7 B 7 k k w A e n k n V k V V e w h k k q 0 e e k w e e V V n V B h k 0 6 w e e e k h e k e k n n n k * n B B e 2 e k 2 6 A r.k 6 e h w k V +.+.A A V n e 6 * * 2 w e k V n k w A B n n +.A C B e 7 w t k t n N V t F k w h e n 6 +.w e ",
"o.o.V h k  . .V r.V n G.V Z B A n V V B V A V k +.o.B k V @.A e  .o.6 f  .B A n B n o.V q.T.@.V n 6 e V k k o.m.m.A V w k A k m r.+.A B J.m.+.V w 6 r.o.G.V e w k q.e +.h k V B v.m.r.r.v.A n B B V V B V +.q.o.A V V o.o.B k k A k B e A n  .V A q.k n m w h e m.k A e +.V B V k h n A A V B B n k n A V h k A A n k A q.+.V V q.o.n +.A V r.n @.n r.r.+.m.r.G.+.A V n n n n n +.A A q.+.A r.T.n e e V A n n o.J.o.A A A o.A k v.A +.n k V k A  .+.n e B A A o.m.r.J.V k A n A A @.+.V A r.v.A n B V n n B n f n n n k n A A V V B V A V V B B B B n n n n V V A k V n m.V V k A B k k V A A n B e w n n e k +.V V B V V V n n B n B V B k n V B e e n A Z Z +.w k A A e 2.e A 2.w F k +.A N +.B n n n k n k k e w w V V V e q n h B n n n 6 6 n A +.o.A A A V n k B A V A V 6 k e k k e V r.o.6 V +.V e e k n e q e n V n k e k h h k n B V A B A k n B V 0 w 0.N n n N B V F k w n C t A k k w k A n h +.k k ",
"q e 0 < 0 k B k A e < A 0 e w n 6 w e e e e 6 % 2 e 6 & 6 A V % B b.< % f f B f @.k V n n B q k w k n h 2 e n 0 e n A f e h 2 e e e k * n w n V n 0 Z e h 6 6 h w  .6 o.e w h e * n h 6 k n e f O 2 e e w e k k e 6 6 n A V k e n k B 6 h 0 n k e n * 2 k 6 2 6 V 6 n 2 e w e V e w w e e w e n 6 * 6 n n 6 6 k k e w 6 e n n w e e 0 f w 6 n w e e  .k w A A B k e 6 2 2 6 6 6 n n k e e k V V 6 e n n e w e k k w w f e h k 6 q.n V k w w 2 e 6 w 2 2 k B k k w e V w 6 k w k k n k w e V A k e n V B n k e 6 k k w 6 w n V B w e k B n h e e k e 6 6 w e e e k 6 k e r.h e % V h w k V n e w k 0 w k e * 6 V V n k k k e 6 % w w e n n n n A k 7 7 t n e w 7 e t n n 6 +.w A F * e 2 V k w B A n k V o.A n k k e * V k A w w V e A h k +.h A B A A k e e n V h e k V V +.A e r.k e e 2 * 6 w 0 e n V n n A G.m.n w k A V n B * 0 n A A B k e 2 n e A B +.e k J.V e k V A V A V w n N 6 2.e V e k o.e e A V V ",
"B L.V 6 k k 0 A B B B n f f V b.V 0.r.A B Z q.q.q.e A B A 0.w n B V m.V q.n Z B B A B e +.A L.V v.w k r.w m.o.C  .@.q.A V A A A V w A v.k V J.+.L.0.r.v.B e n V 0.v.r.A A r.q.B +.n n A r.+.A A 0 k V V k k n n h V A n n +.+.A h k n k V +.+.o.k n B A A V k e k n n n n V q.J.k n k o.V m.q +.A n n A V e k A V n h h n V A A A +.r.r.A V B V A +.k A r.+.r.k n V A V n k e 6 +.V e B r.+.A m.e k n n n V V B n +.r. .k n V  .A n w 0 k A A V J.o.n n n k e k k n A A B k V r.k e e n A A A +.n n A +.n T.n q.A w r.e +.+.A +.n h n n e n +.+.o.k f A r.V e w k k n V V B n n e h w n e e r.A V V n V r.0 b.J.k k n +.r.V h e n n k e e w e e k e k A +.A n e V A A V n n A +.A A A A r.J.m.A B A B r.e o.B h V k e k  .m.V 2 n 6 6 n  .V n n 6 B V B Z n n L.6 0 e h h h n V o.A n e 0 6 w e n k n A +.A A q.A h n n w n +.n V V n B V h e A C n k n e * * e w e e V n e A e e e 2 n n 6 e e e n V e 2.m m t ",
"0 o.k 2 f 0 % 0  .k q q q q q q * 0 n k e h e e V e n n B n 0 w 0 0 n n V e e e h n k e A e A w B < e n 0 n e 0 k B n k e e k h 6 % e B 6 e V q B w w e 6 6 e w e n n e e n k 0 k 0 2 6 e e h n n V V n h k n V q n B k k V n e 6 w e w e k n k w w w e k n k k k e w 6 6 w f n k B k k w V * k k w w k h 0 e V +.n w 0 e e w 6 k k n B B n k e k B w h n n A e w e e e k n h 0 n k w k +.V h V e n V n k k h w q f k k f q f k h w 2 2 w h e 6 V e 6 0 w 0 w e e e e e w 0 e n B f e k k e w w k e k n w A w V n 6 A e A V n n n h k k 0 e A A k w w n n e w e 0 w k n n h w 6 V n e n k e A e A o.n w n 6 r.V e h n A n e 0 e A V n n B V V n h w 0 h n n e q k k n k e e n V A A n e h V o.A V n n B w B n w n k e e B A k < A n n V V f e n e A o.Z Z B n A 6 e n V B n k n k n n k e e n V B k k V A V V V r.B B k 2 0 e * e k e k n e w B N n n C n e e n k n t A n t Z k B V k A A w n V n V A e m.Z F A ",
"@.L. .f V  .A L. .B k B V B k k e B 0.r.q.r.q.o.A o.V 0.o.n B h e e n r.+.A h k n B V A v.e A h q.B G.r.m.q.B A +.r.r.A A  .+.A A k +.J.+.m.T.A o.n n k h A q.C n A A V A 0.o.n A B k k n n B A V B n n k k k k V o.o.A A +.V e e n A V n V V V k h h n A  .A V B k e e n A A V A +.A e w V w n V k k V B k V +.q.B e e n V n e n n n A +.+.V k n A h n n n +.V h e e e B o.A k n n k V r.V e n n +.m.r.A V B n B f h V A B n V V n n n V V n h V k e e e h n V A n k n n n B A A B n V V V V A +.n k n e n w A V k +.n o.A n n +.V V B e n A A k k n V k w e V e n A q.@.A n e A V e V n k V 6 V A n 2 n n J.V V A +.o.n e e n V k e k V A V n A k e k V V B B k k k k e f n A V V n w 6 e B A A h n e e h B 0 B k f e f k e 6 B n n n h 0 e A n B o.Z B V n 2 0 e B A V n e w 6 e e e w e k V A n k n V n n n A n n n k A q.V e e e k B e w V w w e e e e e e e e 6 e 7 6 N e w e 0 k w & 6 e w e k - B t M n ",
"k n 2 % q f q k < 0 h n f 0 q B 6 0 e e e h n n e A e A B 0 n w h e 0 r.V A 0 e 0 0 e n q.0 B n w 6 A e A e 0 h 0 q e w w e e w e 2 e n k V A e e w w 6 6 n C e 6 0 0 6 0 h h w k k n n h e w e k k n A o.V k e B B n k n V k 6 0 k V V n B V V f e e n V B e 6 f w 6 w n A n f w n k * 2 V e n n h e k k h n V n f w q n V V n e e k V A V k e 6 k 0 e e w B h e e e w e n n e w h h n A k w e w n +.A n n n n n 0 0 B  .k f k A V V A o.A V B A n e e e f n V n h e k n k n B n k e e k n A +.o.k e k e e w n k f n h n n k k n h k n e h n k e h n n w 2 6 h w k V A  .A n e o.A n @.+.A r.n k k k 2 h e +.V n B V V k e e k B n n n V A V V V e w e n n n n A A A V n n A q.A A o.A V V A A v.B o.n +.A v.n @.A B n B V V B A V V V n k A G.o.A q.+.B q.o.* V  .q.+.+.o.V n +.+.o.A A A +.r.A A V B n n n V A n k e e k h 6 A A B A +.V B v.A A A N N A V n A A n C n n J.+.A +.V o.V w n B n V +.e r.Z 8.2.",
"V V B @.b.@.f < h B @.r.o.B V @.n B V A A A A o.w V e B n 0 B e k h 6 A n A e B w 0 e n +.0 A V n h r.n v.V V r.B A A V A +.+.A B h h n V o.o.B o.0.v.q.A v.G.A A C B n V +.r.r.V A +.o.A V V V k h n +.r.+.V n V n h e k n k w 6 h V B n V A A n k h k n n e 6 A k 6 6 e k h w w k B < w V e e n k e k k h k k A V n n n n n n e k B V n k e e 2 e w e e w n e k n B k h n B V h B n V o.V k V 6 k V n f f n n B q 0 V  .B h B V n n V V n n A A A n k k n A +.0 w k B n e k n o.V k w 0 e n V o.V n V V e n n n B h n k n A A n k V A V V A n k k B V n e w e h B A V V A V k 6 w 0 n e w V e +.n +.n A w n +.V V A A A A V n 6 w e e w w w e V k e n V V B n w e q 0 2 2 6 w q w e k n k e w B 0 n w C n o.0 B q 2 2 q h h f A n k e e w h n k w h e 0 B B & V V n h e n n k V k w 6 w e q w n A A V k k B A V V k w f k q 6 n k w e k e w V k k e 0 7 e e 7 e w 6 e 0 7 A n B V e n k 0 k w 0 e n 0 A p N M ",
"e 0 f V @.V f 2 0 2 6 f B B k k k n B Z Z B n n B Z B B B B A n k n e B n o.Z 0.V B B B r.h q.A e 6 B e n n n A e k k k n V n k e w 6 w k n n k n n A A n n B e n e 0 0 e n C A w e e 6 6 e k B n e w n V n n A o.V n n n B B n w k V B B V A A +.A n n n n V V m.A e w e V o.q.+.A q.w A A e 0 n n n n n n n k V V V n k k k n k V A A B k k n w B k B m k A k k V o.V n V A +.k A A V A V n o.n A +.V n n B B B k k  .o.V V o.n k k B k e k A n n n k k B A o.h n A r.+.V V A +.+.V e w f B V V A V V o.e A k n o.e V k V q.v.V n A r.+.q.r.A k k n V V n k k V +.+.V V A A n A A V q.V n m. .o.e q.B A w k r.V V V V A +.o.V V +.r.r.o.V A o.V k h n A A B n o.+.q.+.V n B V @.A V A +.o.A  .q.A r.q.m.A.F.A r.V f n  .@.r.r.r.+.A A +.r.r.r.A C A V V r.r.B m.m.+.V V r.m.r.+.A n n n V V B k V A V k k B V B A k e A +.V V m.r.V A r.A A m.A C V V N V A A V V k A n n r.C V A k V V k V e e B +.k 2.N Z Z ",
"k q f B k k A o.k e f B o.@.o.o.B n B o.o.C B C A n B e e B h e e n B w k B o.C n B n e A e A w B 6 n A w B n n n n n k n n k e k n k k A A n V B e h V n n n e k e 0 w e n V A B V B k k A +.+.B e w k k e e n n k e e q w w w h n n h e k k e k k k k e e h k k h e e e n A +.+.k n * V k 2 * w e e h k k e 0 6 6 6 6 w e e h f k k k h e e e w k w e k e B e w k n k e k n n 6 k k e h w 6 e e n V n k f e w 2 q f k k k V o.h e k n e 6 w V 6 e e 6 6 w e e k k n V V n k k e k k w 6 e k k e V n 0 k 2 B < w B 2 n 6 e V A k w h n k B V k 6 w e w 0 7 0 w e n n e e n n e n k 0 e 6 6 n w e * n < e w w n w h e w w k n k 6 q k k e w 0 w h 0 6 e n k e e h n B n k e w e n e e e e 6 w k h e e n 0 n n 0 q 2 < 2 0 q f B 6 6 6 w h n n n 6 w 0 0 e e w h 0 e w 2 6 k n e k n n n n k n n n V V n n V V k A +.k w V n 6 0 k e w e V k e n e e k V n e e n n n t N t w V w 2 e 6 e e 6 e 2 6 w k * n 7 t t ",
"B B @.r.k 0 h B n B  .V k q h V A n e k n n B o.F.Z r.h n v.n B 0.G.!.B 0.o.L.o.B A C h 0.B r.w q.e C G.0 Z n h +.+.o.A A A B h e B n V +.o.n V v.n n +.q.q.0.A C B n B A o.0.r.k B V n n V n e A n n o.A h e k B n m B k e e e m.m.r.A A A V n e B +.r.+.n h e w k A +.A n n k r.e k 2 r.A e e k n V A +.+.A n A n n n A o.A V A V n B A A V n V  .k n B n +.n o.+.+.+.+.q.+.A e A +.A A n e n n A +.o. .A B h 6 k V V B  .b.T.r.r.G.T.r.B A J.V +.+.V n V V B A n n V A B k e B o.+.V n B B n A J.r.k o.k m.e n m.e v.n A v.v.+.n B V B A q.A n A A n e e k n e n V n V r.r.A L.r.n V V V m.A J.o.T.e V q.A A n A A n e n o.+.B V A  .+.A V n r.A n A q.r.+.+.V +.r.r.+.A V A @.r.m.m.+.n V q.Z o.B +.w Z V n B k k n k k V r.A +.r.@.q.q.+.A V r.+.o.m.Z B A.h V V n A m.r.V e V r.r.A n V A o.A V B A q.A e h A f e m.J.+.r.A A V r.T.v.o.m.n k A m.2.k e C +.0.F m.A n A e h +.o.r.+.n +.V k V A 0 N t N Z ",
"n B V B k e w e e C n A 0 n 0 0 n n n V k w w k B w 0 e w e n n n w 6 0 n o.+.A q.h e B n 6 0 V e k k e h B V B V e 0 h n e e k e n n n C 0.V w B h 0 o.n n 6 n 0 h e 0 w B B e q.n w w f e w w e 2 6 n n 6 2 e k f 2 e k 0 k k h A 0 0 h w e 0 w e n n e 0 w n k A k q k k q t m r 2 2 2 7 e l 2 6 k A B w q B n e n V k e k k n n C B n A A 0 6 h e e e 0 2 w e 2 7 k k 7 e m k t q 3 e m m k 6 n q.A w 2 e A n * e r.V e k e V w 0 k V n e k A n e e k k w - 2 w k e w w e e w e f k e w k V M e 7 e t e k C w V V 2 * e k 6 w w V n 6 h V 6 k e e h e w e n 6 k e 6 n +.A n n V w % e 6 +.6 e n * V k & B 0 0 k e w 2 e V 2 k k h e h k e 6 e w 7 w 7 6 e B e A A N A N e e e e n N n e w w n k h h k k k h 0 e k e w w e e 0 w e e t n n k V n e 6 0 k V A e n n * 2 k e B k t 7 w n n A J.e V t n N n A e A 6 k n k N n F F n k N Z A N n F k A r.n e n e n t k n 7 0.6 n r.k k w n 6 t n n t k V A A N N ",
"B A A C n k h h B o.n A e A n V L.V e h V A V n A V n n V n n V A B k h n C Z o.L.q.+.v.q.B A G.e h h e e n n n o.C o.G.m.C k n o.o.A A +.r.q.A A B n A n n n o.o.o.A B B C B n k A V k n r.J.r.V k n q.r.V V +.r.r.V +.+.k V n C v.n B +.Z r.+.q.q.r.r.o.B B A k +.+.V +.V t r V k e t k m m m r. .+.r.A k n +.n n r.J.r.@.r.A q.A +.q.V B A V q.v.o.V Z A A r.+.V A @.@.V m A l m V V +.+.m e k A +.o.n k V r.C t N r.F N n n 0.N B +.2.V k n m.+.C N V A F F A r.v.+.A A A V V V A  .A B V +.F Z A A B k n V V q.+.k e V A n n n +.A k +.J.V A V B B n k B o.n +.A B 0.v.o.A A r.V e V h r.e +.r.k r.A w r.k +.e k m.+.f n A r.h h q.+.w w +.+.Z F +.A B N Z 0 n n k V C k k F +.r.m.r.A V A o.A V V A A A V w n V V V A @.r.A F A n t N +.r.k V A B k k k k A r.r.e e k 6 w * e N V N e n J.N 0.V A F C 2.N r.e N B e e 6 e e w w k V n t e n e n A n e t t n e e k w 0.7 k r.n C n Z 7 e w 2 6 w n A A n n ",
"k n n n h e w w 0 h 0 0 * w 0 e +.e * 2 h n e 6 e k 0 6 k w * w n B n h e h V o.n n n h w 6 e n n n n h h B B n k n A r.+.n w e B h e e e h n A n n B e e 0 n A n h e k h e e k < A A 2 < V +.k w 0 0 e w 6 6 0 0 w 2 e e 2 w 2 6 n 2 6 e e B n n n n n k w 0 w 2 k k e k k 2 2 k 2 * 2 w e e k V n k k e 6 6 h 6 w n n w e e * A e h B 0 < 0 n 0 e 6 * 6 2 < 0 k 7 6 k k 7 2 2 k e 7 2 2 7 w 2 6 6 6 6 6 w e k 0 e 7 7 e w * * N n B Z A e 6 0 7 0 6 6 6 6 w e w h k e w w 6 2 w w e n B n B V M A A n e e w w n n k e e k k e 2 2 w w 6 k A k V k e e w 6 e n e n h k A C h k n V n w k 0 n 6 n V 6 k e 6 A 6 e e V V e k k q k n n k e e e n n t t t e 7 w e e B n k Z +.V V n n n V N k k n n n k k k n k k 2 w k k e k n k V A V e 6 w n C e V +.A n k k h A r.m.n B A 0 e 2 n Z F Z n m A.t C k n n k C t +.e V V t k w k k t n A F V n k k N B V Z V n A A n t n n m.n n A t V B r.n A V A V A +.r.Z V V ",
"o.+.+.+.Z A V B n B B B h n n n V A o.+.A V V A n +.k e +.n 6 V +.q.q.0.o.r.F.!.Z r.v.o.B V 0.v.A o.Z V V A o.A A B V o.+.Z A o.+.B n V B n A A.A A m.n o.n q.o.o.A o.r.o.n V A.k J.J.k w V A e A A A A A A A A V A k A +.A r.A C m.B B o.A q.0.+.A A q.v.q.o.o.k A V n A A m V +.m k k k n o.m.n k n A A B n V o.q.r.V f V A e r.B V Z n n V A n +.0.o.+.V n A V k k V A A n n b.r.A n n V o.+.B n n B A o.o.A B r.A k F +.n n V N A 0.A k e k B V C Z F A V n V A A V V A V k w w e n V B n B N Z A n n V V e A n h n V n k k V A r.+.A r.J.J.+.A V V n h k V h n h V v.+.B A B A V k k e k e e k 6 w w k r.w e n r.n e V V k n q.q.n k A o.n A V n n n B A 0.B V k k Z +.V A n t t n k k n A V B n n n B n n 6 k B n k k k k B A Z V n n k t e k n e w e k k 6 w n e n A h B e k w w n B n Z e A n C V k V e n 6 n B t n k B n n B A A n e e 7 n e e A n e C n k t n n A B N e 6 w 6 N e A A A n t e w 6 6 6 ",
"h h h h h e w 0 0 e h 0 w e n k 6 k A V e w e n w n 6 2 B e < n e w 0 w e n B V e B A h w e B A w e w 6 6 0 w 0 e 6 < 6 e n n h n e e n h 0 h A 0 0 n 6 n 0 e 2 C B A +.n < 0 A w k k w w k k e e e e h k n V V n V w e h e V k e A w w h w k h e w w n B B n h w k e 0 e e w e k f e e w 0 h V w w q f k k k n w e k w 6 k B 6 n h n n k A A e < n B n h 6 6 h e 6 2 6 e e e e w q f k k e w 0 6 6 6 w w e w w - k 7 * e k 6 2 n n N N n e k B k e e n V V k w h k k k k n k e k e k n n k e e N N p w t A V e A k e n A V n n w V +.A n k n A q.+.q.r.+.V V A k n n A A.q.A o.V V n k w k e k n k e e e V v.k r.6 B +.B k e r.r.n k +.+.n n o.n n n n B C A A n n w e V A n V A n k k e t N +.V B n n n B n n 6 k V V V V A A N A C V A A n e +.+.V k n A o.A e k A n q.J.+.L.F F n k A 0.+.m.6 N n A V k n w m.A J.m.F 2.F 0.A A A +.Z N n n k A n k +.Z B F A +.r.2.2.F m.m.2.V A n +.n A A C N N A C n n V ",
"+.o.o.+.q.+.Z A B B A e V A G.G.n V V n n V A A B A n k +.A k +.A B n B A o.A B n B C n h n A o.A o.Z V V A o.A q.C n A r.v.o.n C C A o.Z A A q.A V +.o.m.o.Z B o.A q.v.A h B A.n k n A +.+.+.+.A B n B n k k n n V w e h k +.V h 0.n B A B A C B n n A o.A n n n o.A B A B w 0 n B A +.A n n B m.r.+.V n V +.v.k n A A V o.A e A A o.o.q.R.R.B e C C n e 0 w C A B k k n B B B n n B V B k n B B B B B B V V V e n t e B A n e e e e w 7 7 e k Z n e t V F A V A +.o.V V A A V w w e k n k k n N p 7 6 7 h e 0 V k e k B B n n k r.m.+.o.n k o.n n V A A n k n e k e h A V h h n e e e 6 n 6 k B h h k e n A k A * k e 0 k 6 V n k k k B V k f - 0 e t k k w * n n e e A A N F Z N k e w 7 e N n k h h k k k h 6 k n n k n n n A V k e n C V t e e 6 2 0 e 6 * e w e 6 e k 6 k 2 k n w w w e V 6 V V F A n V e n 7 N k 6 e w e 6 2 6 w e w 6 6 6 e 0 6 e t e e 0 k n k k 2 B n t e n e V w e 2 w e n A A n e t ",
"B B B B C V B n 0 w n 0 n h A B 6 w 0 6 6 e k e e w w k n k e f B n n B C B k e k h h h h h B A e e e 0 0 e h e A B n B A A n 0 0 e h e e h h e B n n o.C C B q.w 6 0 e k h n C e w e k n k e e o.n k n k 2 < 0 e n 0 w e k o.n e +.B C o.B A V n n B A A n h h w n h 0 e w < < h e e h n h w 0 A V n w 2 6 k V A n A +.A A V e e 6 e n n A A e A q.o.A A V B o.C B B n n n B n A C B B x e n 0.r.A V n V  .+.+.V k n C A +.Z k A A V n k n B N A n e e k n N n n V V k k n A A k k B A A A +.m.F A N N n n n V A A B n V  . .A n +.A n A n e A n n V A A B B A n o.V n A o.B h V k n V k m.e A +.k V A B A A A A w +.q w v.n n e r.v.n n m.r.e n A F F +.+.V e N N n B F V B 0.+.A C V n k n C A V B B V V V B n A o.V n B V V 2.+.N k n A +.A o.o.A V A o.A n v.+.q.V +.+.h A n r.m.F F A A m.e +.F r.0.C r.A Z n r.Z k A A 0.A N V 2.m.r.A C A C Z Z A m.J.+.A r.r.+.m.k J.2.B n r.A F.0.r.A A F 2.m.r.C N V ",
"n n n n B B n h e n A.Z G.V A e 2 n A V n n V V n h B +.A A V k A A o.0.q.o.B n B h e n n n B +.n B n k k B V B o.A C B V C B k w n n e h B B e A B e 0.h V A !.A n e h V A V n k n V V V V V n n w w V B 0 0 n A r.n n n n A e e +.B A Z n B n h e n B B h e e A *.B e n B B A G.A h n A o.A A e n B k w e n A V e e V B A +.+.k 6 e A V n V C n B n B +.A e e e h n h h h x h e h A o.A e w h r.V e w k A +.+.A e n +.C Z F e A A n k e t e e V V N B n k t e w k k e w k A r.n n n n e 0 w n n p N A n w e A e e w 6 6 h k f k V e w A V e V e e h n n k k V k o.B e B o.B e f 6 w n e v.6 k n 6 k V n n n A m.% n V V A 6 A e k B A V k f n t t e 6 0 t e 0 V A B N A k e C e e k B n t t n k h e e e h e e 6 e n k k B A o.t k t 7 0 e e e k k k w w k B V k e k e n B 6 k e t 6 * e k e w * e 7 e 7 6 k w N e A t 2 e e t e 7 w n A n w 2 6 * 6 7 2 t V 0 e n t e V * A w 6 * w * e w k w n k e e w 7 e m ",
"A B 6 V n q.B A A n n o.+.w F.B B B < 6 e < 0 h 2 e e e n q.r.A e A +.q.V e h h V k n 6 B q.v.* e v.v.k A h v.q.V A h 0 e e n q.n 6 C e n 6 e q.+.n n A o.B B A n B o.0 h e o.C B e B V h C 0.k 6 V A A m.A n m.C n 0 e Z C 7 0 e t N F k @.q z n B R.T.A A n V B B e B h B v.& o.e e * n e C B B C 0.+.n V F C o.r.o.n h B C n r.n h n V n n B f +.+.k k n V o.r.N t n n t e n n A k t m.R.2.e n A o.e h V w h n 0.B o.v.B B n Z n r.2 A 6 A e 0.t e J.B 2.+.0.B n C 0.0.r.Z w F F 0.r.r.0.r.J.B n C Z B C Z B h A A A o.C k C m./ Z Z +.A V V v.r.A B o.Z +.L.o.A o.G.q.R.B C B r.r.+.v.r.A A A A A t.t.q.v.L.q.A q.!.!.o.n C B +.r.+.o.q.0.A n A +.A V A F A Z /.0.H.A r.V.n B A B A n n r.n +.k V n B V e n +.+.r.m.r.A A +.r.A n n n k B Z A Z +.C n n A q.B A Z B n C +.q.A n n B B n B o.B V q.r.n n A V n 2.J.r.A A F A B +.N n A t 6 n 0 r.e Z F 0.C Z w m.2.+.e r.A n B n N N n n N Z e n r.N n A k t ",
"n e 6 n n A h e 0 e A n B 0 C 6 0 B h A r.B B n e n e 6 w V +.A n n k V o.A A n B 0 B B C w A A n k e e o.< h B e e 0 k v.v.B B B 0 A h C h B v.e e n +.o.n n A o.C Z e V h V h 6 6 e e 0 w w < 6 n k k V e 6 n C n e k Z C e e 6 6 w k 6 V 0 B B k r.A h B V +.n B e n 6 6 B & k e h h A n n e n n B n 0 e B n n B B k e h k h e e e n V n e w 0 k q 6 e h k V B t w w w 7 7 w w n e 7 n V e 6 n C o.e e k 0 B 6 n 6 e B e n n N B n w w e t e e 2 w e k e n t w 6 0 7 w n B 7 t w 0 w w e n C e w n V n n n w 6 e q 0 h j k  .e 9 e n k w 6 < B B e e n e e B w 6 6 k n J.n V < h h e h e 6 0 e 0 0 e w 0 e n h e e h x e 0 6 6 0 0 6 6 e k e e k t w 7 e t e w x 0 n w 8 w w h h 0 e w e C 6 0 2 e e e h 6 k w e k V n e w w e w w k k e n C 0.A n n V V n e w h n h e n n n w 0 0 e e w e n e 0 k n e e h 6 e V Z V n n V N N C N N C n e B - B 6 t w e 7 0 - 7 w t 7 e w e n n t e e t t e w w V e w t 6 7 ",
"o.B A Z A.o.A B o.r.G.< w n o.q.h o.e w k n q.G.e e w 6 0 V 0.o.0.A A A o.+.A B n 6 n B B 6 C r.v.+.n C R.B A C e B B C A B B r.o.e Z k o.B C r.h n o.r.Z n V v.+.n B h r.V A n n r.v.q.q.Z B B V A n n A n e B V N e k C B k B n t k n w  .n r.A k +.A k A A r.A A B C e 6 B e e n B v.m.L.q.o.0.Z 0.A n C r.0.B C +.q.Z B A 0.n A o.o.+.+.A n V V k k A A V r.V A A B n n n n e V V B A N n Z A A q.B n n w q.e A h B 0.A q.q.A r.t A 6 F k C n B 0.e r.N +.A 0.A Z Z C r.J.0.F A C +.r.r.r.A.V n C 0.Z Z C e f B k h C V  .v.0./ 8.m.r.Z C A 0.r.0.q.G.q.A r.A.A n o.+./.r.A.n q.r.Z o.A C +.v.q.+.o.A A o.v.A q.+.A Z v.r.V B B B B A v.m.r.m.r.+.A A 2.r.r.0.e A r.H.C M F.A V e n n B q.h n k +.A B n e B n n B  .+.A V V n B Z 0.0.A A F v.0.Z o.r.r.Z B h n V V A Z V n h h n n n k n B n e k A A A V w B A F A A A F A B k B C n n V C B 0.n 0.e V A n N 7 t V F e k A n N k e k V V e n e N n n V k Z ",
"e 0 B e A 0 h e * e m.w o.A 6 w & n e h n e h e 6 0 w 0 e n n e n B q.A k h e B B 0 e 2 k n +.e h A n 6 o.n A 6 0 n V B e 2 e v.A 0 n 6 n e w e A A A V e 0 n r.C 0 e e o.k B n < B B e k 0 * w f w 2 6 e w w e e n w w e e e B t e w w % k 2 B w * k h w k w 6 B B B A n e n V * 0 2 n e +.n B k e B n e n A B h h B A n w e A h n k 6 2 e h e n k 6 w k e w V 7 k n w 6 w w 6 6 e e e e 6 7 V e w k w e 6 % n 6 B e k C k n e e n * e o e 2 w 2 B V 2 n k k n k e n n w e e 6 2 0 k C C n n B e 0 e n n n n 6 0 h f e k h 0 f M n p n e e n A w h e k V n e n +.n e h w +.e n 6 B B e e w e n V m n k k h k n 2 e n k k n k e 0 0 0 e n A V n k e 0 0 w k k e C * C n 0.e w 0.A B e B n n 0.n B e V n k n w n V h w e n V A q.C C C C C B n e e n B V n n B A h k n n C A B e h h n n h e w w k w k V B V B w e k n n n n n k A e B Z k n +.C e k 0 C 6 n Z e 2.e n k +.6 k V 6 e e 6 7 n B e N 7 t t k n e +.",
"h e 0.B o.e +.v.h h J.o.`.R.n o.h A.r.v.A.Z 0.o.Z o.0.+.0.+.A n n B L.r.Z q.V m.R.o.+.n v.G.R.V k q.Z h r.V r.n n B V r.L.r.A r.G.n o.h +.A B n T.J.v.o.V B o.A.m.C +.A m.B q.v.e r.0.B C n h o. .n k n V V A A A r.Z C Z Z F A.m.2.0.2.k r.n @.A h @.q.o.v.V n q.o.+.q.r.0.A 0.n Z n Z k r.A A n B 0.r.0.r.A.Z q.0.r.m.+.B A G.V  .V e w n A A o.A n B A n n v.B +.+.N k N N n F 2.A C A n t A q.A +.o.v.q.h 0.n r.B B o.V Z V V A k t q n n N w m.C k k +.n A Z C Z Z n B B w 7 n F m.2.A A 2.+.V Z r.0.r.r.Z V @. . .q.@.V  .Z N N N B B Z v.A o.A Z r.Z B 0.o.A A o.n m.B r.n q.q.C V B B +.V A  .A A V V V w k A +.V k V r.A n h n A 0.0.o.n n n C Z Z C C r.t F.V r.Z B 0.B V n A k e o.B n 6 e w k A n A k 0 2 6 e k n V Z B e w e n k w w e n n n n C o.n n n n V o.C h h n B B n h e w k e n B h k V k e t n N B k e w 0.n A 0.n B 0.Z n B w F w C m.V +.n V 7 V w B n 7 n n e e n V V r.k n n k k w V ",
"6 6 h e k e A r.V 0 w < A B B q.n A 0 w h 6 n o.w 0 0 0 e h k n n 6 B e k A 6 0 C 6 e w h 2 h e e k k n q.6 n Z 0 w 0 h n 6 6 C A 0 n 6 B B h e n n n h e e e e 0 2 e 6 h 6 B Z h A A n k k n o.h 2 6 e w w e 6 w n e 0 w e e B n n B C e  .e V k 2 h f e V k k e e e 6 h k * < * w e h e V n e 6 0 n C V A Z k n n n n e 0 e n q e e w q k n k w h e e k e e A n V B t e e e e k n e e B n k n n h n h A A 0 n w A 0 < 0 w B n e e k - e 6 k e w F e e 2 C e n N n n n e n B w w t B B n e N r.n e B C n B C n f h 0 6 j B B  .9 e p B B n h n B C n n V n e n e h n B 0 C e A h A A n n h e n 7 e k k e e e w 6 6 e k w 6 k @.A k 0 0 e h B Z x x B U 0.Z M B N t V e n N t w B V B 0.n e o.A G.n n k A v.A r.k k k V A V n n A B e e B 0.2.Z q.C k n +.v.0.C A C B n A q.0.A n B A C B V V B k k V V e e V V n n C Z A n n n C n B A B n C C A r.B r.B 0.A.+.V A +.n V A F B n V A V k t B F +.n A N V +.V 2.",
"o.A n Z C o.Z r.n n Z o.G.A m.n n A B J.R.B n C V n k n A q.G.T.R.A T.o.o.F.e B +.B r.B A k +.B A 0.0.q.L.e q.R.0.r.r.q.A e B /.J.A G.V G.G.r.0.q.r.r.q.+.+.0.0.n B r.B 0.A G.A.B B A B e k A V B w n A n k n e V r.Z B A Z A 0.B N A 0.n v.n @.A e V n k A V A o.q.r.k o.G.h V w n A n A o.r.A N B Z 0.Z 2.A.Z C o.+.A B B B B o.V V  .+.o.A A n A V n A +.A +.m.0.A A V n n N V 2.A N 2.A.r.+.B B A e B o.k A n v.B n V A q.A V N A t V n A N m.r.F A n 2.m.0.B e n B B Z Z e N n n B n B A r.A C r.r.C C Z C A A k h V o.o.v.N M N / 0.A B n n B n B A B h V V B B C e Z e Z n o.A n n n e h t l m l k l l t 7 t k t r k A +.o.B n n n n C 0.C C *.A.V.*.C A N V w B V A V w e e e C h 6 n e J.V V k n V e n w e n A A n k k w t n t n C A C Z n e k A Z n w e h e e n C C n w k n h h n n h w w n n 6 6 e e w w t n e w e N k n n n N n e C 6 N 6 e 0 e e e w V Z +.B A n e n e t n e 6 w N k e N k n 2.V A ",
"r.A 0 B e B 6 6 A +.A n h e R.e A n * h B * 6 n n e w w e h k n k 6 q.e 6 k * B h C q.< e o.v.* 6 A A 0 n 0 A B e w e A A.A n +.n 0 n < h e 0 6 n B n w 6 0 h B n C q.e n w h 6 h w n h < 0 n w f 2 k o.k h n w 0 n e 6 w e w w e e n N w A q B V e A V k V k k e B A * e 0.w B C A +.6 h w B w B t n e w n Z B h A Z B B A B e +.n e k n e w e e B e 6 n A k w +.n w e e 6 6 w V m.F t n V e 6 e n B 2 0 n e B 0 +.B B Z B B 0 e k n e t n n k r.e N w t e r.n w 7 n Z Z +.B * C k e B A A C C n B 0.2.n e n e A o.B B  .V h k F.8./ 0.0.o.A A e n n C r.o.C q.0.A C o.B L.+.L.n A B h n h 0 0 V +.+.m k m V m 2 k m k m s.+.k B B A q.q.A V Z C C *.j.1.C n C V F * +.+.+.+.n A B n r.o.n +.B v.V +.V V A k V q e n A A V A q.w C 2.Z B B B B B A o.+.Z C B B n B B V A q.q.Z B o.o.V B C A B n n o.+.n n V n k k n B k e V m.k A B B 2.C n 0.B R.B 0.0.r.F r.n 2.m./.2.2.e t r.N N 2.2.N V m.m.r.J.Z Z A.C n ",
"A 0.+.B C q.0.B =.x v q.*.Z +.0.=.;.C C ;.O v ;.*.M.w K.*.K ;.x.C B r.P.*.n A 0.o. .T.n  .o.[ n A r.0.A o.V n A A B B A A n h e B C A B B n n e n C n x C B B o.q.R.o.e B A h h +.B +.B A 6 k V V B B B B B n k w n e N * n B Z n O n V h Z n B k o.m.r.o.o.B h B r.0.0 * e B B B B n h k n h 6 r.v.q.o.o.o.C h B e w B A B B A * e n h w h B n A A A A h 6 w n C o.h B A e n B C B C +.+.C n n e e A e r.Z r.k 2 A N e 0.r.n 0 B k e e B C n 0 B 0.0.B e n e 6 e n n e 6 Z e n 7 w w e n C C C e n B e C e r.Z 6 C Z n C Z n w e e e w e n B n w k V A C B n B A +.+.n k k k e 6 6 7 7 0 0 0 6 6 w k n e 7 w k n w w n V k k V A V B C A C n h e w w e n n w 0 0 0 B C w k n * +.e e e k B e B n e V e 6 k w 6 h e e w f n n e 6 6 e n n h n +.w 6 6 e V V e 2 V 6 6 6 e B n 0.k n w % * e e * e 2 * 6 k n e 6 e 0 k < h 6 k h n w 0 e t w e C 2.B n n e e t 6 0 n e Z A w n 0 2 N 6 0.n n B e 6 6 6 6 w w e e ",
"n A A n n C C n ;.C C q.A C A B h x e x o.w n *.n C e n x C C n 0.e w e x B C x A f  .q A o.[ B k n w 6 e e e n B n n n n n n A n B A A C C n e h C B x n h h A n o.h 6 e e 6 0 B h C n A w B A +.A V B C V B n w e w B * n n n Z w A e < V Z Z o.h e B n 0 e A v.A V V e < 6 n k B B n B C n e o.A A A A V B B A k h C o.A C o.e n V n k k n k A n n B B n B A A 0.k V o.n B Z 0.C n n t e n B r.V B * k k 0.F n N t n 0.B w C C n w e B C B e C N V N B B C +.B n B Z n 0.e C n n n B C Z 0.+.B C B n r.B A.C w C Z C 0.2.N n Z C B k n A Z A n B V C V B V C V V n n V q.q.A V A A A A V B n A F A A C C V N k w k A +.V V r.B k h B A A A C r.0.F 0.m.A.r.Z C C m.A.A F r.n R.A A V 0.m.A o.r.V m.A n +.V n n V A V V A A V o.C C o.+.Z o.r.V V A o.q.q.Z V T.r.A.Z C o.C v.+.r.2.C A 0.Z k n n n V A o.V n r.o.v.V q.B q.0.0.C C r.r.Z +.m.+.B V F F +.C w k +.V r.Z t A N V 0.0 A n B C n +.+.2.r.r.2.2.+.",
"A q.r.A B A Z C C A M.V.*.r.m.o.C A B B A t.h B C C *.w n *.Z M C C t.V.*.1.0.n o.6 f 6 A A B B o.A k k o.q.A o.A C C C B B o.A.n V Z A A C n e e C C n h e e A o.q.A B A n h A e 0 n e C h A A C n h h n B n e e e w n 0 n n w h n q.k 6 A Z n A e e A A h e C A e e A C 0 w A A A A n h k n k B n n n n e h n A k e B A B B A Z C V C B h e h A h w e k h e w n Z e n A h B A C B B V B t e t 0.V C n C n C A n k w e V k e C +.B e e B C B n t 7 7 n n e k Z w 2 0 V e n * e w w 0 w e n n n n k e e 0.k Z w 0 e e k Z C n n A B e 0 w n n k n k e e h k n n n h 0 0 h B B h n B B B h e e e k k e e n F Z n 6 6 e n n e e n n e 0 e h h e h n t e e n B n n e w n B w e n 0 0.e w 0 n A e e A k +.B e V n k w n A V n n n n o.B h n B n k h n B C V n n B V e h A e 6 e 0 n k k k k k e e e 2 h B n h k k e A C o.n B h B B k e n C A B n B k 6 e N A 0.A w w V B V n e A Z F Z 0 n e n n e k n n n n n n k ",
"B o.0.B k n B B w v $.A n Z q.n V A V k e A.2 w V e r.0 N C n n w B A.H.*.*.A w R.h B e q.V B A A A n B G.G.A B n n B B h e h B B A Z A V B n e A t.q.o.o.A C x.Z V B Z A k n q.h e B e o.B q.A V n n B A o.C n V B C Z n A Z B e n Z B B r.q.A A +.0.o.q.G.v.A n n B C o.0.q.r.v.r.o.n e e B o.A q.0.B n B B B 0.B n V A A A Z R.q.A o.o.B n B G.r.o.q.v.r.Z B V q.n B Z n A o.Z Z Z 0.0.A C Z Z C F r.r.N B C N m.r.Z r.R.I.+.A.+.B V Z Z C N Z C Z 2.0.C B C C n C r.C r.e Z C B n B C C A Z 0.Z C Z R.Z A.V Z Z B Z F.J.r.F.A.r.C n C F Z B q.o.A A o.q.q.0.M.=.C C C ..$...=.=.*.C n x x v n V n e B m.m.F k n V +.A n n o.G.o.A +.q.0.+.r.0.Z C C Z 0.r.r.0.0.r.0.Z Z 0.Z L.o.0.Z r.L.0.q.r.V m.o.B q.A V n A +.o.A A A A m.+.A A Z Z A C Z o.+.A B B A 0.n A G.Z B 0.A r.r.Z A Z A V A m.0 B A n e n n k B B B n n h n n e e t N C n n B +.n N A A +.2.V e N V V N C r.m.+.0.C +.Z Z C B B N N N V C A A ",
"o.r.r.Z B B A o.v A ;.C e V A e n Z A k w T.h V Z w m.n 0.N e N A n x x n t.*.0 q.6 f 6 k 2 < q B B e h q.q.n h h n A o.B e e n B C V n n B B n h n h h B B x B C e k A B e k o.B B +.n 0.A r.C e w w h n n e 6 w w n e 0 w B e e 0 % * w e B A n k 0 * 6 n B n n h e e e h k n h h h w 6 6 e B w A A 6 < h n 6 n e w e h h h h q.k 0 w e w 0 e w e n B C V n h e C w e n w h e B e 6 * * 0 B r.Z n 6 0 * * 6 B e n n w n 2.F 7 B w 0 e n e e e e k k w 0 w w 2 t n B n w 0.e n e 0 0 w e w e k w w e n +.0 B e B n 0 w C C C r.B n e w e n e 0 e w 0 e h n k e w w w w w x C $.C C x w w 0 w w w t e 2 * 6 w 0 2 6 w w 0 6 w n n w 0 n A V C +.n k e e e n B N n n n e t e k B n e B h n A n V k 6 n e 6 k e w w e w 6 6 w e w n n k h h k n n n h e w w w e e B n Z n h B w e n w w t e 7 e V n A A k k N V n n n n B n n n V B B B C A C C Z r.+.2.+.n n N n t n V n N +.A V n n Z V C B N A A A V B B N A Z ",
"q.q.q.o.C C Z 0.C $.;.C h A q.B n t.q.n x G.o.q.A e A Z *.x w B A C A Z C *.*.n G.B r.V q.B n @.A C e w B C n V n B Z r.0.V B V n B n n n A o.Z A o.B C x.v.o.o.q.k n o.B k A 0.n B 0.e C B o.k C A A Z Z C n e +.Z A.A C B A.0.r.q.e A F.q.r.v.q.n n +.q.C A A.!.+.A m.m.A A T.v.G.T.R.m.A V A n v.v.n n q.q.n r.+.o.+.r.v.q.+.L.0.V A 0.q.q.q.e V 0.0.o.A B n A F.o.+.v.o.q.Z Z V n n n n 0.F./.R.A A k C Z A.R.C B Z A Z 0.Z 0.B B 0.m.r.r.A.A 0.Z n n 0.r.Z C 0.+.C e J.A +.F B B Z 0.A C F n B A Z m.e +.Z +.+.B n Z r.r.J.A Z Z A Z 0.Z C C A A +.q.q.+.o.B C A ..C B q.L.G.q.A B B A A A V A F V k t N F n V V V n k k n o.n n q.v.+.A q.C V B B B C A Z N Z B B Z V B r.k n +.B n Z B o.o.n r.A n +.A V +.+.A V V +.r.+.B A Z A A +.0.+.m.q.A Z 0.q.0.Z v.B A B V A e k N n B F +.V n V V n h e e k k n e n e B h B n C V B B B V A Z Z e e C A k e n t N n A n n +.k e t w C w e e n +.0.Z V n k t k n ",
"B n h e e e h n B x h w w n o.B n t.C w B n A x x C e C e w e e w x t.A.B e n C h < B q B e q j B B e 6 e h n A k h h n B n n B B V V B B Z o.o.0 h w w n h w e v.n n C h n o.A e B q.e B B o.k 0 0 w 0 6 6 6 6 n w N w e 0 n 6 6 V 0 n q.n e 6 0 2 e o.o.e 0 h B e e n n e n +.C A o.q.A e 0 0 e e e w e e w 6 h h h k B B n e e e e e n C B e e B C n h e w 6 6 B e e n e h w 6 0 e n e 0 6 w C Z e B w A n n 0.e n C e e C C n 6 6 e n t n C B B n n B A A N k e e e 6 C w B n w w B C n e n n n B C F 6 B B e V n 7 n V B N w e n e e n B B V A o.o.Z A A A n k k n h q f B V k w e n B n e t e k n k w k +.w e k k k e w 6 B w e A o.k 0 e C C C V B V C C B A n n F C B A.k n o.n n A n B n w V k w V n k q k n k k n A o.e e e e k B n w V B n n C C B k 0.w e h n n 0 B B n B A F A N n q.V n V V k n A n C n 0.n 0.A 0.C A A C Z +.0.0.k t C F n N F A +.A A.V V m.B n F n A.n A C C r.T.T.J.m.2.F A A ",
"0.A B B B C A Z P.;.C C x A r.o.;.P.;.C P.$.!.$.*.).$.K.C *.G.$.F.C B Z C C 0.r.A k v.V b.@.[ [ V 0.Z C o.Z Z m.G.0.A A Z o.r.G.A o.o.A A Z A B q.H.G.v.G.v.q.G.~.0.0.r.V q.L.q.k +.T.B o.+.F.o.+.q.r.q.+.q.A.R.m.C m.C r.V Z 0 e T.n h o.A q.B n +.r.Z A 0.q.o.B v.v.B B r.m.Z o.A o.r.r.+.q.G.R.q.+.F.F.A B Z 0.q.q.v.G.F.A.+.n A o.o.r.F.v.B B Z o.C C o.o.B h v.Z +.A.q.r.A r.r.r.0.C n B Z B Z t C n F.r.+.0 n r.F e A J.V r.B n N A N A r.B n N r.m.B w w Z n n +.n F e 0.n w e C A n e B 0.Z 0.2.F.e F Z e 0.F n C +.A N w e n e e n A +.q.r.v.r.o.A A o.V k k n m k k m A k e k +.r.A k A n n A V w e F % 2 e V +.r.+.A n e n v.F.o.B C Z Z Z Z A A Z Z k C t t Z B n A.n n A n n Z h e n w V k e V n k $ 6 f e w e V A B B n n A +.B 0 n n n B B B n e r.0 e k k w 2 V V n e e n V N k A k k A V w w A w n e A e C h B e e t t n n B n 2.N n e 6 6 e w 7 0 V 6 2 n 6 e B 0 r.e A B w w k n n n t w 6 - ",
"..v B B h n A B 0 h 0 * w o.*.h n q.o.+.n 0 n h n n h e B n h A e o.k n V n V B * 0 n A A B B B 2 * B * B * B n h * * k C e < 6 A k 6 A k h 6 k n < B o.n h e o.0 h h 0 e A B w w C n h n 6 * n B n 0 0 e 0 6 k % w 0 n 6 h < < n 0 6 t n w e B n Z V e n k e n w e B A A B n n h B n B e h o.e C w A A n B e e e 1.j.x w C 1.A e e e k B B e < B e 6 6 B 0.Z n n t Z t 0 e e +.k e e e t k n B w 6 n * e e e e Z n e B 0.F C B A e w 0.e 0.+.B t n C 0.r.0.C n C e e B C n w w w k n n n C C V e w n Z A Z C e e n B N A F C k : / 8.N Z n e Z M B / Z e l.0 p B e G.e n h h Z +.m.q.k B 0 q.V B w +.B +.e w n n k n V C V n V N e 6 V T.A e m.R.A t V C n n Z A n B r.0.k e C A A A q.R.e o.k h B < A.A n B o.e n Z 0.C n B Z +.Z Z A Z A A C 0.A B B Z 0.0.F h n +.Z h n A V Z o.J.Z B Z B q.F.Z 0.Z F r.C 0.0.A Z r.0.B C A.A n B 0.r.Z r.R.A.r.n C Z Z !.A B A 0.r.Z B V 0.t.V.V.r.t.r.t.*.;.M.M.*.*.1./ N ",
"B v ..=.C  .q.o.n ....n ..L.G.C r.L.v.A.q.B 0.A r.v.o.A q.Z A v.o.T.+.o.0.B A B k B A V B B B k G.A r.n v.n v.G.L.v.q.v.m.q.V n n n w B h o.B o.V.n q.G.V.G.q.G.t.v.q.A o.G.L.V.v.L.r.Z 0.B h q.B B n C q.0.o.m.o.o.k +.+.!.m.+.r.Z Z r.m.0.0.r.n 0.0.A 0.Z B C A Z r.A.J.A.A.A.r.m.Z o.V A A.n A h V h h v.0.V 0.B x n A U Z A V e e B A A A q.n n n B Z r.F B B B r.0.F r.Z m.n n t n n t n n t e r.B 0.Z V B 0.C V Z F A C Z R.n w Z B n n A n n n B C C B n e C Z k k Z C e w e e n C +.Z B e w e n e B Z A A C B n B 0.A.A.+.A.C n 0.0.n n n B A A B A.+.r.A B q.B B n n V B +.0.B A e r.C 0.e Z k C w e C w w e n V k w 6 w e 2 7 A B w n V C C V C Z A B B n n B V B e e n B B A A.e A w 0 A n J.n 0 h A n n V Z F C N C n n n n k e k n n C A n 6 6 n 0.0 e C V e e n e n B r.B e n e n C n B w e B w n 7 B N e 0 e e w 0 t n w e A Z B n t * 0 0 w A 0 6 e n n e 6 0 k n B B n x n n x v C C n n M M e ",
"g h C ..j k C B e n n e h A C e n B e n n e n e A A n n C B n o.h q.B V A n B n e n n w e B B e o.e 6 0 h w e n n C V n n A V e C 0.n B e q.A A n * 0 e n q.B e n n x h n n B B V V e e n k n +.n k n C A V n n 0 0 * e k q.B e n t e t n n e e * w e w t w 6 6 k n n n B C C C A A e h e n o.0 Z k n 6 0 G.J.o.*.n w x A Z C B n 6 6 h n w e A e B C V B C C C n 7 n n N 0.n B Z V B C B n n N k e A.B 0.A V B r.0.0.+.C B C 0.F.C n n 0.V C r.C B B B N C C C w A F n e C F V C C C C F 0.B w t n Z 2.C B C n n V C C C Z 0.0.o.v. .k n k f n A o.V B  .V b.@.h B h A n n B B h A o.V 0.h 0.n +.e Z t C k n Z V n n A 2.A n t k +.V n r.R.J.r.n m.A.N n 0.Z e Z Z C B C 0.Z e B A A A v.V q.h 0 o.A r.h w n B 0.C C r.A.m.0.Z Z 0.0.0.Z Z +.0.+.J.R.A.C B 0.R.A +.L.L.q.r.A.+.+.q.R.v.o.v.o.r.C V 0.k e C n B N r.A.F C 0.0.C A 0.0.C F F.F.0.0.0.C 0.A Z F.A A r.J.J.F n C r.0.t.1.*.U t.r.1.M.G.P.H.H.F.H.8.",
"C C *...h d B B n B n e e n n x h B e n n h A B B B n n A C C v.e 0.B C Z B A V k A C e n r.r.n +.k 6 A A A h B h B Z A o.r.v.0.o.q.B A h Z B V C w n x A R.t.n A C A t.G.x.A C +.A n n A o.q.G.A n B A B n k w < h A 0.Z A n e C A N n n B B n k Z Z B C N k n C A C C C Z Z C B A n n n B r.h A.C o.n n J.J.v.B r.V.n n t.r.B B B A o.V e 0 e Z 0.0.C n C 0.r.0.n B e n Z n C B e e n n e e n w 0 C 6 e w e k Z Z C B e e n C e C V * Z Z F n e e e e t t t t e w w k e 0 w V B V N n n n w 6 w e C +.N B B e w n B n e e e e j C n 0 2 2 0 d k B d 0 C 1  .d w C * B 0 e n h e n B n A 6 n 0 e 6 N e C k e B n 7 2 6 e e w w 2 w 0 * w V N t n r.r.e 0 n V e B n e w e n n w w h e 0 e n n 0 e n e e e n n w n e w n C B n e w w w w w w w w 6 7 e n B B t w 6 0 n n e k B e 6 0 B e w n e B w e A w 0 n w w w 6 w B B w w B B 0 6 n B e e n k n n B e n C t e n A V e - 0 n e x e w w n n n x v v n B M M p ",
"v B =.=.j e j f B B B B B B n x n o.B o.A B v.v.n B n n Z A A v.h r.V B B e n h n A A e h A B 6 q.B 6 q.C r.n A B B A r.q.C B A A B k v.C A n 0.A n o.B A P.C.A q.A C v.R.L.q.C q.B n n B B B n B e n B h B A h e V m.G.G.0.C h Z Z N k n B C B Z r.Z n C C C 0.B N N B V A C n n o.o.0.V V m.B Z w C A n B n o.u *.0.e e A C w h q.G.o.V A B w C A C n e n V C r.A 0.B n C n Z Z B B 0.0.C C 2.0.Z R.C 0.0.0.2.F.J.r.+.F 0.r.r.B m.A.e F.m.0.k n B C Z Z C B n 0.C B Z Z N V Z n A +.Z C A Z A 0.B B B B 0.F.A.J.F.r.C n C 0.r.L.q.C C o.b.o.f V  .B B b.k L.[ A.!.B G.B A r.+.q.r.r.+.G.n v.Z 0.n m.V r.+.Z 0.2.N k n m n k n r.A N V V A F A C 2.r.F A 0.r.r.F.0.Z r.r.A +.F.G.A.q.C C A.q.Z o.o.o.n B q.q.C 2.0.0.m.A.r.0.r.r.Z C C Z Z Z A B n B +.A.J.0.V n n C A B o.v.o.A C r.A C v.q.G.V Z F.0.A r.C C B n B 0.0.B B 0.r.B n 0.r.F A +.C N 0.0.N Z 0.A V F m.2.N e n +.A Z Z C C 0.t.t.C C ..*.U Z Z Z ",
"w h =.C.[ B n q h h n A o.B e 0 h A B A V n o.o.B A B B o.A B o.e q.B B B h V A w n B e e B n 6 A n < h 6 n e n n h n A B e w h 0.A n F.Z B e o.e 0 C h w A C n B h 0 e B o.C h B 0 e n e h n e V e n B e B 0.k n e e w A C B 6 C B e e e n n n k V e 0 w n B F e n n e n A C e e A o.+.n h o.e n 2 V q.C n e A *.n e n A C x w 6 A q.h k v.J.A n C Z Z Z A B t k e Z B n B e B w 6 6 n n w e B n e r.n Z C n e A N e w e B B n e 0 w n 2.t 0 w 0 e n B B t e w w n e 6 w B e $ 6 e n e 7 7 w w B w 0 w 0 e n w t n k w w e n n B f h f w h h < k h e h B q h 0 h B w h 0 e B V B n k e C 0 A B Z w n * w 0 w e n k n B n e 2 * r.e e A N n F r.0 0 w t n w 6 0 Z e w n k 0 e 0.r.A B k w Z e h 0 w A < * < 6 e n n B C N n n B Z C n n n B B B C C C C B V C Z n e n n h C +.B B B o.n k A n A e w V n t n 0 e w n B w w n n 0 n A C n B 0.Z e n w C B e V n n n N A A n e n A n B B n n C A C B B C U Z N M B ",
"B B x.L.v.q.r.A C x n o.t.o.B n A q.V o.Z n A n A +.Z +.m.+.C 0.h v.A A +.A G.L.V o.0.o.o.+.+.Z o.q.V B h o.0.r.+.0.o.A Z 0.0.o.o.0.V v.n B e B o.B V.=.B *.o.q.A A A B A v.v.*.v.B o.G.q.v.R.J.A.V q.q.k A A.n v.V B 0 +.o.r.n r.Z Z 2.r.0.0.r.A r.F C +.r.r.F.r.A.r.F r.R.R.r.B +.o.0.B B r.n q.n m.F.r.r.Z q.A.*.Z r.H.A.0.A n 0.+.n n A.T.v.Z A.R.R.F.A.2.Z n n 0.C N Z n Z 0.B C A.A.0.0.F.r.Z R.F T.A.0.N A.A.0.A Z r.r.Z J.B n R.J.r.Z r.0.r.A.A.m.r.r.r.V 0.r.A 0.J.Z 0 C 2.A.A.0.Z N n 0.Z m.F.r.F C e n C F 2.r.m.0.C C C A.r.k B r.o.R.v.r.A.r.m.B C V B v.A +.q.v.R.L.m.q.o.G.B L.A.R.Z m.e A A Z 0.A A 2.m.2.N t t r.e t A n N m.m.r.Z A +.r.0.B e r.V t t n n V 0.r.B B o.B G.h A o.V R.V A B V 0.B B N C C n n C V C C n e w n N Z 0.Z V n k B Z B n n B n C A k B n 0.B n A h n r.n C C C A n 0.e C N e e B n w n Z Z B B Z Z n C e F B n 0.V B N N C A V n N +.n C C B B C A C C C C 0.0.N N N ",
"x g x x d k V B A e 6 e n n n B +.q.n A A n n 0 6 e e h V n w n 6 B e 0 w 6 k B o.o.o.A n e e h * e k 0 0 k B n e B e * * e e < e A n B w A B V n 0 C n w h h n * h B h e B B h V 0 h B w e A n B 0 n B 6 n o.6 n h B 2 e 6 n e w 6 6 n B w 0 e w B n e n n e n B B e 6 0 B B w h B h n h n q.e V e A n e A k w ; C t.n w B C x n B n e w e e 0 e V Z C n n n n B e B e w B t A e 6 0 B C e e C A e C 6 B N n w B N n e w n n w 2.n w C * n e 0 e e e w 0 0 w k e w e C Z n 0 6 * 0 n B N n w * w 7 n B w e B n n n e e n C C B M 6 e p w C 8.n Z e p N e 8.0 N C h R.n A n h A r.A n h A 6 V n C w A 0 N N B n w e k n t w e n J.N V V w t A n Z B w w B 0.Z k 0.C e 0 e C Z C n 0 e o.A L.e o.A 0 +.h r.+.n B e e e n n e w e V 0.r.C e w n F Z C B B B B n e B n B B n B B 0 n B v.o.o.r.B B F.n n B N N n r.0.B n Z Z B B F C n B 0.Z n n Z +.e 0.C B m.C C n t n B B n N Z C A A C A Z Z C n x n A A M p p ",
"q...A =.o.C A v.A A A C B B o.V.v.G.*.C q.v.q.v.F.0.n x.*.;./.*.v ;.v V.v.G.B F.v.v.A q.o.o.G.n L.C t.n v.o.A C G.q.o.q.x.q.q.v.t.o.o.q.v.q.A C =.L.o.q.n C.A n C.C R.n o.[ C q.o.n q.P.=.o.*.n H.C *.r.x e *.t.*.B n o.*.C n B o.B +.v.A q.L.v.n C J.+.A.A G.A.v.q.[ B C ....[ C Z A *.V.=.A =.A n *.v.A o.q.h e C w C r.V.R.A B A *.U M B 0.F.1.r.r.r.r.1.A n C C t.C A H.t.j.0.n 0.R.r.0.F.A.v.R.r.A v.0.A G.C !.C +.B r.o.A A q.m.v.Z B V A n n B 0.r.Z B B B Z n F Z V m.e n A.x t.n A U x B q.q.n k A C e r.o.n B q.+.V o.H.n e e r.O A Z t.o.A *.A B ..R.q.q.n q.o.x.A L.B A x A h P.V.n o.n B o.B 0 n R.*.C n n e e C V.r.r.n C Z V 2.Z C e e +.r.B e e C A C e e A U C n x M U n w n A.V +.v.r.q.q.Z B n A A V B B Z 0.+.n e n B n B A n t n n e w e C C B n B 6 B n R.r.k n N - J.Z 6 0.Z C B M C C K A e n n 6 Z 6 A F e N n F e Z A.n V B k e n C Z r.B e k n e e n B 0 w w n Z t k 0.e n B w B 0.B ",
"A n h n h e h C x B n 0 0 n B h h B e 0 h n n B * 0 e A w 5 =.n w v w *.C C 0 h C B e n n n q.h A w n 6 n e 0 0 e e x n h e e n e w e n C n e 0 h C x h w B j 0 x d B d j x n C C w n A n h n 0 C e B C 0 0 n x B n n B B x x n h w e e 0 e B B e k A 0 e 0 V B B A C h e h n C e C C C A n x =...h x h 6 e n 6 x B 4 0 w e 0.n n B B n u x A A.e n C C C B n x n w n n n B e C 0 6 t C B n n n A q.B w k h e +.n n O h e w e C n B C B n n B A n w 0 e n B Z r.0 t 0 t e w Z e w 0.e *.n M M 8 n A +.C h e n B h e w n q.A n o.A.A 0.B A n Z V.o.x B 0 *.A q.B n o.C V.o.A n G.A n w C e q.o.A A n B q.q.B A H.R.0.n B C C n n Z C w n B e B t n e B 0.r.Z C Z 0.U A C B n B C A C Z t.U n B *.r.r.v.A.m.q.Z C k n B C A o.q.r.r.Z C Z Z C C Z F Z 0.0.A n n C +.C Z r.N r.V F.0.n A C e m.0.V C Z Z A A t.M.x.B C C C Z B A B Z 0.F F C Z Z 0.r.+.0.A.A.0.0.r.0.C A 2.r.Z n n r.Z r.+.+.r.B C r.V A Z n C 0.C ",
"v...B B n h n *.C t.o.e x x.t.h o.v.o.B q.v.v.G.R.v.C o.A $.P.M.;.;.;.P.q.v.+.o.o.A n B n C V.B q.e A h *.A B C e n *.q.A h n A o.C C o.q.q.o...b.C.G...v.v.C...B o.n A x x C B q.n n A A A o.n *.Z r.0.n B C n o.t.v.o.A A o.o.A q.+.Z 0.o.A q.n C q.0 h h +.A C q.x.A x n o.v.A V.V.*.A h n b.o.A q.G.v.C.t.h A.A.B n C A F.V.0.*.A M C Z V.P.n C *.t.U A A Z Z e Z t.*.n w U n 0.0.+.r.2.+.0.+.A.0.V A A Z F.0.Z 0 +.Z C o.v.A A o.+.0.q.q.q.F B e e n B 0.A.e C B B B B A.r.B r.B *.C Z Z x B h h n e 0 e B h e w V q.B n v.e e 0.0 * A e A A o.^.n G.C R.o.n q.A q.h h h R.o.h 0 C w B C =.x e h B o...C C C e 8 w n n x e Z Z e C C k B k n V A Z C V B V A n n A C e e A A B x e e n B C q.C B A A n e h e e h n C A A A V n n B B n n n n B A +.A n n B n k B 2.V r.e B n 7 B 0 e n n A w B C n C ;.t.C 0 B e 0 B * Z 6 w F B C 0 +.n e 0.n n 0.r.N n C n n B Z 0.C e w w w C n e t 6 w Z B C C t k B k ",
"v.A n n h e n *.n o.A x n q.=.n h B h 0 n B n C G.A w e x C ..v C e x C 0 n A B A A x B x h o.e o.e A h q.*.o.q.e n q.v.o.n n C C h e e h x n A C B ..w C j C d B b.e =.n n [ B A h e B ..*.*.A *.r.V.*.C Z Z n C *.*.B n A A B 0 C B B +.B w n 0 B q.e B B 0.n h C o.C j x C ..e C A C n w d o.w e B *.v.t.B 6 n n e x n n A C A C n x n Z 0.0.C C Z *.Z C B M A u Z Z C n w A k r.C w B C B Z n A +.o.Z A o.m.w A B C h n C 6 h n B Z q.+.C n B n e e n n n n w B n e n B Z 0.A A e e n Z Z x r.B h n A Z A B v.Z B q.v.B B R.n C A.n x *.Z t.C o.R.B t.x t.A A G.q.G.B B B /.v.A h o.x q.q.t.q.*.o.o.q.G.v.o.n C Z *.U *.V.P.F.J.Z r.A.+.m.0.Z 2.0.Z A Z Z C A C U t.*.B B A t.r.0.Z 0.A.H.V.!.r.o.A.G.o.A +.q.o.o.v.L.J.v.q.Z Z Z 0.2.r.r.r.C Z 2.r.r.F Z Z C Z r.F.+.F.B 0.0.B r.e r.C Z F.C A.F.*.*.P.P.*.0.F.0.e B n A.B V r.0.r.C J.0.Z m.A B Z F Z Z r.0.Z A Z 0.0.Z A Z A A.2.+.2.N Z m.m.J.A.2.+.0.Z ",
"v...B B n x C v.B A o.A A C C A A q.o.B A Z A *.0 B r.v.v.=.C =.G.A t.q.C o.L.q.n C B ..B n A 0 A 0 C e o.A C A h n A =.o.B x x G.x.*.q.t.q.x.C.q...x.B v.[ b.o.x q.w b...q.L.b.C n h B t.t.o.o.*.V.r.C A 0.Z M A o.A n B o.o.n 0 B n h A n 0 n e B r.k A B 0.n w n C C B B B x 6 e x B ..C B q.A A n x B C x w x e n M C A C C C C B n C 0.*.B *.C B Z t.Z C n C B *.B n A n A e r.Z e C A B C n n C C n n A o.w A q.Z e 0 C 6 e e h B A o.A B n n B N C C V n 0 t e w B C e n *.C n e Z H.t.n n B k 0 e A A h h e w n n 6 6 A 8 e n w C * U C B 6 * 6 n x 0 < 0 B n q.B n 0 A x x 0 e 4 o.B w C C h w 0 h n h n B C n x n C Z C V w n B e C B k k e e n A C n e C Z C n n e 8 6 x A Z A C B u r.n h C A k h V n e e n A B e w k n n k n n N C e e e e w 0 0 0 e n B N 0 B w C C 7 n * N e e V e A A e e C C e N C C w 2 F n B e w n e A n A C w n n 7 0 t B n e w 0 7 w e e w Z n B e t B w w n B B B B n e e ",
"G.q.o.*.o.C o.G.o.o.t.v.*.B B A x A n e h h e x 6 e B x C C w x C C t.A o.V Z h x C A q.o.A q.h o.h ..h A n x B B n n A o.C n n n n B A A B x x x h j d B B A C B [ x o.o.q.b.q.A A B A V.q.B A A t.A C t.t.A C o...A A *.t.q.A A o.B n n n B +.A A r.n A n A B j n C A o.o.C h B C C Z v.o.C o.A t.o.A t.q.A C K.0.V.t.r.A.*.V.A *.0.U t.A.0.n *.n n *.A.V.*.Z C C 1.n n r.Z Z B r.m.r.A.r.A A q.C A B e n Z A v.C q.G.C 6 r.+.B n h k B o.q.r.+.+.A B B C C B e V C t r.m.e B A n 0.B H.R.t.n A T.!.q.C v.L.J.n C Z v.F.q.A J.A C A C R.* F.t.P.*.C H.P.H.q.v.G.G.B t.*.v.o.R.o.v.o.q.n P.G.B P.H.q.B n A q.v.A.t.A A t.H.r.A m.m.C r.A.0.J.r.A.0.Z +.m.A.m.2.M r.H.r.V.R.K.*.A 0.r.0.C C Z t.G.q.+.r.r.o.+.m.A n n o.r.o.V V 0.r.r.Z A F 0.0.C A C N C 0.r.r.Z 0.r.0.e r.A T.A.B Z n Z r.Z C Z A.A.*.*.H.H.*.V V r.0.n !.n 0.0.B 0.B F.Z F.F.n r.F.0.Z A.A.Z A Z Z 0.r.m.0.V 0.n B n Z A.C C +.r.0.0.A.r.Z F ",
"o.C B A B h x A x A o.A A o.A B A x.o.B A C B A F.Z n 6 C t.w C B $.C.A H.Z A n w x x C n h A 0 C 0 B 0 n e e h B x e h n n x n e e n C C n x n C B j C n [ A ..n w n e n n h h x B h h A n 0 n e n e n t.A e n h e h B C n n n k e e 0 < 6 w w B h A n A w k h d h j j n B j 0 Z *.C B C h 6 d & h h e A n 0 h r.n C n C Z e n n C A C C *.B 0 n w w C t.*.Z *.C e B n C *.n C w 7 n V n e e e A e n V e n C e +.0 n A h % o.k n k h h n B V C 0.Z n w 0 e e w w N Z e r.m.w C n e t.w C Z B x h V A n h n V V 0 k h e B B n C M e n x Z 0 M C e x q.C B 6 e x A B < e e B h q.e n h B < n x e q.o.B n n B A o.B n x x C 0.A e n B e C Z n V t V e w n n w w e 0 0 e n A *.A n Z C n n e w n r.B C A V n n B A n e e B A n h n B Z Z V n B V B e n n e n Z 2.0.n N C B 0 +.B 0.C w n n 0 0.V w V Z 0.*.*.*.*.C e e n N B C e t C C C n V Z 0.C n A 0.A C Z C k n V A Z 0.2.A e A e B n Z A.C V B Z n t 0.Z e n ",
"v.=.=.v.q.B n A n v.G.q.G.`./.t.G.!.R.V.G.G.v.L.0.r.G.B *.M.x P.C ;.G.n R.q.q.q.C o.A =.B n =.h o.h *.x *.A A o.v...B B C C ..t.o.A C A A A q.G.C.C.C b.C x.A q.=.h G.n b.b.o.q.C q.B B v.o.n t.C Z C r.Q.H.C t.h h B *.o.n n o.q.A r.A.V B A h Z B m.J.~.A Z A C [ [ C A ..[ B 1.r.o.A o.B x [ o.L.q.n A A B V.R.A A.V.F.R.C Z C 0.t.U *.t.A e Z C A A.P.A.G.R.H.n Z A.P.H.A V.J.B Z r.B N m.m.B e Z F.r.v.r.e T.v.R.G.v.+.`.h o.q.m.G.v.+.V n r.r.Z B B 0.r.0.n 0.F.C F.R.n F.A.*.Q.n C Z t.H.!.r.A v.R.R.G.q.v.F.Z e n A Z q.V.C j.A C j.n j.q.v.`.A P.B o.0 n A B P.R.P.B A A o.*.L.h n A V.A n x C ..A A o.e A 0.Z C C B x +.r.Z F.I.0.0.N F B C r.r.C Z A.A.Z A H.P.j.A A n n Z F.H.A B *.B +.r.A B B A A A n n Z o.B n C B 0.r.0.Z 0.0.A C A C n n B B k B C A A n J.C 0.C e C 0.6 J.0.e C A 0.r.r.$.C n r.r.Z Z A.w r.B Z R.2.Z n R.r.B 2.C B B C B n n n V C N A +.C t r.V Z B V C 6 2 B C w w Z C 7 e ",
"B w e B v x x w *.Z.*.K *.A C *.C *.A n e n B n A n C u Z * 0 n n * 0 n 6 h q.n n A o.n e x B C A n h 0 & B < h B n h e n x n h w < h x h h 0 n C o.C w 6 e h e h e e h n h w 6 w e 0 6 0 B n 0 n n h e h B B h n h e k B B e 6 h e e k 6 n * 6 e 0 6 u * n 0 0.h h q.0 h n n e n k 2 * w h e n e 6 B n q.0 h x n B k k n 2 r.k 6 B e e * V A 0.h e 0 h n n n B n A B e e V +.o.e 6 h e < n A * C u w C & e e w Z o.C h w e e w A h n +.V 2 0 q.B 0 w +.2.e 6 e Z n e e e e n C 0.V 6 6 t n w e e n n n n N C B *.A e e A n u V.o.k Z m.A C q.o.A v.V h C B n Z n B A q.Z k k A A B k n n n n n F.V.A x w e n M n r.A.n e C Z n C n e n A A n e n n x e n *.0.A A C w w U A n t.t.e n *.Z 0.0.x x w B Z C C A M B e e A q.A n C V m.A B n n Z e +.r.o.n n C n 0 +.A n e n +.v.r.A o.e 0.+.e 0.0./ F.M 2.F.B q.o.F.+.m.Z J.n C B A.r.Z 0.F.r.N C A t n A 0 A e B e B +.0.A B n B +.A.F.0.n t B C A B Z Z n B 0.0.",
"r.V o.C.V.V.G.;.*.V.*.*.Z.V.*.x.M.K.K.V.j.A.F.A.Q.H.K.1.H.B 0.r.V.x A V.C q.!.G.A q.*.B B A q.v.x.V.L.C.n t.w n v.=.A A o.q.o.A ..n o.A A A n ..t.G.V.o.A q.q.C h n B B A o.q.q.+.r.0.A o.A.m.o.o.A B A o.q.*.o.q.A C o.r.m.q.A 0.o.q.m.A G.n A t.C C 0.n t.B F.C A R.B A V B n h q.v.q.0.C A A.A n ..=.V.A q.G.r.2.m.0.r.n r.C V +.r.C A o.o.B v.o.A o.v.V.G.H.o.r.q.B n o.r.0.C A B V +.o.C A R.*.B t.x V.j.U 0.q.o.A A o.A B q.Z A 0.q.+.r.G.r.0.+.0.F A B n +.C B C A C Z 0.r.0.B n Z C n C B n C m.A.0.Z 0.t.t.M x M C n n Z C 0.v.A B o.q.A A n h B n e n n n C 0.Z k e n B A o.o.o.Z A V Z Z A C C C A Z B r.A.Z C F A t 0.+.Z C A F Z C C C n n C 0.r.t.C B e x M n n Z x e C A n e n B t.0.V.V.A C C e o.B B q.v.A n x n q.B B B B q.n w k h 0 0 k n e 0.A h 0 0 h n k n o.q.F.+.e C v.N / M Z r.B C o.2.C A C +.n n n n n e n Z C t n F B N Z w Z n N w k B B n n B C F N e w n A B w w w C 0.V B V n ",
"A e n C B C C x w e w e C C x x v C C n x e e w C e n u n e C h o.e x B w 0 n e B B n e e n A A A o.o.B w B h o.o.C h n B A B h C n A h x A n n n A A B A o.B e e n n e w n A A B A A n n A A n B h e B A C B A B n e h B C B n n n A +.n q.h C 0.n B A n U e *.n B R.B C n n n n B e w n n n A n e 0 n h x n q.n e r.B q.C B B h e B 6 n w n 2 C h 0 e n B n n o.r.r.A C 0.r.q.n V w h v.B 0 q.F.A e C B A.j.Z B B B B C A B h B C n e B v.m.A N 2.+.e 7 B N e e e t B N B B C t B n n B e w n B e n r.r.B n Z A A A n n 0.0.u B +.0.o.A n B r.J.Z Z r.+.A A C V B A r.q.V n B n o.r.o.Z 0.q.o.n n n C C A A Z n Z r.r.r.2.F C C 0.+.B n V Z Z 0.*.A C C *.t.1.n x n C x e n B A r.A.V.r.A A A.n C r.r.*.V.H.*.q.q.t.v.G.v...B B r.A A o.+.J.o.B A A B B o.0.o.R.F.+.B n C A B o.Z J.J.r.o.A L.Z Z 8.Z 0.0.B m.r.0.Z r.0.0.A Z B C N Z r.0.Z r.A.+.r.A.B m.A F Z +.+.A B B C Z r.0.Z N C F 0.Z 0.F r.A.F 0.F.J.",
"G.+.q.V.t.M.M.$.C ;.t.M.K.Z.;.M.$.;.M.t.U C B n C n Z *.*.r.G.C H.o.*.q.n x C B *.A B n B C C B o.o.C h 0 B A v.*.A x A A v.A B h h C e x q.B n n B B C o.q.A h n A A h e n V n n C C n k n n k *.x x o.q.A C *.A B n h n B B B e k B o.n q.h A 0.x M C C Z e C V B L.B o.A A A o.B 6 2 n V B A n n 0 n 6 x h o.e 7 m.n r.@.n  .o.A o.h A o.F.G.G.o.B A t.q.A B n C A B B A o.Z B V e n +.B n v.0.B u M Z V.0.B A o.q.o.Z A B e V A B e B v.v.A B r.r.k w N F C e e n N B B N C k B n B A B n A 0.V B A Z N C 2.u w n n w B *.e n 0.C n A B k 0.A 0 n +.n e n h n e h A Z B n V e V C e w n A C n x w w e x n n e n Z +.C k n N 0 n n 0 0 e n t Z Z A B n n n n e 0 n C w e n w x C e e Z n w n B C *.B w n C e e h n n B A A n w n 0 e e e B e V C B n k n k w Z A n h h n n e o.6 e 6 e A w B e e Z e e n < B n B w C w B w e e B B B C n n Z V e C n 0 n w w n n B n e w w w V Z Z n e e B C n e e e 6 w B V ",
"h 0 e n B } ;.C w C } C C x u C w w x B B n n n h h h n x A B h q...*.t.o.o.v.G.q.A C A A A B n q.q.o.A A C C e A o.h q.C H.A A w e B e h *.B n o.A A A *.t.o.B n V B n n A C k V A A C B B B B t.B x o.q.C B ..q.+.A C C A Z o.h n V q.B m.n Z A w B B A C e B Z k o.e A A V B w A o.A A n n o.=.q.n o.e B x A C B F.n r. .e [ 0 e 6 0 * e n +.v...A q.G.v.o.B k B B n n B B B o.n V C h C m.+.x n n B 0.A n e V 0.r.0.A B n e B n n n B A o.q.C Z 0.A n B C F e n n n n n B B B B n B Z A C 2.Z 0.Z n n C Z C t.B *.r.n n 0.0.B o.n h +.o.n A o.n r.T.o.C r.r.r.A C 0.q.o.o.r.Z v.m.o.B o.r.r.P.H.t.0.1.r.r.r.A.J.R.F.Z k B r.C Z Z A 0.J.A.0.V.A.F.F.V.t.1.t.Z n *.H.*.r.A.C B A n n t.A e C t.r.V.U n U H.r.v.V.V.v.G.R.R.L.Z r.V o.q.+.G.o.v.r.0.+.q.q.V e Z o.o.o.q.v.q.C R.C o.n A G.V q.0.8.R.F +.v.n m.Z 2.V r.B r.N C A r.r.r.r.Z A J.r.Z F.+.V +.Z C n C 0.A.A.m.0.0.F.A.0.Z 0.A.r.F Z Z A.F.0.F r.Z ",
"A B C A C ;.M.C v ;.C.;...B C M.C C C ....A [ @.C o.h n C b.q.!.n n n B n n B *.A B n B A C B B q.o.n e B h A e h n 0 ..e q.x B n n o.B B q.A o.q.o.C B C A C B V B B B A V k w C C A A A A A C o.n h B C n n B Z Z Z A A A o.+.h h n o.B v.h B C w A n *.C n C v.n A 0 A A n k e n h e n k h B t.v.o.*.n B n B C F m.n G. .n @.n +.B r.e V k A h 0 0 n A C h e A A A V n n n n +.k o.0.e A L.A w n C n 0.n e e n C A V n n n h h w e B V k B v.Z C A 0.C e n Z k B C B n B B B V C n n A C B 0.C m.A.C C r.0.n e 4 0 x w 4 w B A Z n n +.r.A n w e B C k k V C n e e h e 6 0 e 0 h B C B k e e C B n B C B n e w n V B w 6 w C e w 0 e C Z C n e x C A M n n C 0 0 u n n C B w e B C C C e e Z e w e e 8 x t.A...A C B B B B B n B w n C B 0.B k h h n B B n e e k n B A A B e B B 0.C n k w n M Z / n B B e n n B e n e B t w w B B B B t n 0.n e r.e w k n w 6 w n B V B e e e n n e e k n B Z C 0.0.N N +.Z ",
"r.Z Z A n C C w v =.;.} } C ..P.*.C C C B j n [ h q.w n =.x.n _.q.v.q.q.q.A A v.V.o.A o.o...o.v.G.v.n 0 n w G.A B =.x G.h v.n ..q.A G.q.*.v.v./.L.C.q.o.A C A ..r.A o.v.r.C n B A C C o.q.r.q.o.t.o.B B A o.o.o.A Z 0.+.Z A A A B n B q.A L.n B r.n H.U A.Z A r.L.A m.B m.r.o.Z q.A 0 6 B o.A A v.v.G.o.q.A q.o.B F.r.C /.o.q.L.A +.q.m.o.A n n *.A C o.t.q.o.o.0.o.A V n h k n +.A 0.G.r.o.0.r.C *.t.n H.C C *.q.0.A A o.r.+.B V n B q.q.A o.G.0.Z 0.r.0.C C 0.B 0.A.r.0.0.0.Z Z r.+.Z Z N B 2.m.F.F.m.r.F.J.r.C C C A r.t.*.r.Z V A A C o.A w n o.A B Z r.0.Z 0.o.q.m.r.A A r.A V 0.L.T.q.A o.r.0.*.*.t.t.U C e V 0.r.0.0.r.r.m.N n F A.m.r.r.U 0.r.A.t.Z t.P.n 1.r.1.V.V.0.*.1.0.H.R.V.t.H.F.R.r.A.H.Z M 1.H.o.C C o.o.n n C o.o.n Z q.o.v.o.A Z +.0.o.o.0.v.A A Z o.q.v.0.V h o.+.q.A n Z A N l.Z C 0.Z o.A Z Z 0.C 0.0.r.A B Z Z Z 0.A Z F.C n T.B B V Z n A C C C N B n n e C r.Z n n C 0.+.B V n w n 0.r.",
"C n n x h B C w g B v x v C ..L.} v x n x j C @.n !.n =.L.o.& b.e n n x n e e A x.A n x h e x A A q.C e n & n < B t.n L.h t.h A h 6 h e e x B !.V.q.o.B x e h n e 6 e A A e k +.e 0 0 h B V n n B n h 0 e B C n e k n n e 0 6 6 h w w B n r.0 0 C w 0.n Z e x C B 0 C e A n k n e C A C A B n o.B n o.e A h A B w A.B e J.0 f f B n o.B v.n B h o.B n n n x x n A V B n h e h n 0 e e A A.e % C n C n * A e n Z r.A e e B o.B e k h k n n n k k w e k k n n B B * w B B n n e 7 e C V n e * * t Z B t k n n N F n 0.n w Z 0.e 0 A n Z Z h n B * e +.n 6 C v.V n 6 0 k A B e h V e 6 0 B A e e B *.B e w w u x u * w B B C C e * F w 6 n C n k C M n B n e 0 e A 6 Z Z n C B e M *.w u Z A 0.t.n B w n *.n w B t.n e n q.t.B B o.0.0.n A o.B Z n A o.0.A k e B q.h k h h B A V n 0 n < h V B A.A p l.p N 0.A v.C N N 0.n r.Z m.A n B B B N n n +.B k F.n B B Z n Z C n n n N A Z Z C n n Z 0.V w k e C Z B C 0.Z ",
"x C.A A C B =.w C A [ ..o.q.C.L.n n C L.B G.x.C L.A n =.L.x.A B A C ..x.C.C.G.L.G.q.A B q.L.V.A q.L.!.B t.A G.L.q.A A q.x.[ B C C B C o.q.x.L.!.A A q.P.L.q.A =.o.B @.b.h G.B  .C n r.C B r.V q.`.o.e x.h =.v.L.A A A A A o.*.q.A ..A A A =.t.q.n A t.G.C.x.*.o.o.B q.A R.v.v.n C C q.R.R.0.Z j.R.P.*.B o.*.q.L.x.o.q.B 6 h o.x q.o.A A A A =.G.+.0.0.=.x.L.P.L.$.;.V.V.q.0.q.v.n n B *.q.o.A o.q.o.q.q.[ ..=.[ P.A.r.r.v.x.o.} o.F.h 0.Q.v.q.A q.V A.!.q.Z v.q.A.r.0.A.F.C n 0.e F r.C n C F C Z r.A.N 0.F.0.m.R.C 0.*.n P.w V.R.A v.0 L.B G.C ..0 q.R.n B G.n r.+.Z Z o.+.o.Z o.k +.q.2 +.n n C B A v.V.o.A o.B B A A n h n o.v.H.A n o.A B q.C A n ..o.B q.o.*.A A +.Z C A M.K $.C n A A A t.C n o.B o.G.C n h h h n A 0.A n h V A.n +.A v.B v.m.L.n A B 0.n B n B A B n B o.r.B h B A B V 0.G.q.C k h n A +.n e e o.0.w 6 0.h A h 0 A 0.r.!.q.B 0 e n w 6 x k t A 0.n w t e e n 7 C B A.n 0 Z R.k n Z k C C ",
"d j < d n d C d x n n h w w j n 0 0 w ..w B j 0 h n B B C C n h h h x C C n x n x h w 0 h B B e h h n 6 n 6 w h d x B C x d n o.j x x j h h x n n n C o.A n n n 0 * 0 f % n < 0 h q V d 0 k < 0 h 0 0 A B A B B e n C C B n n B *.A n h x B B B e h B ..*.*.A A o.h n 0 C h B h x h n C C B M C A 0.C x n n n q.x n C B e x B n A B n n h w 0 w B B C C ..=.=.$.B C $.o.B k h h n n C A B e w h n B n n C B n n x n C A C n e 6 A o.h A v.Z B n e 0 w e 6 6 h n B n w e t 0 6 n e B N e w k B N n n B w n C w n n 4 x n e F.x F.v.B o.e q.n A h B e C A w n q.B B n n n B B n n Z n Z o.6 +.n n h h h x n B B B C h e h B n h e B A C B A B x B A A h B A B q.*.K C C A A M C C :.M.A B +.q.A *.q.Z v.o.q.J.A B o.A A +.G.L.A.0.q.v.A V o.L.A 6 q.o.C o.A Z V V q.o.o.o.A B ..V.G.0.o.q.0.V C q.A.r.q.o.o.0.r.m.n o.o.Z v.r.o.0.0.+.B n A +.q.L.G.q.C ..G.q.A V.Z A r.J.Z C Z A r.m.B Z B r.n w m.F.Z Z r.+.r.2.",
"L.q.n C.P.=.q.o.L.L.L.v...[ o.x.C.x.x.L.C o.C j C x.b.o.o.C.C.o.C C o.v.v.o.C C v.t.*.o.x.L.L.V.v.A ..o.R.A C q.o.x.x.o.o.q.L.!.n [ ..B x B B j v.H.L.t.A A A A q.V o.v.A L.@.@.B B @.V V @.n k n B B h o.B C A n A *.o.B n A q...A A o.=.o.n e A A A o.t.t.*.A G.A A n o.n A o.A o.o.A Z 0.U C C q.q.A A C C v.h B A o.=.A B q.A B n A ..C n n V C Z q.t.;.$.C *.M.H.H.q.A B n B A q.q.A n n A n o.C [ L.L.q.L.C U r.r.q...C C q.n A A V A n n +.o.V B A B B q.2.A.0.A +.F Z A.A Z A C B B C F +.C C B 0.r.k C 0.n 0.Z n t.w Z B B B B A B B n n A A B n o.q.o.k n B B n n n n A n C A e o.n n o.A B n B q.t.*.=.B n B A C x e x h B A h h n h x.*.e B A B q.o.C n n C A C C C -.$.x h A +.B B B n Z n k B w e n k h B Z +.A B n V 0 B n J.n 2 V h 2 o.n A w n A B n n h e B o.n h k n e < < w e h n n B B B n e n e e A o.B B A w 0 e e e n n h e 0 e B x e n n e B A n e n n V N e n e C e 6 w 2 e e e C C C ",
"A n h o.q.n d 0 n n x j h j n B C n n B d w 6 6 B x 0 1 w C C h 6 6 0 j x d w w h w 0 0 e n h e n x h n *.B h B B x 0 6 j o.[ h w B [ x x [ o.B x ..o.x w h n x k 0 e k f B B h B C  .A o.r.o.V n A A 4 A e n A B B n e 0 e B q.n e e n A A n e *.A n n B B x e C x B o.*.n n A x *.v.*.Z 1.Z u n A A B A B n o.h B n B o.x e q.n h h B *.*.o.A n n B o.=.C C v *.x.G.G.v.+.A A n B A A C B C A 6 B w 0 =...h [ C C B n n B B C +.6 A B w B e h B q.A V r.A e n n 0.Z n C Z A Z +.A Z 0.Z B B B n 0 w e Z A 0 n B x *.A B Z e A x C n q.B t.o.v.w o.o.B q.x.A A A +.q.q.0.o.A A Z A Z A V q.Z V o.B x n C C B B x B A A n e e x q.A q.q.h n q.A R.H.B o.t.o.v.o.C A U +.0.*.t.Z.Z.G...Z J.L.v.G.q.+.J.0.A +.B A A A A 0.q.q.q.q.A o.o.L.q.r.0.L.v.+.B m.q.m.o.r.v.t.q.o.C A q.G.G.v.v.v.+.C A +.n B A o.o.o.A A r.V h A m.A C L.R.B A G.r.v.R.L.v.v.o.*.G.q.A t.F N Z r.A C 0.+.A Z C 0.0.r.C n !.A R.A.A A.Z A ",
"..o.q.q.b.G.q.=.[ C n B [ =.q.=...A [ ..q...o.q.G.o.C o.o.o.o.v.[ C [ o.q.q.x.C.v.o.B A q.v.o.A A v...B A q.A A q.q.[ C q.P.L...0 C o.C B =.q...h A o.B n A o.A @.V A o.@.@.G.o.@.@.V C  .o.o.B 6 B q.h G.C A A A B x e e h B ..*.x 0 e n C A o.*.A n n B B n h 0 w h o.A B n A 0 o.V.Z C / U M A ..n x A A B A A o.n n A n x G.o.B x B A A A A B B A q.x.$.C C ;.x.M.v.q.+.o.o.t.*.A A ..o...A B v.B h q.C w n j.Z B C o.q.q...m.e r.o.n o.V Z n q.o.A A.+.e n n 0.C e n A A Z A.0.0.0.Z N B C C e n B r.r.e A Z A V.U Z A C A B q.B v.x q.A G.* n h 0 A A e x k n B n n h e w w h e e n k n e A h h o.o.x w x B A =.q.A x n C B e B B w w A n A B 0 x B h n e u n n t e e B K b C x h B B n C B n Z B k n e B h h n B B h n A o.h V A V % 0 Z e e n 6 e h A n h n n h e e n B o.B n n n n n B h h n n n n k h A h 6 e n w e q.A 0 e A B C r.o.o.o.B n A B n A N e n V n n C B V n n e n e 7 6 C 6 A B w C e e ",
"..C o.x j ..C o.C n h j B [ ..[ [ C C j o.j x ..h x ..v.C 0 d =.A n x n B B A q.v.A B A q.=.A B x q.n e 0 B e e e n A C B C [ ..B q.b...C ..o...G.L.L.v.q.*.o.A V B V V  .n b.A @.q.k V @.q.L. .A *.q.A t.A o.q.C C A A A A A C A n x A q.A C C A C B C o.t.v.v.h n n o.C q.*.v.e A o.B n U 8./ q.q.B n q.q.A o.A A B n B B o.P.=.B x n C A A *.C n V q.x.$.C A V.M.M.t.o.A C B o.A C C =.v.q.A q.L.q.o.C.q.A v.H.1.Z t.L.P.b...r.B o.o.A o.A o.A q.0.A 0.0.Z o.m.R.r.B C 2.A.R.m.r.Z B t n N Z A.0.r.0.F.F.C 2.H.A.F.A Z n C n o.v.A q.e B h A o.G.o.A H.G.q.L.G.m.v.v.m.v.q.o.V G.r.o.L.+.G.v.q.A o.G.C.C x B q.A B ..q.q.A B A o.G.L.V.V.H.V.t.q.n q.V.q.G.q.M.A.j.F C Z V.G.Z.P.V.q.v.q.o.t.o.B q.A V A n q.q.Z Z r.r.o.+.v.R.B A B A.e B V n V r.w A A T.v.C o.o.C B A q.v.v.o.B n V A Z Z r.r.q.q.0.o.o.o.A v.A w k A +.q.Z C o.0.A o.r.+...=.A B o.o.A v.A.Z +.m.r.r.A.r.F.0.0.B Z B Z 0.w * e k n Z A A ",
"L.C o.C C ..h [ C A A C B C o.q.G.q.o.x b.h h ..e n A [ B j n C C x h j j n C o.B n B A C n n C A q.e n x o.h n h n A [ B h B =.j B C n h d x C o.B h h e 6 < < h k k k B 2 @.k k B 6 h [  .v.n v.C x C e e h B w h B B n x h e e 0 h A o.n w w n n n n B A q.q.h A h B e q.A A n B n x n N M p C A n h C B x n w e x h w x A A x e w h n B A q.n w e B C n v C $.$...A B n e 0 6 e h n A o.A h 0 h j h h j n A x w 8 w n n h 0 n V e n V e e e h h n e 6 w k e B Z B e n n n C e B B w 6 w k n e e n 0 t N 0 e x x n 0 B n t.C A *.A o.n B n C e 0 < 0 h 0 6 x C n h n B C n h 6 Z V h r.e Z A n A *.A n B B n n e 0 h B B n x e n n B A B x n n n 0 h n e B n M n e w e B C v -.;.A B A C x n n w n e e e 0 n 0.h 0 n o.A n n V n k e A q.o.e B B n h n B Z A h n n e e n A o.q.0.A B B B V B C C B B n n n k e B e < e C B k A G.G.o.Z o.A A n A B n o...A q.Z n n A C C A n A n C e C w B C A 0.n n C k k e ",
"C.w A G.R.G.h o.j C o.A n x [ b.b.q.o.n P.B [ L.q...x d A L.C.C C n j n B C o.v.*.t.H.L.v.o.q.R.q.A 6 o.q.G.n o.G...A =.q.A C o.n B A ..C B ..C.*.n h B o.A A *.V  .@. .o.0 L.[  .@.f V @.[ q.q o.x n !.A ..B B h B ..A n h n A G.A n B A C =.P.q.q.q.o.o.o.q.t.B v.A o.n L.o.n R.G.v.V.F.F.Z e A t.o.A =.A B A n n t.t.B *.G.A q.o.o.=.q.q.G.R.r.C C t.C.x.M.P.V.G.G.H.V.q.C n n =.G.H.G.G.*.n v.q.C.x.C C q.v.V.0.A C A o.q.q.m.Q.A r.!.o.0.o.J.A.R.F.B A r.B N 0.r.m.A.+.n C e r.I.r.F r.r.A C +.r.n A J.Z r.R.H.r.x 0.C H.A x B A q.q.q.q.v.t.A A L.R.q.A t.q.A n B 0.v.0.A h L.A.o.!.B L.L.h v.V.h 0 o.v.B n B A o.A B o.G.v.L.q.A v.*.B q.L.H.A *.o.B v.t.$.A B B r.R.F.*.$.$.x h A A h h q.n A B B C k Z R.B 0 B G.G.Z n n R.G.0.B [.T.n G.0.h v.A o.k C B A C h h A v.G.q.v.v.o.B n n n o.o.o.Z A C B B Z n e B A.q.C +.n R.F.B A A n B n *.o.A q.q.o.q.r.V C r.0.0.0.V Z V m.Z m.w e 0 e r.e V J.+.A.A.",
"n q.=.A [ C j j w 6 < w n x j o.B x h n C C j 0 6 e 0 < 5 v C v B g x x.=.d 2 q j ..w n j q.h j x < x., n 6 w h 6 C v.B G.4 * B [ e & e n n [ 0 6 q k 6 6 6 $ q w o...A n n q.C h n h 0 x n x C o.e C 6 B n h e e h x e w 6 w h A B C A C n B o.B r.h < n A h e Z h 0 r.0.B q.6 C h e V o.0 2 B n n e 4 w n B h A n n B n e n A o.w r.w n h e A B n o.o.e n A h V Z e n n * 0 B B 0 e n k A o.0 ..n B A h w e e h ..n w o.0 A e n n B C e * 4 x B n n h e e h h e e h n e 6 0 n w n C C r.w A n 0.0 n B n B e B B n h n B B n h k A r.r.A n B A o.n n Z o.B n A e ..6 A n V V w A A h r.B o.n q.v.B q.r.e B q.e h e h B C n h k h h C x.o.e h o.m.n C v.h r.V B C L.A q.B q.A w n C A q.m.A n o.r.n e n +.o.n e q.n ..G.o.A B 0 n o.G.F.G.m.q.A q.q.B n q.v.+.o.r.v.A.o.n A q.B C C A Z C C A 0.C A.C +.F B 0.e 0.C B B A Z Z C A.Z B A Z C Z r.A.R.F.+.Z m.2.n w e 0.Z !.r.0.w n A B Z A.Z n 0.n C C B B F J.R.",
"v.v.b.v.o...o...C C n n o.[ A v.G.L.C.o.C A b.!.J.R.R.v.;.C.G.;._.C.;.L.L.@. .r.G.x.n [ o.x...G.b.C b.h o.n C C A C.L.v.R.*.A v.G.o.x o.q.=.L.o. .@.b.[ [ [ f o.d b.L.R.L.q.b.C 0 n B [ C.C.o.o.R.*.H.B x.x.q.o.o.*.*.A B n n B n A q.o.h w n C.G.6 A '.L.v.G.C L.A e q.q.+.R.A A A A q.v.A A R.C.v.q.A ..x.v.t.q.C o.0.A A q.0.0.B o.B A V C r.q.t.G.V.o.q.V.q.0.v.n C o.h n n m.o.r.A.q.G.J.B v.A q.L.G.q.*.B n t.A n v.h o.n C o.q.q.o.o...A A o.+.0.o.Z A A C B V A V n n C r.r.r.+.F.C F.0.F w A +.A F +.J.t.o.C A q.V.t.o.n C o.q.0.A n h e h B Z C n n V < x & h 6 e n e A Z Z G.r.v.+.r.o.k A o.e B q.h B B B A +.r.m.v.V.B h B o.A n n h w A m.h o.e 0 B v.n A e V C h C o.V B +.o.B B k k e w e B n e q.A o.v.q.A B e A o.o.C B B C V B C k k o.o.B B k h B B h B o.B n n n n n n n C e Z e n n e A e B n e n C F A B n k n B B e w w e e n n n n n n w n V Z Z 2.Z B +.A n n n w w C B C C n e e t n ",
"b.n A o.x j A C [ [ n n [ C x [ C d 6 j v.b.x & 0 e e 0 w C $.$.M.v g B C k h n q.n d x q.j x q.b.o.B x A n ..n B ..C o.A v.A A q.[ x [ C j o.n C V @.n B V q A C q.B n j x =.C q.o.d 0 n C C q.o.h A 6 x x h e h x n n x h e e A A ..q.o.C n n e n h k A A h w A e * e e h A e e n B n n h n m.A B B B B n B o.A n V A e B o.h C V 0 n h h n B B q.o.n n n n C V 0.e e B k e < n k n n w h V h A h n o.*.=.o.n h A B h A e n e h C A B A v.=.x h B Z +.o.A B B A B n B C B n n +.C k w C e 0.B V 0 N B e t k Z C n h x A o.A C A B n C q.r.A h n 0.A.r.A A +.r.w ..B q.V A q.+.w k o.A +.A Z B G.o.r.r.B o.G.A h B V B o.G.F.v.t.B h n =.V.q.B q.q.G.v.e r.C A q.F.B q.B Z r.v.v.v.B k +.m.+.A n q.r.V A R./.R.t.t.o.q.G.q.C A A q.m.r.+.A n e A o.C A m.r.A C v.+.v.F.r.q.m.v.0.r.r.m.m.A.I.R.A r.V B n t F A A B B A r.J.r.0.B +.m.A.A.m.2.Z Z Z 0.A.m.Z Z m.B 0.B r.n A.r.F.r.Z m.R.A.0.r.r.A 0.r.0.A Z Z Z ",
"R.n [ L.n h o.A ..q.[ ..x.=.C ..v.q.o.A C [ o.q.T.A.A x n ;.L.P.C v C =.q. .V [ ..B ..C L.B C o.o.b.x o.o.C b.[ B o.B q.n G.o.n L.x.C q.C h A h B B  .n V  .k o.w [ [ v.b...C w ..o.C ..C.o.d 0 o.B V.h A C B h n B A q.v.v.q.o.v.A x n A o.B h n L.A 0 o.v.n B 0.V n A o.Z C e h o.Z n n n n A x h n A C n C v.A.A +.Z e B +.e v.F.w q.n B A B A G.o.h n h w B Z G.n e C C B 6 A A A n e n +.q.o.x h n n C o.C B q.o.C =.C B n B A A A o.v.q.B V o.q.r.0.o.o.q.r.Z V C o.o.A B m.r.C n 0.V F.0.0.e C N e k e N A A C A o.o.o.o.C h 0 e V +.A n n o.A w 2 e n B 4 C q.v.A n n k 6 e A w B h A k o.B B n 6 w n 0 * e h e n Z C e w n C C C A A n +.0.o.n * C e n n B 6 n 0 e B o.r.A e e Z A B o.V +.A w 6 e n k e x 0 0 B e 6 h e n A A B h 6 % B A B A m.0.n B n 0 h C h 0 e e e k n n N Z 0.2.V A B e 0 6 e n n n n B V A A A e n n e k V B w e k N C n e e n n B e B e Z Z 0.k - e Z n k B e k N A C A 0.r.r.",
"L.x o.L.n d C n n ..[ ..b.q.A [ B C C j 0 0 x A /.L.A n C x.G.G.x C ;.C.q.o.o.@...q.L.C L.o.q.o.n x.n q...n q.C B q.o.C.n x.A h !.C.[ v.o.B o.j B B A n o.v.V b.G.C.j d j n L.G.G.C < & 0 x C G.B B G.x C C n e e n C q.v.v.q.o.C.q.B 0 < 0 A G.A * n R.q.A r.V A B B B +.q.n e n q.+.C o.o.C C C B o.x.=.C o.H.G.o.o.A e B Z n G.R.h G.A A +.A o.L.*.x B n e A Z R.A h n B A e n Z Z B n B V Z A n B n e x C B C q.*.A A o.n B A B B o.o.A A q.o.+.+.Z A A +.r.A B n n n B n e n C B e A n m.C 0.e N B n A C A o.q.v.v.q.o.o.q.v.0.A o.v.G.v.q.r.J.r.n n 0.r.A B t.^.R.G.r.+.+.B A r.e C B r.Z F.A.r.A n B A n n o.0.A o.A.v.V o.H.R.L.q.o.o.A 0.m.A.A.+.R.B V C +.e r.V A q.m.L.o.B q.G.V n G.J.r.A V V B A +.o.t.A C v.o.B t.L.L.G.0.A Z A B C A A +.G.0.n C A n A v.o.C o.+.A 0.0.F 0.J.F.J.m.r.A.0.C V V 0.r.A.J.A.r.r.A.R.r.r.F C Z r.Z e e +.m.+.A r.r.0.N n C n 0.F 2.V /.Z N Z B C m.0.n B N B B C Z Z ",
"o.j C =.j 0 h 0 w B n n ....B B =.[ [ q.L.L.o.n B e 6 6 e v v x w B ..C h f n V [ x.q.d B B [ o.C =.q.=.=.x ..C h A A A n B h h v.o.n =.o.C q.n B n B j  .b.A b.h C n ..o.C A h h d 0 n =.C j B 0 e q.0 h h e 6 0 h B A A C n h v.t.o.n n B o.=.n e h B n B V B k h h 0 B +.h n 0 n B B q.r.Z o.C C A A B h n A A A B n n n n o.+.q.n q.Z A Z Z n ..C h n n B A B J.V e h h B k 0 B B n V n w w B B o.o.n n B h B A A n x o.0 n B x n A C h B V.A A B B B B A Z n n n h e e e w * w t 7 B w A w A.B A B n Z C C C o.q.*.C n n B h k n B B n e 0 e n n h B +.V 0 x x t.x B B V A o.A Z n C C q.o.V A B h e h k h e h e 0 w n B k A n h e h h e w e k e n n v.w B 0 n 2 B h B B k V h e B V < * n A k e k V n V +.B B n n A n n A o.+.A B n h 0 < A A B Z v.A n A A n A 0.B B A C n B n e e B B e w 0 t w 0 0 2 e e B C B n n B Z B B n B Z 0.V w w Z +.k e V C e F C r.B I.0.r.n m.n e n B B Z Z C Z Z A A 0.r.0.",
"[ [ ....C n n n C o.C x A o.A [ C =.=.B e j v.`.R.L.m.q.*.C C v C x.C.o.C [ q.v.x.G.[ C x B B C.L.o.!...L.o.q.q.x A C n t.B n o.o...C b.=.C G.=. .V V n q.L.o.G.x.b.B C B n q.q.L.x.C C =...[ L.B A R.n A o.o.A o.v.L.R.L.v.q.o.o.A B B o.x.A e o.[.v.0 o.G.o.v.o.+.+.k q.R.Z G.e B A o.v.q.+.J.A *.o.B x n n n A r.Z +.J.V n R.0.C v.0.v.+.Z q.B C ..A n A v.q.o.L.A V A V o.C A v.Z C J.F.+.q.x.q.G.G.q.V.G.A q.v.q.A n C.h o.o.o.q.=.o.A o.v.Z A Z q.v.m.q.o.C r.m.o.B B C A B 0.r.+.R.r.R.B !.r.F.2.C r.0.r.v.q.o.A C B C C q.r.m.v.r.+.o.o.V A Z 0.G.L.q.n q.n G.h +.v.r.m.B n e A C Z B B A 0.Z B A o.A Z q.0.0.q.r.r.q.q.C.A n o.v.t.q.q.A C h V A v.k R.n 0.e o.A v.q.n r.G.A.v.G.+.A r.G.v.+.V n k e 0 q.A o.t.o.A q.*.C o.r.r.r.+.n 0 k e 0 e n w 6 k 0.o.q.o.B C o.B n B n w e B n w V w B n t B w B n B A 0.r.r.r.0.B n B Z 0.Z Z 0.Z 0.Z B n B n e C C C B C B n w w e t A r.A B 0.n N A C A +.F C ",
"w n x 0 d d w d B [ h 1 0 h h x d 0 6 d C =.o.C e e e e w w x C 5 x B h d n B k [ o.h o.h w 1 o.A < o., [ x x x 0 e 0 * t.e e =.x n n o.n w o.A B f f 0 B @.k [ n ..C =...h B j h j x [ q.B e B w e o.* 4 w h e e n A o.B h e e h B x 6 & 6 n A h * e Z n e n e 6 0 w & e V * w e n B B B e e 0.n A B e 0 h n e e +.B A F.e * G.n 6 r.h V h 0 n x e B B w n *.B n o.e k V h n e e n * O k o.A r.o.B B B B q.v.B A o.A n w t.0 A n ..o.n h n h 0 e e n Z v.r.C h e A q.B w 0 h n w n n e 2.C +.* A n +.B e Z 0.r.x.A h w h n n h C B n e e n A +.o.A A Z q.r.Z n C 0 o.0 Z +.V m n n e G.r.G.B V h C n h B B n n n n A v.m.A h w B h n o.o.e 0 h e n n v.r.o.< r.h +.e B n v.0.e 0 Z A e B o.A n k o.+.B B r.r.V o.n A q.n B o.B A A A V Z r.r.o.q.A n C +.B n 0.B V o.A n 0.G.+.C +.Z B C r.r.A m.n Z B B Z e Z n n C m.R.!.F.r.R.A.2.0.C n A F.r.Z C Z +.Z Z 2.m.R.r.A.B r.C Z B 0.A C 0.B B R.0.r.A.m.m.r.Z n ",
"C.C j q.6 x C q.0 q.o.n C A C v.q...n j B q.b.b...=.o.[ ..q.v.v.B C C.L.B j o.C.P.h *.x.L.[ T.b.L.=.x n n G.C L.x.C C C j j C B C o.q.=.=.x.v.x...o.q.b.b.q.v.L.o.....o.....q.C.C.=.x n o...n B C C o.C w =.0 [ e r.P.n P.v.x.o.A h B q.A R.B L.C !.C n ..B L.R.n [ o.[ A o.q.q.F.B B +.n 0 B L.L.r.Z +.0.A A Z !.q.*.o.V.t.n t.!.q.q.o.G.B o.q.n B A q.x.x.V.L.L.q.x.B n o.B q.=.w B n 0 A G.P.o.H.L.G.n A R.B v.x.C h C G.q.e n R.v.x.A G.B n h q.B n G.C.A q.+.k n k w A m.B n B C o.A R.h r.A n J.V o.B B C V A n n A V C v.n o.o.n B v.v.A v.Z n k A q.0.A v.A C +.+.B B o.=.C ..h *.n A x n *.v.*.A o.A n n A A A q.A w 0 B e e B A n h n B B B B V A B e h n n n B Z A B T.0 G.m.6 h n h C o.A h e n V n r.r.B 6 k A.v.e o.A h 6 6 e B C B Z k B 6 n n o.* r.F.2.0 6 m.C e B N e e B C N Z # Q.* k k 0 e e B t 7 n B e 0 o.V n n B C n e B n < n n 6 n n 0.k w n V n n B w n n k n A B 0 w e n B n w w w ",
"n 0 d C 4 0 w 6 d h B q.q.x j b.[ C B n C o.o.C B B x h h n h 0 C C o.[ 6 1 x ..;.5 v B A 0 B f C j j n 6 C j b.A x n n 6 1 w d , 6 w w e h j h o.[ [ [ C j h j e h B [ ..[ [ ..n n e h C n d n n n B d < x j o.0 C x & e n B [ A w 0 h 0 h w o.j =.C A o...=...d h h d h B C B r.e e C k 0 B b.B n k B C B B A x e n h B n < e n n t.o.*.0 n o.x x h e e e B o.o.h n e h B e h q.e o.o.h n h h 4 e n o.A =.R.C n t.V.A B q.G.t.x q.o.h C o.o.A o.n x B B B B n +.V V n e n n 6 n o.v.q.n q.h L.A n v.B +.A A o.B A B B A B B r.o.q.o.B C o.o.n Z B h n A 0.C h A C B V o.r.0.A *.C h n h x x B =.V.t.C n A *...t.v.o.B A B n C Z V B A A A C A n n k e n A o.A B A n A V v.0.o.q.e L.L.n B B B B Z Z B B o.0.A A q.+.B A m.v.B A C C A A A Z +.A Z n q.k C C G.0.0.Z R.m.N F.J.n 0.0.C F t Z w M M 0.Z n B A n n 0.0.Z r.0.C C v.m.r.0.r.G.r.A +.q.n +.A w V V v.C B A o.B n B A A Z Z A B n n A.r.r.A.r.A C F ",
"n h C B n n C 0 n 0 x =.B w j [ h j j n [ q.q.o.x.=.A B A ..B d q.o.b.q.h w C q.C.v =.C.L.[ r.@.q.j C v.h v.=.b.q.o.v.x.n h C ..o.x.C.x.=.=.o.[ q...A o...A C C w d n C A A [ ..A o.o.q.G.q...b.B o.o.B B x b.b.C j.B w e =.x.L.L.q.A o.q.e =.L...C b.v.x.L.q.[ C C n n C q.q...A w e Z B f n [ v.r.q.q.0.o.0.v.A *.G.q.G.L.C o.*.n C B V.B C n 6 h A ..A A o.q.G.A q.o.v.L.o.A *.e A q.A B e h n h e o.A B o.0 6 B o.n e n A A B o.q.0 A n A x L.e h o.h n o.h k V n k V V k e n A A n 6 h 0 q.h 6 B 6 h e k B n A C B C n n +.n x h x n B n n B h e n o.o.n 0 o.0.A n A m.+.e A B 0 B 6 h e o.B q.v.*...o.A n e C A C A n x C n B B k h n B n B B n e e n n n h B w n e 0.A o.w w o.o.n e 6 0 6 e h e h V C n e n B n h n V A e e n A C n B A n n e V e h h o.C w 6 A Z k Z C n r.0.C 0.e +.0 : / : J.w h o.e e C Z 2.r.C n Z n Z o.B n A A h B V k A B 0 h n A n n V B h e n F N B Z n 0 0 B r.C n C V e w n ",
"B x ..h o...C.B o.C [ n 4 h [ j d x n x A v.L.v.o...C n B A A n d d C ..h w x n v w x ..[ k n C q.6 h q.h G.o.n [ B o.q.n j A [ [ =.q.o.[ A C n A n h n C C [ o.C [ A B C o.q.v.C [ C [ q.[ B o.d A C B q.0 x.j 6 n w e < A n [ n n h C q.* ..o...w o.C d o.C C j x j h x C A C Z n A J.v.V B j q.q.+.A B B A q.h A q.h B v.C o.L.n e 6 o.n B w * e o.=...A q.x.C e n h B *.n n o.0 x A A C n =.*.A n V.H.q.G.q.o.q.=.A =.C.q.n ..V.G.A G.q...n L.A A q...x.G.A h A n n G.m.A r.F.G.Z V o.r.Z v.Z n r.h B B A v.G.R.J.m.v.o.o.T.q.A A q.v.q.q.v.L.r.0.A.R.R.v.o.A A B k n A C h n C x n w B B o.e A q.q.=.q.C e B V.L.H.G.q.A x.B q.r.A V Z o.A r.A.G.m.v.r.o.V B q.B q.k G.v.R.V q.r.0.v.A w n h V Z A +.v.r.A A A A C n n o.L.B Z o.B n A 0.0.A o.A C n B B B C C Z Z C 0.J.+.n V B k w C B B 0 A.9 Q.B A G.B V A Z 2.A.C n 0.h o.0.n e B A n n B B +.0.A A Z C V C A C B C q.2.Z C A B e n C 2.n e C C e e B ",
"6 0 j < B n C d b.o.=.C 0 B q.n n [ ..C [ q.o.B B C C h d j C A 6 4 h C h e j h B C B ..B f 0 k q.0 C C.d q.[ n B h n C j j B B 0 j n n B [ o.[ v.[ n n x n C ..j x h w 6 0 d d x x w d C B h B B o.C B x.e =.0 0 n x A e o.B n e h h B q.< o.A ..0 =.C 0 C B [ 0 j x h d j n n w 6 e V n e 0 < w h B B B B C A e C o.e x q.B A G.o.q.n A h A o.C q.q.B h B v.L.C e n e h C n o.A e x n B n w o.n C x q.t.x B C h e w w B o.B 6 0 B h n n =.x x 0 B w < n A h w w k 0 0 V n w n V V e w V B B B n e 0.0 w 6 e C B A n e e 0 0 B A n h x x e e e Z n e k B n n n h w w h n n A r.e A v.n A o.m.C n A A n B 0.q.o.A q.A h e 0 0 n 6 h B h e e e 6 6 e k k k n e 0 6 k e e * e e C n Z e 6 B h 6 0 0 h n h n B n 0 v.o.A A V B o.G.A G.v.k e o.r.V C r.r.n B 0.q.n o.V A V B r.r.n B k C n * R.0 o.p Z / F.Z 0.r.C Z A n C 0.B e V B r.r.n e B A C n k B o.v.v.+.+.B n n n n k V 0.C A B e n C C n +.n n 0.r.Z C 0.",
"C q.b.o.R.G.q.=.q.j x q.o.n n [ e A q.o.=.x...d C ....n d j B [ A x C ..B B ..[ C x...x.o. .n r.q...P.^.n =.o.L.=.B C [ B B A C C ..o.o.o.b.L.L.v.o.A C n n C q.=.C.G.o.A o.[ B C C j n q.q...x.b.b...B [ B o.n U *.t.V.C v.b.;.A o.A C ..n v.v.o.C G.b.[ [ [ q.x A o.[ B B C C F N C Z B A q.o.0 n Z 0.+.Z B h B q.G.A =.L.A A V.o.t.A G.*.v.A B =.q.B n A V.H.v.A q.A A v.=.L.n n A B ..A w A *.R.L.^.!.A A o.e n C A *.v.V.v.=.L.B q.A R.q.G.C P.o.x V.v.n A +.A B V r.q.A q.n q.o.V q.n q.m.v.+.!.A A k B q.q.r.Z A o.A A m.G.v.o.A A o.o.o.A.o.A o.o.C A r.V h n A C n A L.n o.L.k q.o.m.n k V V B A v.m.+.*.v.q.o.q.o.C o.A q.G.G.v.r.o.V Z 0.+.A B C A C A +.q.A V V Z Z A G.h e o.A A A Z 0.o.A Z r.o.n o.V n B A V B n n r.q.h e A A w n C Z w B o.r.n G.0 w n  .r.k 0 V n +.A 0 !.0 C p 9 F.C C A V n r.0.B B Z V e n B A Z n e h B A n e C C o.r.B A n n n k e e n V B C B e n Z C e n t n N A C N C ",
", w 4 0 h e < h [ n h [ x.B h ..h ..q.....b.x.C x B B j d d j j C h x C n n C n < v w x e k 0 o.C C o.q.d C j b.[ x B C h h C C x B n h h n C C 0 w h j d 0 j A w n n e w w w 4 j n n C =.[ C =.B C C x 6 n h B n w B x 0 0 B w 0 h h 0 6 B h h x [ B o.o.j x B h B A C B B x e e w e w < 0 n k h B B n n B h 6 h x n 0 h B 6 0 q.x h 0 q.A A 0 * e B n x B A n x 0 x e x C e h e o.V.A *.q.x q.$ x e n o.n C t.6 e n n n B A o.n B w 0 e n e h C n e h n 0 6 h e 2 2 e e e h e 6 n h 0 V 2 A A +.B A.n B e w e n B n B q.+.A r.o.o.B h x A *.A V B C o.C e h A A A A A A V A o.r.A A n V n B B w k V V +.v.+.n 0 e h B t.o.h e A A o.r.r.o.B n A +.o.B h e e e B e C w r.B +.h w A 0 0 h w n h B B n e n A A k r.+.A C o.q.Z B o.o.A A Z o.A n o.n C n r.Z v.+.~.A r.r.L._.r.B n V B k B B B q M p F.F F 0.0.A A.R.A.0.r.0.C C B V Z +.A B A q.n n A.+.Z r.V r.A Z o.Z Z Z Z Z 0.0.2.0.F Z C B n C C B n V C N ",
"C q.h ..[ =.B ^.o.L...j o.q.A o.x.L.b.B n q.C.=.B A [ A [ ..A n x e n =.o.[ C j v L.} =.C  .h L.[ n w j n x.d ..[ C o.=.n B x.L.B C C n n [ q.x.w h C [ n h x A x C n w 6 j B x w n C A ..n h C h B v.=.0 =.e x.0.n r.C B d o.d e C v.*.B `.A C [ L.h A C.n A o.B A A [ o...n 0 C Z m.r.B V o.C o.A n e h Z q.o.v...B w n A e B G.v.V.n A n q.*.B o.A h h B o.C A n o.*.V.H.B h n G.L.x B A e A A L.B n A B q.R.A C B B A A C x n n A h H.o.q.A R.0 x G.B 6 n q.q.h n +.V n V e B C 0 6 r.h v.B v.V m.n +.B e w w e e B m.v.o.r.v.G.o.e e A o.n h n Z v.A e w B 0 h n e n A V e R.A 2 V w w 2 V k k k w e A +.A B n w w n n 0 6 +.B B 0.r.A n B w n C B n n e w k < n < R.q.F.h w 0.n B k 0 B e A A B k B r.r.Z Z C h 0 e B V n A 0 < e B e e B o.2 0 w o.0 h B 6 k b.0 1 r.B , d [ 0 % V o L.1 9 e N A n B Z n e F Z k k e 7 0 e 0 k Z A h k A 6 0 q.B e n e o.6 w h n n B n e n e n C n - * 6 n Z C w 0 e n e ",
"C 6 q 0 V f @.L.B =.x q.q.n =.C q.L.w o.n C [ j e @. .f k f 0 k e d L.6 q f d f 0  .n q [ @.B V n o.0 h w A e x  .C G.j @.k k  .f e q h V o.[ n C j d d j [ q.L.C 6 j j C [ < 1 n B L.B 0 n 0 B o.A.J.r.o.+.+.A n e w n A B n n B C B C C e e +.A w C 0 B B A v.B h e x x e h B n e h A r.o.B n A n B o.C e e A e e n A B e x o.m.B n Z o.n n Z r.B n A A k e n A V n k n B A A F.v.o.V B V o.q.h B q.r.A k B v.C A n e V A A o.k 0 A e V V o.b.V n k n V V e 2 q.q.+.Z Z Z C n C A B n n o.q.+.0.C A 0 * w n T.C C m.+.o.G.v.R.m.A n A o.V V o.B V A o.q.q.q.+.0.B n e A v.o.R.o.e B k C n 0.C V A.A A n R.v.B A Z v.h q.o.v.n B n 0.A./ / l.l.!.F.r.0.q.q.o.A h C +.Z C A 0.r.J.o.e 0 w h n n Z C n 0.B 0.Q.0 +.Z C n V +.v.m.+.V n n V V V A +.G. .V +.n h r.q.n n +.o.+.q.o.o.m.n e o.q.n n h q.A e v.v./.k F.J.A A J.A k A.r.F r.+.k A J.A A.L.G.+.V C Z o.n A J.!.L.A e e A.A.A.A.+.N C 0.B n B C 0.2.+.C ",
"0 f z j V B V n h h w h x e n x C [ j ..C B C C q A  .B C B k k 0 f q.C [ A k e n [ B B [ q < h h *.B x.q.L.C A k 0 n 1 V k f V 0 0 q h V @.o.V n n j j j n B C B j B d n [ 0 n B d o...C C w n B A B n B o.q.0.A h 6 6 0 w h B o.A e e h e n G.v.x A e A B n B h A =...B C B n n e e k k e e h A n n B n e e n e x n n B C C B A o.q.q.Z B B A e e w e V q.q.Z B h w 0 w e e e < h 0.J.m.B 6 O 6 e n k e w e e 6 n k 0 e n n n k 6 B d L.T.o.e f q 6 6 w e h k e e e e e k n B q.o.V k n C B k e w B h e h 0 e * n L.B 6 w w n h B B h 6 0 k A n C +.o.A B V A C n V n o.0.n +.R.h e e B e +.v.A.A 0 h 6 h w n n 6 e e B * 6 0 A e V 0.n N Z p A n h e h e w 6 n B C n e e h e n h w 0 e k B A C V C r.V A J.* V B n k w 6 e n n e w w e e k n e n e w B k e +.B e h B h h n n e V e < e e < 2 e A B 0 V n 0.* t n e k C e 2 k e k C A B A +.V B B B n h h n B C C o.r.+.B n B Z C C C C B n n n e e t B C B n ",
"[ b.o.V z b.b.o.R.q.q.o.o.q.A q.L.o.L.L.!.v.v.!.q.@.r.r. .o.o.B o.@.k [ V V V n  .C V b.b.q 2 o.*.G...o.A v.A o.L.[ o.k b.v.A q.n n n B A A V B h n o.b.b.;.C n v [ C 6 j C d [ =.w n [ o.B w n v.q.A B A 0.+.A o.A C A A B B V A A B C 0.A C A.t.x q.B V.q.A A x C.P.=.C =.q.A q.+.o.Z B k k B +.A B B A A C B A *.o.C o.G.x.n 0 A v.o.n n n h B A B k A F.G.A 0.A n n C Z A C r.q.q.o.A o.r.A.A o.0.+.q.r.o.B n m.m.A o.q.o.Z [ n r.j r.b.r.A +. .A V V A r.m.A A C C A o.q.v.A C n k B A C n +.B o.A Z q.n n A G.!.A n v.o.B B r.v.n e V q.q.A r.G.m.Z V Z r.Z A q.A +.Z e Z A 6 +./.[.C h 0 o.V e o.n C e n Z B +.0.r.h n Z R.A r.F.A 8.F.M C B n n B n k e B C C B B A o.Z o.+.+.o.A A Z +.B C 0.F.+.Z r.6 V V V V e * 2 h B n k k k k V +.n V k k A V n +.A B A +.n n A A A v.o.n V n e h n Z A n o.B 0.e n F A N A n t V 6 t n k V A N A q.V B A o.A A q.+.B n n n B A +.C n w n C B k e B k w e n B n w ",
"n X.h k 1 X.[ [ o.w n e e C 0 n o.< A d A w 6 C q.k n k 2 0 f * e k o d 2 2 q 0 d 2 0 C B 2 2 V B o.x w e x h B V e d 0 B k 2 f 0 0 0 q q 0 6 6 0 d j x x j h h x q.B , d B h C L.B j n B x d B n n n n n k w 6 h e h n B n e 0 6 0 0 e B h 0 h e < B e o.n h h e B B 6 * 0 x x n n B V n e 0 6 e w 0 0 k B n 0 n x h h n n h 4 e C q.o.n e e e C A B h h B n w 0 0 0 0 e e h h e h e e 0 0 e h e 0 w n B h 0 0 e B n e k e 0 w B 0 A 0 B k n V e e e h f e w 6 n e 0 w w w 0 0 0 0 0 0 w e e e q.B o.C Z q.n n h e h < 6 B h h e e 0 2 0 n n w V V B n k k n V B B A k n n 0 o.o.w A 0.r.0 e e 6 B n A k r.n w 0 B Z n n C A k B 6 n C 6 p Z 6 n n h h n B B n h h h h B 0.r.q.q.0.o.A B n n n 0 w B Z n k B 0 k e k V h 2 2 e k e e h e q k A n k e h n n k n B n A A n n Z Z 0.q.A B n n k n n V B B B n B n A +.A t e e n A k F B e C V n 2.q.n e V Z B n A 0.B e e n Z q.r.0.B e n C C B n Z V n B A A n w ",
"B X.[ T.q.L.@.b.C w A A =.L.A G.~.j q.n v.C n x.b.C  .@.B C A q 0 [ q T.r. .o.V o.B B  .[ [ @.q.e A q.A v.q.*.q. .C  .@.b.b.B G.A C [ q.v.q.q.b.L.C.o.C B A q.L.x q.x 6 x A C n =.o.B j j x B n n C q.m.m.r.r.r.v.Z n n A q.r.+.q.+.n n A A A v.o.A !.G.P.*.A q.G.q.A B n B *.G.o.o.o.q.v.r.Z n o.+.0.q.G.F.q.B q.C A V.V.A B o.o.C A r.o.h e n B n B C B h n A 0.r.A.v.q.+.0.r.A q.G.G.q.B h e A h n v.v.n k o.G.+.B o.A.o.B r.@.< f B R.@.h q o.A A @.m.m.+.n A.Z V o.v.q.C n h n n n e e h n n n q.q.q.0.e w n h o.A k h k J.G.Z C q.G.v.q.q.r.B e 0 h B n h B B o.B V C k A.T.q.A.n h 0 q.q.A q.B n w o.C B h C V n B q.Z k n w C A w n / e n h e e h B A o.A C n n B o.o.C Z B n k B V V B n e N B e n B A n k n A A k k n k k k k e w e n f 6 w k n V A A V n V A V +.A.r.o.n e e e h n h r.+.Z A n n e n A A A e 6 w n n 7 k 7 2 e 0 - t 0.h w B Z B n C A n e h A q.q.A r.Z B B B B C Z Z A A Z 0.Z n e ",
"6 0 6 j f k f n e 0 n B A A x B G.j j h [ B n o.< % 0 B B k d 2 0 n f V f q d e 0 6 0 6 2 n o.k < e h < e 6 e x B B V @.A V 0 q.n f f B V n k B 4 w n B B n n n B A h n B A t.x h ..C C B B o.j 0 0 e n k e n A h e 0 0 e n n w e n e w h e w k 0 0 v.B A e e B n e w h x e e n n h w 0 h B B h B V A o.A B h w e 4 w A A 0 0 C Z e e A A w 6 e B n V 0.A h B A.Z 0.q.o.n e w w A Z o.A n n B Z n 0 e A C 6 6 B Z h 6 e Z V n o.v.q A [ L.o.V q.B h w f A +.+.A V e e V 0.Z B n n n B B n n B +.C n +.V B A h B +.e B Z C e 2 V B k n Z V e k o.R.q.n k A +.A n w h Z A o.o.n r.C +.Q.m.r.B 0.h 0.V k G.o.o.B G.G.o.B A.r.q.B o.A r.F.m.Z 8.r.Z A B n h n C q.m.q.q.Z V A +.o.C q.C h h B A Z A r.C Z N n B B F.B V A A A A n k n n n V B k k n V e k A n B A V Z C Z o.Z A.R.G.A.B n B n V +.C q.o.o.Z n 0.n o.F V A A e e N n A 2.r.m.J.0.A 0.r.V B o.r.q.+.q.n k h n o.r.Z k r.Z B n e w e B B N C A C B t w ",
"C B n 6 d z X.[ h B B *...h n x o...d A B C ..o.0 f k  .v. .n V q.o.q.0 0 d k B h q n k q V b.[ t.G.G.e B h o.v.r.@.[ r.B B 2 q.v.V B  .o.B f h 4 h q.F.H.t.A B Z B n 0.x e r.e h C h ....x o.n A B B A B h e k h C o.Z A C n w 0 B A A o.B h n e 0 v.A *.n B o.e x B C B B n n A A V n B +.0.A 0.+.r.A.q.B n Z n h B q.q.B n o.n e e B V k e e e h n n e 0 e n C V B B B h 0 2 6 k o.r.0.A A Z n n n n h e e e n B w 6 n C B B k f @.0 e e A G.V k w 0 e n B V B h k A A n n B e 6 < 0 e e k B Z h h 6 2 e e C !.B n n A A e n n n n k e e k V C B n n B B B n 6 6 k h B B w A C e A h k 0 n e w 6 6 v.A B e Z B k 6 V e e 6 k 6 A B e B B w 9 V n h e e h B A n B n n n B B n 0.C h w e h n n B w t 7 w e 0 r.6 n V k e e e 2 e w e n n k e e V w k n 6 6 w 6 n n A B h V r.o.0.k B o.n n Z B 0 w k n 0 r.h B A w e N w w n k e w n A n e e e C B n B C A C B B B B B o.r.A e r.Z B n e 0 0 w n B C N n e k n ",
"n o.L.d [ [ r.d 0 A n v.q.n v.q.[ L.n L.A ..b.q.A @.B B q.V k q.B h G.6 k  .A V o.B @.@.e f A k h A v.x o.e B A L.v. .b. .v.n ~.r.B k  .q.A n n H.H.v.Z n n C *.r.B B A.0 * *.0 o.C 6 [ o.e A A A B B +.+.n 0 2 C q.q.n w w h n h A C n n n n o.q.B L.o.v.B n A 6 C q.n h B A B k A o.A V A C n A A +.v.Z h B G.B A o.*.o.A B n B o.r.r.v.G.r.A n o.o.B n A o.B Z V B o.A.G.+.n n B A V n h n A B 0.Z e e B n 6 n v.o.0 h q.o.n n B G.d o.L.L.A +.A n k e e e e v.0.q.r.A h k Z J.A h n Z Z A A q.B Z B A q.B A A.A V 0 6 h B G.G.v.V e B v.v.C 0 n o.q.Z A 0.m.m.q.v.o.v.G.q.~.T.n A Z v.n o.A A q.n B w A V A C G.+.0.e v.o.0.n F.q.B I.F.N C +.o.C n n n B A o.q.q.Z C A B n v.r.o.C B C +.v.B 0 n k N C e F.e r.J.A n V A k n k n o.r.o.V n V e V +.e e B k Z q.G.0.n V v.r.o.n 0.G.V n Z C h n A A h T.h n J.e e V e t +.r.A e n A e w n e A o.A B B V B h A Z A A +.v.o.k r.F C V n w 6 - n C A B k e B Z ",
"0 0 f , < k f h e 0 C % 0 k  .@.B 0 w 0 j ..C 1 C 0 q V k q 6 <  .n 0 o.C V 0 d 0 < d k 0 j V e 6 C +.n w n B h e 6 e 0.A 6 w q.A n V b.o.0 6 B C n x B C x j x B x w d x w w C q q f n B n q 2 e n A Z B h e w B n w e C n w e < w w w w 2 2 n r.e 2 h A n w w w h v.n 2 0 6 V 6 0 n 0 B e V h e k n n h w e n 0 w 6 k R.e h V 6 0 0 n A h e o.o.0.w A B n 6 v.0 n n q.n q.n n 6 6 w e e t n n B h h B A n h e w B n e k e 0 w  .B B @.B 2 0  .0 w B * n e A e n w e r.0 n k e 0 C 6 n w w - 0 Z $ J.B B Z B w 7 k w 7 n n 2 O e 7 e n N F A w n k e h A r.r.A B n B n h A q.B A e h B h e B Z * 0 w e V * o.B w Z C n Z B e C 0 A +.e 0 B Z B e w 0 w e e e k k A +.B n C C n B n n e w C +.n l t n A n n B h n e n B n N +.A e w w n k w n 0.o.V n n h h B o.o.o.n 0 A e r.e +.0.w n n 0 A C e V e A V w F A A A n n V r.+.V t A +.Z +.r.F k +.+.e n L.o.e +.0.B t n B B C Z A e n B t F F.2.N A Z A V V N B ",
"B C @.k n r.o.@.A q V 0 B k n V =.[ o.q.=.L.G.C R.o.o.b.q.A B k o.V e @.A @.f q V k  .r.A o.q.n B 0.q.A Z v.v.+.n A A h n q.r.B V n B  .n 6 q V ..C C [ =.q.o.C C o...X.x.C h n  .V B V o.q.@.o.q.v.J.J.v.o.B n n B C 0.G.q.C q.e C o.+.0.A o.R.L.Z B q.A.q.+.r.B A L.V h A n B q.n A B m.C q.q.n A o.Z C V A Z n B h n T.e n B B +.Z B A C n V V q.B o.k B h 0.n o.q.G.+.q.C C C C V C Z A B n q.V n n B B B A B +.A n C B h k V [ V B A @.V e J.r.n r.t B e r.C n n C e k t n Z r.n B t C 0 n 2.* Z 6 0 B n B V A k w n N n n N e B r.+.A A V n n B n n V o.+.B n C C V v.F.o.B h B C e e n B w n n h h 6 n n w t e w n n e n 0 C 0.k 6 w B V e e e e e e e e h B n e n Z o.B 0.Z A n k +.A.A m t e e 0 e B B A n n B n n n 0 n n e 0 2 6 n r.q.h * < e h e w e r.h +.w h B B C A w V C e Z N e e % e n e n 6 w V +.A n k k k m.+.n w w e e w h k 0 w V h 6 n k w 0 e n n k k V e t n e k n t 0 e n k e w e t ",
"f f C d f  .B B j & q 0 V f e B h h C C j n C j v.j f n n e e 2 B B q B f A 0 < n d n V B B k 6 e 0 6 0 h B n n e C k & & k B 6 h h h q 1 , 0 n j x h d n o.C w x ..[ C A n w 6 V B h h n B B n B B C A C n e 0 0 B A o.+.n w n 6 k n k e 2 6 V Z B B A A B C 0.B A q.n k o.n e v.e e h o.h B A w n B k e n n k h n e 0 Z 6 h e w A V e h B n k e V A A w B B n n n o.A A h h e w w w e B B e 0 B h w w w w h n n A n e B C k k n C C C  .r.A e 2.Z e Z 0 w 6 C n k e w V n N 0.w w C C Z T.k 2.0.e r.n Z r.B C k A N n V N k n k 6 e 2.A t N +.n B n e e n B B o.A +.+.+.F.L.Z A A r.q.B B A B C +.r.C e C n V Z n n B B C Z B B +.0.A B C Z 2.V V V V B B B B k n e 0 h A o.B 0.A B h e C r.A F k n n k B q.o.Z B C 0.0.2.0.n n +.m.0.C Z r.F.A B n n n n A m.V G.V r.e B Z 0.Z 0.B 0.r.C Z B Z N w N 0.C V w N F F n w e N F r.A V +.r.r.r.2.A o.o.o.Z A A +.B n B 0.r.0.Z C B n n V +.V n C t N Z A B n V +.",
"k f B q f  .B V k < n f o.V B  .A A q.q.C C =...b.n V V @.B  .k B q.B B 0 [ h 0 B f k B C B k d q.n e B Z A A o.A V n e 6 * 0 n n [  .n q q k B n C n d n o.B 1 C q.[ h x B j j n k k B V [ V B n n n V Z A B k n Z o.A A e 6 e Z q.Z B n 0 6 n A V V C C V A Z A V C B B A B n o.n e h B h n B e V A k e n n e n B n e A e +.B h Z C n B A V A o.A r.A.A v.G.V A B 0.V v.n n w 0 w e n C C B e C B B V B B B V 0 e 2 * e k w 0 k d k A C q f  .n B 0.w C B Z e e e e * Z e B 0.w 6 Z e e Z * V w 0 B e Z F 0 w w n t e n e 6 6 0 * 6 k e e N A Z V n n C +.A n e 0 e e e V V 6 e e n e 6 e h 2 0 e B e & B * e F e n B w e n w n w 6 e B C N n 0 e h e e e e e A A B n n A Z C C n h 0 2 e A n e 7 k n n B C x 7 6 w n n N A n * e B e w e e e e n V B e 0 n v.G.V e * k w A n C A C Z V e e w t k k N B e e e N k 0 2 0 k V C * * 2 k N k t n 0 e n h 6 0 k e n k n Z 2.Z N n e k w k F k 6 n e t n n k e k B ",
"C h B q f  .B A n f q.0 k n n n B j B A n C q.q.o.f [ B @.n  .f k q.V k % k f d B j d k V B n V A.A B A A B B 0.v.B h A n 6 6 V e B [ n d q q 0 k n h 0 k [ k * k  .n 0 f B B C q q d n A @.@.o.B B B A q.r.+.A B C n e n n e k 0.o.n e B n h V V B B B o.q.+.C B e 0 n n w h C e B V n e n n h e B B n k B B k n n n e V e r.C A o.C A A n e A q.e B q.+.o.q.n +.k V n G.B B w e B A Z C B n n Z Z A A A o.o.A +.q.B n +.r.A B L.@.@.r.o.V @.T.n n C 0 Z C 0.w B N B 0 F 7 0 e V t J.e e +.n Q.0.0.0.Z r.A.Z r.T.J.A n Z F A r.0.F F C V A.!.J.A +.0.0.r.v.q.A A C o.o.+.F.L.A Z A Z C B q.r.n V Z m.q.k L.n o.!.r.F.R.Z C +.C 0.C N 0.m.r.r.A.A q.r.o.A Z A C A q.v.0.A A A A A n k e 6 h A V q 7 k V V A A h w 7 n n 0 0 n n T.F.0.k e C 0.Z C n e k n k e w G.n e * n k A C Z 0.r.Z B n n B 7 0 e k t e 0 e w e k V A A N n J.r.+.+.V e k Z B A q.o.n B 0.o.B t t N A V n n C A k t C e * e n w 7 e k e w e ",
"B q j q f C f n f f q.6 d n V B w , 6 w 0 h C C k 6 V 0 B 1 k < f o.B h & q e h f d 0 0 k e e  .A B n n e 0 w n V e 0 w n n e 6 6 e j f q 0 2 < q e 0 0 f B e * 2 f q 0 f k f k k e 0 0 e n B B h h k n n n n h A A e 6 e n e e n e < < e w 6 0 e e e h A r.o.h n h 6 n n 6 k B 2 A Z V w A n e e h n n B B V V k w e h n < A h B B n A o.e 0 C A 6 e h A n B e A e e n q.B n w 0 k C C n t n n 0.A n h n Z o.A B V e 0 k k 6 < n k 0 $ < B n 2 C e * t 0 e 6 e B V C B A w w e O $ B - 0 6 * n w e t C e n w e B n 7 w n n e n t k e 2 * n A w e Z A.r.A V Z q.n n B n w n n 6 e 0 w e w n n 0 k n B B h B e n Z B C A e 6 6 w 0 e B B w 6 w C e B B e 0 0 0 6 e B 0.+.V n n V C n B B h n o.A l e k n n C o.B t n Z C w w C Z C n w 6 w n B n B n B A Z C B A B n n A e 0.n G.V V 0.B e B B F N 7 e k C F t k 6 t A Z n w e C A A Z A n e w e w e e e e e e n 0.C B A +.Z A A +.+.V n V n e k +.n e n C B k k ",
" .k V B A @.k n B f @.h  .o.q.r.C j A q...[ q.x.q.B T.C r.f v.V A r.V [ q V n B B V n n A h e r.r.q.q.o.A C A +.B A V n n A B 0 B k j n B n k j B B n B V B h 0 e k f k V B k V [ B k j n B B B B V C V B n n n q.r.B h C A n h q.o.B B q.A e h e n B B o.m.Z w B r.B A A B q.n e o.o.v.V m.Z A +.V C q.r.Z A q.Z e B o.o.6 +.n B o.o.+.r.Z B o.A A A e +.B Z A Z B n v.q.+.B A n B Z Z A C C Z G.r.A B +.G.G.+.q.m.o.V 0.o.n h  .@.B q B b.q.e Z B 7 Z e n w A n n V 0.e e e n C r.R.F r.0 * * n C +.!.B C C n N A A 2.J.+.N A N N A B e V +.B h B A B n n B B o.o.+.B 0 e h 6 k e B Z B n B n Z V n A +.e o.0.Z C n B V e w V e V +.C e e n C n o.+.n e n B n w h V A B k k n n h B A n B o.A l 3 2 w w k B h 6 6 n n w w B C 0 6 0 k B B k e w e n B h e B q.e 0 e B 0 A 0 Z e 0 t 2 6 n w n k - e w e B 6 e 6 w e w * O 2 n 6 e n V A Z N e e h 6 6 B e 0 B C n e n V B B B t k n e 7 k n 6 V w 6 e n t e t ",
"n q B B V [ 0 0 B * f 0 B q 0 f d 0 B ..j w w d k 0 q.0 n < @.B f j 6 f 6 k 6 2 n A B B A 0 2  .e e e 0 w e e e h A r.o.e < 0 n k 0 < 6 e d f k B k f k k 7 2 < e q 2 0 f 0 2 k 0 0 q k V  .A B B A A A B n B V 6 h e 0 B C h e e h h n Z n 6 6 0 n B h n C e $ 6 0.k e e n A O 0 e 0 A h A e n +.n k A A e 0 n B < h o.A * C h k r.q.B B n w 6 0 A Z & h e n n h n e r.n n w B Z A C V B n e w A V n B 0.A.o.e e n h e n n w 0 h j B  .A n h n 6 n r.e V n 0.B C B C A.* 0 0 w B C n 6 C w C C A.r.r.!.0 B J.m.k n e e e 6 6 N 6 6 n A t e B V r.V w w V r.A e k n A n 0 k C n e w A v.B e k B A k 0 k 0.2 r.v.A V w e Z B e r.n B n k B F A t k Z o.n n A +.o.B V A +.o.C B B k e V +.V V o.A +.m m A A 0.v.Z e e V Z n B C B A.Z C Z A n B Z G.A e h B B n h R.h Z w r.q.A Z r.N F e B F.C A w 6 A k 7 e 6 A V N A r.2.A n V 2.F n e n 2.+.n A A 0 e A.A e r.C n e B C C C A C V +.B 7 n V * N e w n n t k V "
};
